%
(3rdDepthPocket)
(3rdDepthPocket)
(T1 D=6 CR=0 - ZMIN=-38 - flat end mill)
N10 G90 G94
N15 G17
N20 G21
N25 G28 G91 Z0
N30 G90

(3rdDepthPocket)
N35 T1 M6
N40 S14000 M3
N45 G54
N50 G0 X270.892 Y298.396
N55 G0 G43 Z15 H1
N60 G0 Z-17
N65 G1 Z-18.9 F1000
N70 G1 X270.872 Y298.427 Z-19.107 F333.3
N75 G1 X270.811 Y298.514 Z-19.289
N80 G1 X270.712 Y298.642 Z-19.423
N85 G1 X270.582 Y298.792 Z-19.493
N90 G1 X270.529 Y298.846 Z-19.5
N95 G3 X266.48 Y294.834 Z-19.813 I-2.025 J-2.006
N100 G3 X270.529 Y298.846 Z-20.125 I2.025 J2.006
N105 G3 X266.48 Y294.834 Z-20.438 I-2.025 J-2.006
N110 G3 X270.529 Y298.846 Z-20.751 I2.025 J2.006
N115 G3 X266.48 Y294.834 Z-21.063 I-2.025 J-2.006
N120 G3 X270.529 Y298.846 Z-21.376 I2.025 J2.006
N125 G3 X266.48 Y294.834 Z-21.689 I-2.025 J-2.006
N130 G3 X270.529 Y298.846 Z-22.001 I2.025 J2.006
N135 G3 X266.48 Y294.834 Z-22.314 I-2.025 J-2.006
N140 G3 X270.529 Y298.846 Z-22.627 I2.025 J2.006
N145 G3 X266.48 Y294.834 Z-22.939 I-2.025 J-2.006
N150 G3 X270.529 Y298.846 Z-23.252 I2.025 J2.006
N155 G3 X266.48 Y294.834 Z-23.565 I-2.025 J-2.006
N160 G3 X270.529 Y298.846 Z-23.877 I2.025 J2.006
N165 G3 X266.48 Y294.834 Z-24.19 I-2.025 J-2.006
N170 G3 X270.582 Y298.792 Z-24.5 I2.025 J2.006
N175 G1 X270.451 Y298.93 F420
N180 G3 X270 Y298.944 I-0.233 J-0.219
N185 G1 X251.497 Y281.559
N190 G3 X251.471 Y281.091 I0.233 J-0.248
N195 G1 X251.718 Y280.8
N200 G3 X252.153 Y280.776 I0.229 J0.195
N205 G1 X270.698 Y298.202
N210 G3 X270.712 Y298.653 I-0.219 J0.233
N215 G1 X270.582 Y298.792
N220 G2 X269.746 Y301.571 I2.372 J2.229
N225 G3 X267.189 Y302.946 I-1.508 J0.259
N230 G1 X244.827 Y281.934
N235 G3 X244.8 Y281.466 I0.233 J-0.248
N240 G1 X251.324 Y273.788
N245 G3 X251.759 Y273.763 I0.229 J0.195
N250 G1 X277.541 Y297.989
N255 G3 X277.555 Y298.44 I-0.219 J0.233
N260 G1 X270.664 Y305.773
N265 G3 X270.213 Y305.787 I-0.233 J-0.219
N270 G1 X267.189 Y302.946
N275 G2 X262.881 Y302.223 I-2.696 J2.869
N280 G3 X258.574 Y301.5 I-1.612 J-3.592
N285 G1 X239.924 Y283.976
N290 G3 X239.7 Y279.985 I1.986 J-2.113
N295 G1 X249.16 Y268.85
N300 G3 X253.356 Y268.614 I2.21 J1.878
N305 G1 X282.51 Y296.008
N310 G3 X282.637 Y300.107 I-1.986 J2.113
N315 G1 X272.645 Y310.742
N320 G3 X268.545 Y310.87 I-2.113 J-1.986
N325 G1 X258.574 Y301.5
N330 G3 X258.627 Y301.023 I0.205 J-0.219
N335 G1 X264.453 Y297.582
N340 G1 X264.514 Y297.554
N345 G1 X264.579 Y297.541
N350 G1 X264.646 Y297.543
N355 G1 X270.38 Y298.313
N360 G3 X270.556 Y298.819 I-0.04 J0.297
N365 G3 X266.454 Y294.861 Z-24.813 I-2.051 J-1.979 F333.3
N370 G3 X270.556 Y298.819 Z-25.125 I2.051 J1.979
N375 G3 X266.454 Y294.861 Z-25.438 I-2.051 J-1.979
N380 G3 X270.556 Y298.819 Z-25.751 I2.051 J1.979
N385 G3 X266.454 Y294.861 Z-26.063 I-2.051 J-1.979
N390 G3 X270.556 Y298.819 Z-26.376 I2.051 J1.979
N395 G3 X266.454 Y294.861 Z-26.689 I-2.051 J-1.979
N400 G3 X270.582 Y298.792 Z-27 I2.051 J1.979
N405 G1 X270.451 Y298.93 F420
N410 G3 X270 Y298.944 I-0.233 J-0.219
N415 G1 X251.497 Y281.559
N420 G3 X251.471 Y281.091 I0.233 J-0.248
N425 G1 X251.718 Y280.8
N430 G3 X252.153 Y280.776 I0.229 J0.195
N435 G1 X270.698 Y298.202
N440 G3 X270.712 Y298.653 I-0.219 J0.233
N445 G1 X270.582 Y298.792
N450 G2 X269.746 Y301.571 I2.372 J2.229
N455 G3 X267.189 Y302.946 I-1.508 J0.259
N460 G1 X244.827 Y281.934
N465 G3 X244.8 Y281.466 I0.233 J-0.248
N470 G1 X251.324 Y273.788
N475 G3 X251.759 Y273.763 I0.229 J0.195
N480 G1 X277.541 Y297.989
N485 G3 X277.555 Y298.44 I-0.219 J0.233
N490 G1 X270.664 Y305.773
N495 G3 X270.213 Y305.787 I-0.233 J-0.219
N500 G1 X267.189 Y302.946
N505 G2 X262.881 Y302.223 I-2.696 J2.869
N510 G3 X258.574 Y301.5 I-1.612 J-3.592
N515 G1 X239.924 Y283.976
N520 G3 X239.7 Y279.985 I1.986 J-2.113
N525 G1 X249.16 Y268.85
N530 G3 X253.356 Y268.614 I2.21 J1.878
N535 G1 X282.51 Y296.008
N540 G3 X282.637 Y300.107 I-1.986 J2.113
N545 G1 X272.645 Y310.742
N550 G3 X268.545 Y310.87 I-2.113 J-1.986
N555 G1 X258.574 Y301.5
N560 G3 X258.627 Y301.023 I0.205 J-0.219
N565 G1 X264.453 Y297.582
N570 G1 X264.514 Y297.554
N575 G1 X264.579 Y297.541
N580 G1 X264.646 Y297.543
N585 G1 X270.38 Y298.313
N590 G3 X270.556 Y298.819 I-0.04 J0.297
N595 G3 X266.454 Y294.861 Z-27.313 I-2.051 J-1.979 F333.3
N600 G3 X270.556 Y298.819 Z-27.625 I2.051 J1.979
N605 G3 X266.454 Y294.861 Z-27.938 I-2.051 J-1.979
N610 G3 X270.556 Y298.819 Z-28.251 I2.051 J1.979
N615 G3 X266.454 Y294.861 Z-28.563 I-2.051 J-1.979
N620 G3 X270.556 Y298.819 Z-28.876 I2.051 J1.979
N625 G3 X266.454 Y294.861 Z-29.189 I-2.051 J-1.979
N630 G3 X270.582 Y298.792 Z-29.5 I2.051 J1.979
N635 G1 X270.451 Y298.93 F420
N640 G3 X270 Y298.944 I-0.233 J-0.219
N645 G1 X251.497 Y281.559
N650 G3 X251.471 Y281.091 I0.233 J-0.248
N655 G1 X251.718 Y280.8
N660 G3 X252.153 Y280.776 I0.229 J0.195
N665 G1 X270.698 Y298.202
N670 G3 X270.712 Y298.653 I-0.219 J0.233
N675 G1 X270.582 Y298.792
N680 G2 X269.746 Y301.571 I2.372 J2.229
N685 G3 X267.189 Y302.946 I-1.508 J0.259
N690 G1 X244.827 Y281.934
N695 G3 X244.8 Y281.466 I0.233 J-0.248
N700 G1 X251.324 Y273.788
N705 G3 X251.759 Y273.763 I0.229 J0.195
N710 G1 X277.541 Y297.989
N715 G3 X277.555 Y298.44 I-0.219 J0.233
N720 G1 X270.664 Y305.773
N725 G3 X270.213 Y305.787 I-0.233 J-0.219
N730 G1 X267.189 Y302.946
N735 G2 X262.881 Y302.223 I-2.696 J2.869
N740 G3 X258.574 Y301.5 I-1.612 J-3.592
N745 G1 X239.924 Y283.976
N750 G3 X239.7 Y279.985 I1.986 J-2.113
N755 G1 X249.16 Y268.85
N760 G3 X253.356 Y268.614 I2.21 J1.878
N765 G1 X282.51 Y296.008
N770 G3 X282.637 Y300.107 I-1.986 J2.113
N775 G1 X272.645 Y310.742
N780 G3 X268.545 Y310.87 I-2.113 J-1.986
N785 G1 X258.574 Y301.5
N790 G3 X258.627 Y301.023 I0.205 J-0.219
N795 G1 X264.453 Y297.582
N800 G1 X264.514 Y297.554
N805 G1 X264.579 Y297.541
N810 G1 X264.646 Y297.543
N815 G1 X270.38 Y298.313
N820 G3 X270.556 Y298.819 I-0.04 J0.297
N825 G3 X266.454 Y294.861 Z-29.813 I-2.051 J-1.979 F333.3
N830 G3 X270.556 Y298.819 Z-30.125 I2.051 J1.979
N835 G3 X266.454 Y294.861 Z-30.438 I-2.051 J-1.979
N840 G3 X270.556 Y298.819 Z-30.751 I2.051 J1.979
N845 G3 X266.454 Y294.861 Z-31.063 I-2.051 J-1.979
N850 G3 X270.556 Y298.819 Z-31.376 I2.051 J1.979
N855 G3 X266.454 Y294.861 Z-31.689 I-2.051 J-1.979
N860 G3 X270.582 Y298.792 Z-32 I2.051 J1.979
N865 G1 X270.451 Y298.93 F420
N870 G3 X270 Y298.944 I-0.233 J-0.219
N875 G1 X251.497 Y281.559
N880 G3 X251.471 Y281.091 I0.233 J-0.248
N885 G1 X251.718 Y280.8
N890 G3 X252.153 Y280.776 I0.229 J0.195
N895 G1 X270.698 Y298.202
N900 G3 X270.712 Y298.653 I-0.219 J0.233
N905 G1 X270.582 Y298.792
N910 G2 X269.746 Y301.571 I2.372 J2.229
N915 G3 X267.189 Y302.946 I-1.508 J0.259
N920 G1 X244.827 Y281.934
N925 G3 X244.8 Y281.466 I0.233 J-0.248
N930 G1 X251.324 Y273.788
N935 G3 X251.759 Y273.763 I0.229 J0.195
N940 G1 X277.541 Y297.989
N945 G3 X277.555 Y298.44 I-0.219 J0.233
N950 G1 X270.664 Y305.773
N955 G3 X270.213 Y305.787 I-0.233 J-0.219
N960 G1 X267.189 Y302.946
N965 G2 X262.881 Y302.223 I-2.696 J2.869
N970 G3 X258.574 Y301.5 I-1.612 J-3.592
N975 G1 X239.924 Y283.976
N980 G3 X239.7 Y279.985 I1.986 J-2.113
N985 G1 X249.16 Y268.85
N990 G3 X253.356 Y268.614 I2.21 J1.878
N995 G1 X282.51 Y296.008
N1000 G3 X282.637 Y300.107 I-1.986 J2.113
N1005 G1 X272.645 Y310.742
N1010 G3 X268.545 Y310.87 I-2.113 J-1.986
N1015 G1 X258.574 Y301.5
N1020 G3 X258.627 Y301.023 I0.205 J-0.219
N1025 G1 X264.453 Y297.582
N1030 G1 X264.514 Y297.554
N1035 G1 X264.579 Y297.541
N1040 G1 X264.646 Y297.543
N1045 G1 X270.38 Y298.313
N1050 G3 X270.556 Y298.819 I-0.04 J0.297
N1055 G3 X266.454 Y294.861 Z-32.313 I-2.051 J-1.979 F333.3
N1060 G3 X270.556 Y298.819 Z-32.625 I2.051 J1.979
N1065 G3 X266.454 Y294.861 Z-32.938 I-2.051 J-1.979
N1070 G3 X270.556 Y298.819 Z-33.251 I2.051 J1.979
N1075 G3 X266.454 Y294.861 Z-33.563 I-2.051 J-1.979
N1080 G3 X270.556 Y298.819 Z-33.876 I2.051 J1.979
N1085 G3 X266.454 Y294.861 Z-34.189 I-2.051 J-1.979
N1090 G3 X270.582 Y298.792 Z-34.5 I2.051 J1.979
N1095 G1 X270.451 Y298.93 F420
N1100 G3 X270 Y298.944 I-0.233 J-0.219
N1105 G1 X251.497 Y281.559
N1110 G3 X251.471 Y281.091 I0.233 J-0.248
N1115 G1 X251.718 Y280.8
N1120 G3 X252.153 Y280.776 I0.229 J0.195
N1125 G1 X270.698 Y298.202
N1130 G3 X270.712 Y298.653 I-0.219 J0.233
N1135 G1 X270.582 Y298.792
N1140 G2 X269.746 Y301.571 I2.372 J2.229
N1145 G3 X267.189 Y302.946 I-1.508 J0.259
N1150 G1 X244.827 Y281.934
N1155 G3 X244.8 Y281.466 I0.233 J-0.248
N1160 G1 X251.324 Y273.788
N1165 G3 X251.759 Y273.763 I0.229 J0.195
N1170 G1 X277.541 Y297.989
N1175 G3 X277.555 Y298.44 I-0.219 J0.233
N1180 G1 X270.664 Y305.773
N1185 G3 X270.213 Y305.787 I-0.233 J-0.219
N1190 G1 X267.189 Y302.946
N1195 G2 X262.881 Y302.223 I-2.696 J2.869
N1200 G3 X258.574 Y301.5 I-1.612 J-3.592
N1205 G1 X239.924 Y283.976
N1210 G3 X239.7 Y279.985 I1.986 J-2.113
N1215 G1 X249.16 Y268.85
N1220 G3 X253.356 Y268.614 I2.21 J1.878
N1225 G1 X282.51 Y296.008
N1230 G3 X282.637 Y300.107 I-1.986 J2.113
N1235 G1 X272.645 Y310.742
N1240 G3 X268.545 Y310.87 I-2.113 J-1.986
N1245 G1 X258.574 Y301.5
N1250 G3 X258.627 Y301.023 I0.205 J-0.219
N1255 G1 X264.453 Y297.582
N1260 G1 X264.514 Y297.554
N1265 G1 X264.579 Y297.541
N1270 G1 X264.646 Y297.543
N1275 G1 X270.38 Y298.313
N1280 G3 X270.556 Y298.819 I-0.04 J0.297
N1285 G3 X266.454 Y294.861 Z-34.813 I-2.051 J-1.979 F333.3
N1290 G3 X270.556 Y298.819 Z-35.125 I2.051 J1.979
N1295 G3 X266.454 Y294.861 Z-35.438 I-2.051 J-1.979
N1300 G3 X270.556 Y298.819 Z-35.751 I2.051 J1.979
N1305 G3 X266.454 Y294.861 Z-36.063 I-2.051 J-1.979
N1310 G3 X270.556 Y298.819 Z-36.376 I2.051 J1.979
N1315 G3 X266.454 Y294.861 Z-36.689 I-2.051 J-1.979
N1320 G3 X270.582 Y298.792 Z-37 I2.051 J1.979
N1325 G1 X270.451 Y298.93 F420
N1330 G3 X270 Y298.944 I-0.233 J-0.219
N1335 G1 X251.497 Y281.559
N1340 G3 X251.471 Y281.091 I0.233 J-0.248
N1345 G1 X251.718 Y280.8
N1350 G3 X252.153 Y280.776 I0.229 J0.195
N1355 G1 X270.698 Y298.202
N1360 G3 X270.712 Y298.653 I-0.219 J0.233
N1365 G1 X270.582 Y298.792
N1370 G2 X269.746 Y301.571 I2.372 J2.229
N1375 G3 X267.189 Y302.946 I-1.508 J0.259
N1380 G1 X244.827 Y281.934
N1385 G3 X244.8 Y281.466 I0.233 J-0.248
N1390 G1 X251.324 Y273.788
N1395 G3 X251.759 Y273.763 I0.229 J0.195
N1400 G1 X277.541 Y297.989
N1405 G3 X277.555 Y298.44 I-0.219 J0.233
N1410 G1 X270.664 Y305.773
N1415 G3 X270.213 Y305.787 I-0.233 J-0.219
N1420 G1 X267.189 Y302.946
N1425 G2 X262.881 Y302.223 I-2.696 J2.869
N1430 G3 X258.574 Y301.5 I-1.612 J-3.592
N1435 G1 X239.924 Y283.976
N1440 G3 X239.7 Y279.985 I1.986 J-2.113
N1445 G1 X249.16 Y268.85
N1450 G3 X253.356 Y268.614 I2.21 J1.878
N1455 G1 X282.51 Y296.008
N1460 G3 X282.637 Y300.107 I-1.986 J2.113
N1465 G1 X272.645 Y310.742
N1470 G3 X268.545 Y310.87 I-2.113 J-1.986
N1475 G1 X258.574 Y301.5
N1480 G3 X258.62 Y301.027 I0.205 J-0.219
N1485 G1 X265.541 Y296.682
N1490 G2 X265.679 Y296.467 I-0.16 J-0.254
N1495 G3 X271.33 Y297.213 Z-37.313 I2.826 J0.373 F333.3
N1500 G3 X265.679 Y296.467 Z-37.625 I-2.825 J-0.373
N1505 G3 X271.33 Y297.213 Z-37.938 I2.825 J0.373
N1510 G3 X270.582 Y298.792 Z-38 I-2.825 J-0.373
N1515 G1 X270.451 Y298.93 F420
N1520 G3 X270 Y298.944 I-0.233 J-0.219
N1525 G1 X251.497 Y281.559
N1530 G3 X251.471 Y281.091 I0.233 J-0.248
N1535 G1 X251.718 Y280.8
N1540 G3 X252.153 Y280.776 I0.229 J0.195
N1545 G1 X270.698 Y298.202
N1550 G3 X270.712 Y298.653 I-0.219 J0.233
N1555 G1 X270.582 Y298.792
N1560 G2 X269.746 Y301.571 I2.372 J2.229
N1565 G3 X267.189 Y302.946 I-1.508 J0.259
N1570 G1 X244.827 Y281.934
N1575 G3 X244.8 Y281.466 I0.233 J-0.248
N1580 G1 X251.324 Y273.788
N1585 G3 X251.759 Y273.763 I0.229 J0.195
N1590 G1 X277.541 Y297.989
N1595 G3 X277.555 Y298.44 I-0.219 J0.233
N1600 G1 X270.664 Y305.773
N1605 G3 X270.213 Y305.787 I-0.233 J-0.219
N1610 G1 X267.189 Y302.946
N1615 G2 X262.881 Y302.223 I-2.696 J2.869
N1620 G3 X258.574 Y301.5 I-1.612 J-3.592
N1625 G1 X239.924 Y283.976
N1630 G3 X239.7 Y279.985 I1.986 J-2.113
N1635 G1 X249.16 Y268.85
N1640 G3 X253.356 Y268.614 I2.21 J1.878
N1645 G1 X282.51 Y296.008
N1650 G3 X282.637 Y300.107 I-1.986 J2.113
N1655 G1 X272.645 Y310.742
N1660 G3 X268.545 Y310.87 I-2.113 J-1.986
N1665 G1 X258.574 Y301.5
N1670 G1 X258.511 Y301.432 Z-37.985 F1000
N1675 G1 X258.46 Y301.354 Z-37.971
N1680 G1 X258.425 Y301.279 Z-37.928
N1685 G1 X258.4 Y301.199 Z-37.885
N1690 G1 X258.389 Y301.134 Z-37.819
N1695 G1 X258.385 Y301.067 Z-37.753
N1700 G1 X258.39 Y300.982 Z-37.585
N1705 G1 X258.395 Y300.953 Z-37.4
N1710 G0 Z15
N1715 G28 G91 Z0
N1720 G90
N1725 G28 G91 X0 Y0
N1730 G90
N1735 M30
%
