%
(BodyFirstPass)
(BodyFirstPass)
(T1 D=6 CR=0 - ZMIN=-22 - flat end mill)
N10 G90 G94
N15 G17
N20 G21
N25 G28 G91 Z0
N30 G90

(BodyFirstPass)
N35 T1 M6
N40 S14000 M3
N45 G54
N50 G0 X263.764 Y207.006
N55 G0 G43 Z15 H1
N60 G0 Z5
N65 G1 Z3.1 F1000
N70 G1 X263.791 Y207.009 Z2.918 F333.3
N75 G1 X263.872 Y207.023 Z2.754
N80 G1 X263.997 Y207.048 Z2.622
N85 G1 X264.154 Y207.087 Z2.534
N90 G1 X264.325 Y207.142 Z2.5
N95 G3 X262.426 Y212.516 Z2.187 I-0.95 J2.687
N100 G3 X264.325 Y207.142 Z1.875 I0.95 J-2.687
N105 G3 X262.426 Y212.516 Z1.562 I-0.95 J2.687
N110 G3 X264.325 Y207.142 Z1.249 I0.95 J-2.687
N115 G3 X262.426 Y212.516 Z0.937 I-0.95 J2.687
N120 G3 X264.325 Y207.142 Z0.624 I0.95 J-2.687
N125 G3 X262.426 Y212.516 Z0.311 I-0.95 J2.687
N130 G3 X264.325 Y207.142 Z-0.001 I0.95 J-2.687
N135 G3 X262.426 Y212.516 Z-0.314 I-0.95 J2.687
N140 G3 X264.325 Y207.142 Z-0.627 I0.95 J-2.687
N145 G3 X262.426 Y212.516 Z-0.939 I-0.95 J2.687
N150 G3 X264.325 Y207.142 Z-1.252 I0.95 J-2.687
N155 G3 X262.426 Y212.516 Z-1.565 I-0.95 J2.687
N160 G3 X264.325 Y207.142 Z-1.877 I0.95 J-2.687
N165 G3 X266.226 Y209.834 Z-2 I-0.95 J2.687
N170 G1 X266.216 Y215.725 F420
N175 G1 X266.261 Y237.287
N180 G3 X266.019 Y237.368 I-0.134 J0
N185 G2 X264.522 Y235.642 I-14.667 J11.212
N190 G3 X264.233 Y234.936 I0.719 J-0.706
N195 G1 X264.278 Y215.725
N200 G2 X264.046 Y212.945 I-16.719 J0
N205 G2 X263.397 Y210.232 I-20.382 J3.437
N210 G3 Y209.431 I1.284 J-0.4
N215 G2 X264.046 Y206.718 I-19.733 J-6.151
N220 G2 X264.278 Y203.938 I-16.486 J-2.78
N225 G1 X264.233 Y189.457
N230 G3 X264.553 Y189.137 I0.319 J0
N235 G1 X265.941
N240 G3 X266.261 Y189.457 I0 J0.319
N245 G1 X266.226 Y209.834
N250 G3 X265.91 Y210.133 I-0.3 J-0.001
N255 G1 X226.522 Y208.077
N260 G2 X226.23 Y208.493 I-0.016 J0.3
N265 G2 X226.641 Y209.428 I27.888 J-11.712
N270 G3 Y210.235 I-0.876 J0.403
N275 G2 X226.224 Y211.186 I26.387 J12.146
N280 G2 X225.883 Y212.167 I7.85 J3.278
N285 G1 X222.403 Y224.741
N290 G1 X222.387 Y224.775
N295 G1 X222.36 Y224.8
N300 G1 X222.325 Y224.815
N305 G1 X222.288 Y224.817
N310 G1 X222.252 Y224.805
N315 G1 X222.223 Y224.782
N320 G1 X222.204 Y224.749
N325 G1 X222.197 Y224.713
N330 G1 X222.242 Y215.622
N335 G2 X221.9 Y212.74 I-12.311 J0
N340 G2 X220.935 Y210.004 I-13.731 J3.306
N345 G3 Y209.215 I0.833 J-0.394
N350 G2 X221.9 Y206.479 I-12.765 J-6.043
N355 G2 X222.242 Y203.597 I-11.969 J-2.882
N360 G2 X222.22 Y199.335 I-403.716 J0
N365 G3 X222.197 Y195.072 I403.693 J-4.262
N370 G1 X222.204 Y195.036
N375 G1 X222.223 Y195.003
N380 G1 X222.252 Y194.98
N385 G1 X222.288 Y194.968
N390 G1 X222.325 Y194.97
N395 G1 X222.36 Y194.984
N400 G1 X222.387 Y195.01
N405 G1 X222.404 Y195.044
N410 G1 X225.892 Y207.528
N415 G2 X226.23 Y208.493 I8.092 J-2.291
N420 G2 X228.238 Y209.626 I1.735 J-0.729
N425 G3 X229.587 Y211.496 I0.188 J1.286
N430 G1 X229.575 Y211.518
N435 G2 X228.988 Y213.038 I7.636 J3.826
N440 G1 X221.872 Y238.573
N445 G3 X221.436 Y238.904 I-0.437 J-0.122
N450 G1 X219.287
N455 G3 X218.974 Y238.591 I0 J-0.313
N460 G1 X219.018 Y215.622
N465 G2 X218.527 Y212.609 I-9.505 J0
N470 G2 X217.144 Y209.886 I-9.859 J3.296
N475 G3 Y209.333 I0.39 J-0.277
N480 G2 X218.527 Y206.611 I-8.476 J-6.018
N485 G2 X219.018 Y203.597 I-9.015 J-3.014
N490 G1 X218.974 Y180.896
N495 G3 X219.287 Y180.583 I0.313 J0
N500 G1 X221.315
N505 G3 X221.753 Y180.914 I0 J0.455
N510 G1 X228.994 Y206.649
N515 G2 X229.581 Y208.156 I8.2 J-2.322
N520 G2 X230.403 Y209.548 I10.631 J-5.346
N525 G3 Y210.115 I-0.413 J0.284
N530 G2 X229.587 Y211.496 I9.778 J6.717
N535 G1 X229.541 Y211.576 Z-1.985 F1000
N540 G1 X229.483 Y211.649 Z-1.971
N545 G1 X229.422 Y211.706 Z-1.928
N550 G1 X229.354 Y211.754 Z-1.885
N555 G1 X229.295 Y211.785 Z-1.819
N560 G1 X229.233 Y211.809 Z-1.753
N565 G1 X229.151 Y211.831 Z-1.585
N570 G1 X229.122 Y211.835 Z-1.4
N575 G1 Z2
N580 G1 X219.656 Y209.614 F420
N585 G1 Z-1.4 F1000
N590 G1 X219.649 Z-1.494
N595 G1 X219.627 Z-1.585
N600 G1 X219.591 Y209.613 Z-1.672
N605 G1 X219.542 Z-1.753
N610 G1 X219.48 Z-1.824
N615 G1 X219.409 Y209.612 Z-1.885
N620 G1 X219.329 Y209.611 Z-1.935
N625 G1 X219.242 Z-1.971
N630 G1 X219.15 Y209.61 Z-1.993
N635 G1 X219.056 Z-2
N640 G1 X175.501 Y209.31 F420
N645 G2 X175.199 Y209.61 I-0.002 J0.3
N650 G3 X175.11 Y210 I-0.906 J0
N655 G2 X174.648 Y211.028 I21.871 J10.458
N660 G2 X174.276 Y212.091 I8.233 J3.477
N665 G1 X171.012 Y223.898
N670 G1 X170.995 Y223.932
N675 G1 X170.968 Y223.958
N680 G1 X170.934 Y223.972
N685 G1 X170.896 Y223.974
N690 G1 X170.861 Y223.962
N695 G1 X170.831 Y223.939
N700 G1 X170.812 Y223.907
N705 G1 X170.806 Y223.87
N710 G1 Y194.017
N715 G1 X170.812 Y193.98
N720 G1 X170.831 Y193.948
N725 G1 X170.861 Y193.925
N730 G1 X170.896 Y193.914
N735 G1 X170.933 Y193.916
N740 G1 X170.967 Y193.931
N745 G1 X170.994 Y193.958
N750 G1 X171.009 Y193.991
N755 G1 X174.186 Y206.791
N760 G2 X174.588 Y208.028 I9.41 J-2.37
N765 G2 X175.11 Y209.219 I18.527 J-7.418
N770 G3 X175.199 Y209.61 I-0.817 J0.391
N775 G2 X176.193 Y212.139 I3.715 J0
N780 G3 X176.835 Y214.779 I-2.038 J1.894
N785 G1 X170.187 Y238.634
N790 G3 X169.75 Y238.965 I-0.437 J-0.122
N795 G1 X167.934
N800 G3 X167.621 Y238.652 I0 J-0.313
N805 G1 Y180.835
N810 G3 X167.934 Y180.522 I0.313 J0
N815 G1 X170.562
N820 G3 X170.984 Y180.852 I0 J0.436
N825 G1 X177.276 Y206.013
N830 G2 X177.914 Y207.749 I8.508 J-2.143
N835 G2 X178.865 Y209.335 I10.118 J-4.987
N840 G3 Y209.884 I-0.383 J0.275
N845 G2 X177.97 Y211.351 I9.384 J6.729
N850 G2 X177.344 Y212.951 I7.672 J3.927
N855 G1 X176.835 Y214.779
N860 G1 X176.803 Y214.866 Z-1.985 F1000
N865 G1 X176.758 Y214.947 Z-1.971
N870 G1 X176.707 Y215.013 Z-1.928
N875 G1 X176.648 Y215.072 Z-1.885
N880 G1 X176.595 Y215.112 Z-1.819
N885 G1 X176.538 Y215.147 Z-1.753
N890 G1 X176.46 Y215.181 Z-1.585
N895 G1 X176.433 Y215.191 Z-1.4
N900 G0 Z5
N905 G0 X274.43 Y278.172
N910 G1 Z3.1 F1000
N915 G1 X274.435 Y278.199 Z2.918 F333.3
N920 G1 X274.448 Y278.28 Z2.754
N925 G1 X274.464 Y278.406 Z2.622
N930 G1 X274.477 Y278.567 Z2.534
N935 G1 X274.48 Y278.747 Z2.5
N940 G3 X268.781 Y278.666 Z2.187 I-2.85 J-0.041
N945 G3 X274.48 Y278.747 Z1.875 I2.85 J0.041
N950 G3 X268.781 Y278.666 Z1.562 I-2.85 J-0.041
N955 G3 X274.48 Y278.747 Z1.249 I2.85 J0.041
N960 G3 X268.781 Y278.666 Z0.937 I-2.85 J-0.041
N965 G3 X274.48 Y278.747 Z0.624 I2.85 J0.041
N970 G3 X268.781 Y278.666 Z0.311 I-2.85 J-0.041
N975 G3 X274.48 Y278.747 Z-0.001 I2.85 J0.041
N980 G3 X268.781 Y278.666 Z-0.314 I-2.85 J-0.041
N985 G3 X274.48 Y278.747 Z-0.627 I2.85 J0.041
N990 G3 X268.781 Y278.666 Z-0.939 I-2.85 J-0.041
N995 G3 X274.48 Y278.747 Z-1.252 I2.85 J0.041
N1000 G3 X268.781 Y278.666 Z-1.565 I-2.85 J-0.041
N1005 G3 X274.48 Y278.747 Z-1.877 I2.85 J0.041
N1010 G3 X272.537 Y281.409 Z-2 I-2.85 J-0.041
N1015 G2 X271.951 Y281.613 I8.399 J25.036 F420
N1020 G3 X271.304 Y281.48 I-0.215 J-0.593
N1025 G1 X270.729 Y280.939
N1030 G3 X270.684 Y280.45 I0.254 J-0.27
N1035 G2 X271.397 Y279.463 I-69.236 J-50.806
N1040 G2 X272.08 Y278.455 I-20.732 J-14.766
N1045 G3 X272.406 Y278.465 I0.16 J0.103
N1050 G2 X273.005 Y279.502 I51.742 J-29.185
N1055 G1 X273.73 Y280.728
N1060 G3 X273.59 Y281.08 I-0.206 J0.122
N1065 G2 X272.537 Y281.409 I7.346 J25.366
N1070 G2 X271.675 Y282.839 I0.41 J1.221
N1075 G3 X270.202 Y283.624 I-0.87 J0.143
N1080 G1 X267.565 Y281.146
N1085 G3 X267.538 Y280.679 I0.233 J-0.248
N1090 G2 X269.19 Y278.617 I-39.373 J-33.247
N1095 G2 X270.662 Y276.423 I-17.836 J-13.558
N1100 G2 X272.087 Y273.709 I-27.215 J-16.017
N1105 G3 X272.386 Y273.701 I0.151 J0.071
N1110 G2 X274.579 Y277.628 I130.506 J-70.31
N1115 G2 X276.85 Y281.512 I422.706 J-244.565
N1120 G2 X277.115 Y281.921 I5.081 J-3.002
N1125 G3 X277.384 Y282.327 I-6.372 J4.514
N1130 G3 X277.24 Y282.64 I-0.176 J0.109
N1135 G2 X271.431 Y284.31 I3.696 J23.805
N1140 G3 X270.816 Y284.201 I-0.225 J-0.524
N1145 G1 X270.202 Y283.624
N1150 G2 X266.557 Y283.013 I-2.281 J2.428
N1155 G3 X262.913 Y282.401 I-1.364 J-3.039
N1160 G1 X261.6 Y281.168
N1165 G3 X261.616 Y280.761 I0.185 J-0.196
N1170 G2 X266.941 Y274.66 I-14.418 J-17.959
N1175 G2 X270.225 Y267.258 I-28.225 J-16.952
N1180 G2 X270.753 Y265.066 I-18.659 J-5.656
N1185 G2 X271.1 Y262.838 I-45.794 J-8.266
N1190 G1 X271.112 Y262.799
N1195 G1 X271.135 Y262.766
N1200 G1 X271.168 Y262.741
N1205 G1 X271.206 Y262.728
N1210 G1 X271.247
N1215 G1 X271.286 Y262.741
N1220 G1 X271.319 Y262.765
N1225 G1 X271.343 Y262.799
N1230 G2 X273.674 Y267.494 I352.41 J-172.028
N1235 G2 X276.143 Y272.118 I101.562 J-51.269
N1240 G1 X278.123 Y275.627
N1245 G2 X280.576 Y279.78 I104.102 J-58.719
N1250 G2 X282.709 Y283.15 I167.642 J-103.69
N1255 G1 X284.94 Y286.6
N1260 G3 X284.785 Y286.829 I-0.126 J0.082
N1265 G2 X270.71 Y289.269 I-3.848 J19.616
N1270 G3 X270.157 Y289.208 I-0.236 J-0.397
N1275 G1 X262.913 Y282.401
N1280 G2 X259.716 Y281.864 I-2.001 J2.129
N1285 G3 X256.519 Y281.328 I-1.196 J-2.666
N1290 G1 X256.467 Y281.279
N1295 G3 X256.441 Y280.812 I0.233 J-0.248
N1300 G1 X257.85 Y279.154
N1305 G3 X258.327 Y278.724 I1.825 J1.551
N1310 G2 X263.627 Y273.194 I-10.391 J-15.262
N1315 G2 X266.783 Y266.215 I-25.022 J-15.52
N1320 G2 X267.308 Y264.034 I-18.432 J-5.587
N1325 G2 X267.652 Y261.818 I-46.344 J-8.327
N1330 G2 X267.791 Y259.685 I-16.3 J-2.133
N1335 G1 Y248.581
N1340 G2 X266.404 Y242.029 I-16.172 J0
N1345 G2 X262.517 Y236.576 I-15.239 J6.753
N1350 G3 X262.165 Y235.769 I0.75 J-0.807
N1355 G1 X262.21 Y215.725
N1360 G2 X261.959 Y212.995 I-14.967 J0
N1365 G2 X261.257 Y210.345 I-17.874 J3.316
N1370 G3 Y209.318 I1.478 J-0.514
N1375 G2 X261.959 Y206.668 I-17.172 J-5.966
N1380 G2 X262.21 Y203.938 I-14.716 J-2.73
N1385 G1 X262.165 Y187.389
N1390 G3 X262.485 Y187.069 I0.319 J0
N1395 G1 X268.01
N1400 G3 X268.329 Y187.389 I0 J0.319
N1405 G1 X268.284 Y241.804
N1410 G2 X268.197 Y243.971 I52.581 J3.193
N1415 G2 X268.331 Y246.136 I13.361 J0.26
N1420 G2 X269.591 Y250.582 I17.221 J-2.48
N1425 G2 X271.483 Y254.797 I170.815 J-74.114
N1430 G1 X273.205 Y258.512
N1435 G2 X275.275 Y262.752 I107.086 J-49.656
N1440 G1 X277.131 Y266.368
N1445 G2 X279.275 Y270.351 I102.13 J-52.414
N1450 G1 X281.255 Y273.861
N1455 G2 X283.635 Y277.888 I100.97 J-56.953
N1460 G1 X285.748 Y281.305
N1465 G2 X288.289 Y285.233 I98.284 J-60.791
N1470 G1 X290.536 Y288.556
N1475 G2 X293.177 Y292.301 I95.005 J-64.22
N1480 G2 X295.891 Y295.934 I260.125 J-191.408
N1485 G2 X298.676 Y299.513 I138.377 J-104.849
N1490 G1 X298.694 Y299.546
N1495 G1 X298.699 Y299.582
N1500 G1 X298.69 Y299.618
N1505 G1 X298.669 Y299.649
N1510 G1 X298.639 Y299.67
N1515 G1 X298.603 Y299.679
N1520 G1 X298.566 Y299.675
N1525 G1 X298.533 Y299.658
N1530 G3 X294.343 Y296.259 I76.68 J-98.813
N1535 G1 X291.565 Y293.905
N1540 G2 X270.377 Y293.904 I-10.594 J12.499
N1545 G3 X269.889 Y293.891 I-0.236 J-0.281
N1550 G1 X256.519 Y281.328
N1555 G2 X254.566 Y281.087 I-1.141 J1.215
N1560 G3 X253.318 Y279.566 I-0.487 J-0.873
N1565 G1 X255.713 Y276.746
N1570 G3 X256.243 Y276.282 I1.825 J1.551
N1575 G2 X260.01 Y272.749 I-7.715 J-12
N1580 G2 X262.647 Y268.308 I-20.884 J-15.4
N1585 G2 X263.834 Y264.927 I-16.538 J-7.706
N1590 G2 X264.492 Y261.404 I-31.906 J-7.784
N1595 G2 X264.604 Y259.685 I-13.14 J-1.72
N1600 G1 Y248.581
N1605 G2 X263.201 Y242.697 I-13.04 J0
N1610 G2 X259.326 Y238.052 I-11.981 J6.058
N1615 G3 X258.978 Y237.353 I0.529 J-0.699
N1620 G1 X259.023 Y215.725
N1625 G2 X258.699 Y212.915 I-12.334 J0
N1630 G2 X257.784 Y210.237 I-13.892 J3.251
N1635 G3 Y209.426 I0.888 J-0.406
N1640 G2 X258.699 Y206.748 I-12.977 J-5.929
N1645 G2 X259.023 Y203.938 I-12.009 J-2.811
N1650 G1 X258.978 Y184.202
N1655 G3 X259.298 Y183.882 I0.319 J0
N1660 G1 X271.197
N1665 G3 X271.516 Y184.202 I0 J0.319
N1670 G1 X271.471 Y242.008
N1675 G2 X271.381 Y243.845 I48.657 J3.292
N1680 G2 X271.485 Y245.682 I10.651 J0.318
N1685 G2 X272.618 Y249.538 I13.982 J-2.013
N1690 G3 X274.261 Y253.207 I-243.404 J111.195
N1695 G2 X276.172 Y257.331 I102.477 J-44.967
N1700 G1 X277.992 Y261.059
N1705 G2 X280.07 Y265.112 I103.005 J-50.281
N1710 G1 X281.925 Y268.557
N1715 G2 X284.185 Y272.561 I101.554 J-54.672
N1720 G1 X286.207 Y275.982
N1725 G2 X288.603 Y279.856 I96.989 J-57.314
N1730 G1 X290.782 Y283.225
N1735 G2 X293.316 Y286.974 I94.39 J-61.056
N1740 G1 X295.59 Y290.197
N1745 G2 X298.29 Y293.866 I92.889 J-65.535
N1750 G1 X300.719 Y297.033
N1755 G2 X303.549 Y300.571 I89.868 J-68.957
N1760 G1 X306.123 Y303.662
N1765 G2 X309.091 Y307.085 I87.957 J-73.26
N1770 G1 X311.795 Y310.082
N1775 G2 X314.299 Y312.73 I58.04 J-52.368
N1780 G3 X316.854 Y315.329 I-341.706 J338.506
N1785 G1 X316.875 Y315.36
N1790 G1 X316.884 Y315.396
N1795 G1 X316.879 Y315.434
N1800 G1 X316.862 Y315.467
N1805 G1 X316.834 Y315.492
N1810 G1 X316.799 Y315.506
N1815 G1 X316.762 Y315.507
N1820 G1 X316.726 Y315.494
N1825 G3 X294.973 Y300.872 I87.301 J-153.372
N1830 G3 X291.384 Y297.929 I89.166 J-112.38
N1835 G1 X289.504 Y296.336
N1840 G2 X271.282 Y297.374 I-8.565 J10.105
N1845 G2 X270.857 Y297.855 I7.487 J7.035
N1850 G3 X270.433 Y298.336 I-7.912 J-6.554
N1855 G3 X269.981 Y298.351 I-0.233 J-0.219
N1860 G1 X252.076 Y281.526
N1865 G3 X252.05 Y281.058 I0.233 J-0.248
N1870 G1 X253.318 Y279.566
N1875 G2 X253.569 Y276.652 I-1.923 J-1.634
N1880 G3 X254.112 Y273.777 I1.914 J-1.127
N1885 G3 X254.584 Y273.436 I4.525 J5.765
N1890 G2 X257.574 Y270.527 I-6.243 J-9.408
N1895 G2 X259.663 Y266.918 I-19.252 J-13.553
N1900 G2 X260.673 Y264.007 I-13.721 J-6.393
N1905 G2 X261.228 Y260.977 I-29.4 J-6.95
N1910 G2 X261.313 Y259.685 I-9.876 J-1.292
N1915 G1 Y248.581
N1920 G2 X259.878 Y243.474 I-9.808 J0
N1925 G2 X256.021 Y239.832 I-8.6 J5.245
N1930 G3 X255.688 Y239.276 I0.297 J-0.556
N1935 G1 X255.732 Y215.725
N1940 G2 X255.265 Y212.785 I-9.491 J0
N1945 G2 X253.949 Y210.116 I-9.919 J3.231
N1950 G3 Y209.547 I0.414 J-0.284
N1955 G2 X255.265 Y206.877 I-8.602 J-5.901
N1960 G2 X255.732 Y203.938 I-9.024 J-2.94
N1965 G1 X255.688 Y181.095
N1970 G3 X255.998 Y180.78 I0.315 J0
N1975 G2 X257.635 Y180.62 I-0.14 J-9.915
N1980 G3 X257.951 Y180.592 I0.315 J1.731
N1985 G1 X272.674
N1990 G3 X272.989 Y180.62 I0 J1.759
N1995 G2 X274.496 Y180.777 I1.778 J-9.756
N2000 G3 X274.806 Y181.096 I-0.009 J0.319
N2005 G1 Y242.076
N2010 G3 X274.783 Y242.405 I-2.347 J0
N2015 G2 X275.372 Y247.425 I9.834 J1.391
N2020 G2 X277.36 Y252.072 I78.294 J-30.736
N2025 G1 X279.083 Y255.787
N2030 G2 X281.039 Y259.794 I101.209 J-46.931
N2035 G1 X282.895 Y263.41
N2040 G2 X284.918 Y267.168 I96.366 J-49.456
N2045 G1 X286.898 Y270.678
N2050 G2 X289.145 Y274.48 I95.327 J-53.77
N2055 G1 X291.258 Y277.897
N2060 G2 X293.657 Y281.605 I92.775 J-57.383
N2065 G1 X295.903 Y284.928
N2070 G2 X298.395 Y288.461 I89.638 J-60.592
N2075 G1 X300.766 Y291.683
N2080 G2 X303.454 Y295.186 I88.549 J-65.157
N2085 G1 X305.951 Y298.309
N2090 G2 X308.78 Y301.706 I86.731 J-69.356
N2095 G1 X311.403 Y304.731
N2100 G2 X314.371 Y308.021 I85.113 J-73.802
N2105 G2 X317.482 Y311.315 I527.552 J-495.092
N2110 G2 X320.661 Y314.543 I92.878 J-88.263
N2115 G2 X320.968 Y314.827 I4.683 J-4.777
N2120 G3 X321.275 Y315.11 I-4.376 J5.06
N2125 G3 X321.946 Y316.362 I-1.661 J1.694
N2130 G3 X322.16 Y317.759 I-19.705 J3.734
N2135 G3 X322.244 Y319.169 I-12.332 J1.447
N2140 G3 X321.817 Y319.787 I-0.657 J0.002
N2145 G3 X320.923 Y320.04 I-2.004 J-5.37
N2150 G3 X320.009 Y320.199 I-3.999 J-20.238
N2155 G2 X319.739 Y320.244 I1.624 J10.742
N2160 G3 X319.469 Y320.284 I-0.951 J-5.37
N2165 G3 X318.181 Y320.042 I-0.267 J-2.126
N2170 G3 X309.515 Y315.037 I87.142 J-160.863
N2175 G3 X301.51 Y309.819 I88.209 J-144.1
N2180 G3 X292.927 Y303.451 I100.716 J-144.698
N2185 G3 X290.133 Y301.171 I82.145 J-103.532
N2190 G3 X287.376 Y298.847 I456.96 J-544.72
N2195 G2 X273.677 Y299.625 I-6.44 J7.598
N2200 G2 X272.125 Y301.308 I86.667 J81.434
N2205 G3 X270.573 Y302.992 I-88.219 J-79.75
N2210 G3 X270.131 Y303.006 I-0.228 J-0.214
N2215 G1 X247.537 Y281.777
N2220 G3 X247.511 Y281.318 I0.228 J-0.243
N2225 G1 X253.052 Y274.797
N2230 G3 X254.112 Y273.777 I5.585 J4.745
N2235 G2 X255.524 Y269.051 I-2.64 J-3.363
N2240 G3 X255.527 Y264.117 I7.318 J-2.462
N2245 G1 X255.599 Y263.897
N2250 G2 X256.192 Y261.631 I-23.676 J-7.407
N2255 G2 X256.357 Y260.664 I-11.91 J-2.523
N2260 G2 X256.419 Y259.685 I-7.6 J-0.979
N2265 G1 Y248.581
N2270 G2 X251.706 Y243.526 I-5.067 J0
N2275 G3 X250.839 Y242.595 I0.065 J-0.93
N2280 G1 Y215.725
N2285 G2 X245.771 Y210.658 I-5.067 J0
N2290 G1 X238.57
N2295 G2 X233.691 Y214.357 I0 J5.067
N2300 G1 X226.187 Y241.113
N2305 G2 X226.035 Y241.956 I4.361 J1.223
N2310 G2 X225.999 Y242.812 I10.168 J0.856
N2315 G3 X225.066 Y243.745 I-0.933 J0
N2320 G1 X214.868
N2325 G3 X213.936 Y242.812 I0 J-0.933
N2330 G3 X214.034 Y241.84 I4.839 J0
N2335 G2 X214.133 Y240.868 I-4.74 J-0.972
N2340 G1 Y215.622
N2345 G2 X209.066 Y210.555 I-5.067 J0
N2350 G1 X186.867
N2355 G2 X181.988 Y214.254 I0 J5.067
N2360 G1 X174.304 Y241.655
N2365 G2 X174.097 Y242.888 I5.646 J1.583
N2370 G3 X173.187 Y243.745 I-0.91 J-0.055
N2375 G1 X163.242
N2380 G3 X162.31 Y242.812 I0 J-0.933
N2385 G2 X162.308 Y242.407 I-60.296 J0
N2390 G3 X162.392 Y242.01 I0.948 J-0.006
N2395 G2 X162.841 Y239.926 I-4.619 J-2.085
N2400 G1 Y180.082
N2405 G2 X162.392 Y177.997 I-5.067 J0
N2410 G3 X162.281 Y177.341 I1.201 J-0.542
N2415 G2 X162.31 Y176.675 I-7.61 J-0.665
N2420 G3 X163.242 Y175.743 I0.933 J0
N2425 G1 X173.187
N2430 G3 X173.828 Y175.953 I0 J1.082
N2435 G2 X174.409 Y176.297 I1.995 J-2.708
N2440 G3 X174.922 Y176.916 I-0.392 J0.846
N2445 G1 X181.953 Y204.835
N2450 G2 X186.867 Y208.664 I4.914 J-1.238
N2455 G1 X209.066
N2460 G2 X214.133 Y203.597 I0 J-5.067
N2465 G1 Y179.139
N2470 G2 X213.966 Y177.851 I-5.067 J0
N2475 G3 X213.913 Y177.264 I1.716 J-0.451
N2480 G2 X213.936 Y176.675 I-7.69 J-0.589
N2485 G3 X214.868 Y175.743 I0.933 J0
N2490 G1 X225.066
N2495 G3 X225.999 Y176.675 I0 J0.933
N2500 G2 X226.021 Y177.754 I26.731 J0
N2505 G2 X226.191 Y178.82 I4.587 J-0.185
N2510 G1 X233.859 Y205.803
N2515 G2 X235.756 Y208.139 I4.657 J-1.844
N2520 G2 X238.638 Y209.005 I2.882 J-4.365
N2525 G1 X245.771
N2530 G2 X250.839 Y203.938 I0 J-5.067
N2535 G1 Y176.864
N2540 G3 X251.771 Y175.932 I0.933 J0
N2545 G1 X255.858
N2550 G2 X256.605 Y175.837 I0 J-3
N2555 G3 X257.352 Y175.743 I0.747 J2.905
N2560 G1 X273.272
N2565 G3 X274.019 Y175.837 I0 J3
N2570 G2 X274.767 Y175.932 I0.747 J-2.905
N2575 G1 X278.723
N2580 G3 X279.655 Y176.864 I0 J0.933
N2585 G1 Y242.595
N2590 G1 X279.651 Y242.689
N2595 G1 X279.637 Y242.781
N2600 G2 X279.962 Y245.829 I4.965 J1.012
N2605 G1 X281.725 Y249.848
N2610 G2 X283.56 Y253.809 I98.432 J-43.192
N2615 G1 X285.331 Y257.437
N2620 G2 X287.294 Y261.263 I97.248 J-47.471
N2625 G1 X289.153 Y264.716
N2630 G2 X291.208 Y268.359 I92.369 J-49.727
N2635 G1 X293.255 Y271.821
N2640 G2 X295.473 Y275.408 I89.805 J-53.068
N2645 G1 X297.641 Y278.759
N2650 G2 X300.017 Y282.276 I88.542 J-57.273
N2655 G1 X302.287 Y285.493
N2660 G2 X304.773 Y288.87 I85.525 J-60.339
N2665 G1 X307.207 Y292.043
N2670 G2 X309.843 Y295.34 I83.732 J-64.249
N2675 G1 X312.404 Y298.414
N2680 G2 X315.175 Y301.611 I82.139 J-68.415
N2685 G1 X317.861 Y304.588
N2690 G2 X320.767 Y307.684 I80.74 J-72.849
N2695 G2 X324.096 Y311.021 I152.141 J-148.449
N2700 G1 X325.595 Y312.491
N2705 G3 X326.352 Y313.756 I-2.039 J2.08
N2710 G3 X326.525 Y314.504 I-6.595 J1.921
N2715 G2 X326.672 Y315.258 I18.938 J-3.283
N2720 G3 X327.07 Y317.811 I-22.237 J4.777
N2725 G3 X326.99 Y320.393 I-10.008 J0.983
N2730 G3 X326.5 Y321.958 I-5.661 J-0.912
N2735 G3 X325.492 Y323.252 I-3.467 J-1.661
N2740 G3 X323.235 Y324.458 I-4.047 J-4.864
N2745 G3 X320.736 Y325.012 I-5.3 J-17.974
N2750 G3 X319.581 Y325.178 I-11.217 J-74.194
N2755 G3 X318.419 Y325.28 I-1.683 J-12.437
N2760 G3 X317.006 Y324.966 I-0.117 J-2.807
N2765 G3 X315.207 Y323.985 I24.072 J-46.277
N2770 G2 X313.422 Y322.979 I-84.894 J148.637
N2775 G3 X303.806 Y317.233 I85.878 J-154.628
N2780 G3 X295.715 Y311.709 I93.141 J-145.099
N2785 G3 X287.046 Y304.981 I99.881 J-137.659
N2790 G3 X285.626 Y303.784 I73.237 J-88.323
N2795 G2 X284.213 Y302.579 I-223.968 J261.376
N2800 G2 X277.243 Y302.975 I-3.276 J3.866
N2805 G1 X271.211 Y309.395
N2810 G3 X269.893 Y309.436 I-0.68 J-0.639
N2815 G1 X241.271 Y282.543
N2820 G3 X241.199 Y281.259 I0.639 J-0.68
N2825 G1 X250.659 Y270.124
N2830 G3 X251.017 Y269.864 I0.711 J0.604
N2835 G2 X253.147 Y268.249 I-1.959 J-4.796
N2840 G2 X254.649 Y266.038 I-16.334 J-12.709
N2845 G2 X255.527 Y264.117 I-8.844 J-5.205
N2850 G2 X254.994 Y262.245 I-1.625 J-0.549
N2855 G3 X254.28 Y260.433 I1.279 J-1.551
N2860 G1 X254.327 Y260.074
N2865 G2 X254.352 Y259.685 I-2.975 J-0.389
N2870 G1 Y248.581
N2875 G2 X251.562 Y245.588 I-3 J0
N2880 G3 X248.771 Y242.595 I0.21 J-2.993
N2885 G1 Y215.725
N2890 G2 X245.771 Y212.725 I-3 J0
N2895 G1 X238.57
N2900 G2 X235.681 Y214.915 I0 J3
N2905 G1 X228.178 Y241.671
N2910 G2 X228.066 Y242.481 I2.889 J0.81
N2915 G1 Y242.812
N2920 G3 X225.066 Y245.812 I-3 J0
N2925 G1 X214.868
N2930 G3 X211.868 Y242.812 I0 J-3
N2935 G1 Y242.394
N2940 G3 X211.967 Y241.631 I3 J0
N2945 G2 X212.066 Y240.868 I-2.901 J-0.763
N2950 G1 Y215.622
N2955 G2 X209.066 Y212.622 I-3 J0
N2960 G1 X186.867
N2965 G2 X183.979 Y214.812 I0 J3
N2970 G1 X176.294 Y242.213
N2975 G2 X176.185 Y242.918 I2.889 J0.81
N2980 G3 X173.187 Y245.812 I-2.998 J-0.106
N2985 G1 X163.242
N2990 G3 X160.242 Y242.812 I0 J-3
N2995 G1 Y242.394
N3000 G3 X160.508 Y241.16 I3 J0
N3005 G2 X160.774 Y239.926 I-2.734 J-1.234
N3010 G1 Y180.082
N3015 G2 X160.508 Y178.848 I-3 J0
N3020 G3 X160.242 Y177.614 I2.734 J-1.234
N3025 G1 Y176.675
N3030 G3 X163.242 Y173.675 I3 J0
N3035 G1 X173.187
N3040 G3 X174.863 Y174.187 I0 J3
N3045 G2 X175.278 Y174.422 I1.676 J-2.488
N3050 G3 X176.926 Y176.411 I-1.261 J2.722
N3055 G1 X183.958 Y204.33
N3060 G2 X186.867 Y206.597 I2.909 J-0.733
N3065 G1 X209.066
N3070 G2 X212.066 Y203.597 I0 J-3
N3075 G1 Y179.139
N3080 G2 X211.967 Y178.376 I-3 J0
N3085 G3 X211.868 Y177.614 I2.901 J-0.763
N3090 G1 Y176.675
N3095 G3 X214.868 Y173.675 I3 J0
N3100 G1 X225.066
N3105 G3 X228.066 Y176.675 I0 J3
N3110 G1 Y177.439
N3115 G2 X228.18 Y178.256 I3 J0
N3120 G1 X235.683 Y204.755
N3125 G2 X238.57 Y206.938 I2.887 J-0.817
N3130 G1 X245.771
N3135 G2 X248.771 Y203.938 I0 J-3
N3140 G1 Y176.864
N3145 G3 X251.771 Y173.864 I3 J0
N3150 G1 X255.858
N3155 G2 X256.605 Y173.77 I0 J-3
N3160 G3 X257.352 Y173.675 I0.747 J2.905
N3165 G1 X273.272
N3170 G3 X274.019 Y173.77 I0 J3
N3175 G2 X274.767 Y173.864 I0.747 J-2.905
N3180 G1 X278.723
N3185 G3 X281.723 Y176.864 I0 J3
N3190 G1 Y242.595
N3195 G3 X281.662 Y243.194 I-3 J0
N3200 G2 X281.855 Y244.999 I2.94 J0.599
N3205 G1 X283.649 Y249.087
N3210 G1 X283.675 Y249.144
N3215 G1 X285.392 Y252.849
N3220 G1 X285.418 Y252.903
N3225 G1 X287.204 Y256.562
N3230 G1 X287.231 Y256.616
N3235 G1 X289.087 Y260.231
N3240 G1 X289.114 Y260.283
N3245 G1 X290.952 Y263.697
N3250 G1 X290.981 Y263.749
N3255 G1 X292.958 Y267.254
N3260 G1 X292.988 Y267.307
N3265 G1 X295.033 Y270.767
N3270 G1 X295.064 Y270.819
N3275 G1 X297.177 Y274.234
N3280 G1 X297.209 Y274.285
N3285 G1 X299.39 Y277.656
N3290 G1 X299.423 Y277.707
N3295 G1 X301.673 Y281.035
N3300 G1 X301.707 Y281.084
N3305 G1 X303.966 Y284.287
N3310 G1 X304.001 Y284.336
N3315 G1 X306.377 Y287.564
N3320 G1 X306.413 Y287.612
N3325 G1 X308.853 Y290.792
N3330 G1 X308.89 Y290.839
N3335 G1 X311.394 Y293.97
N3340 G1 X311.432 Y294.017
N3345 G1 X314 Y297.1
N3350 G1 X314.039 Y297.146
N3355 G1 X316.671 Y300.182
N3360 G1 X316.71 Y300.226
N3365 G1 X319.406 Y303.214
N3370 G1 X319.446 Y303.257
N3375 G1 X322.206 Y306.198
N3380 G1 X322.246 Y306.24
N3385 G1 X325.07 Y309.134
N3390 G1 X325.093 Y309.157
N3395 G1 X325.497 Y309.563
N3400 G1 X325.521 Y309.586
N3405 G1 X327.933 Y311.951
N3410 G1 X328.334 Y313.328
N3415 G1 X328.693 Y314.824
N3420 G1 X328.909 Y315.962
N3425 G1 X329.076 Y317.187
N3430 G1 X329.158 Y318.318
N3435 G1 X329.161 Y319.387
N3440 G1 X329.132 Y319.897
N3445 G1 X329.033 Y320.722
N3450 G1 X328.884 Y321.454
N3455 G1 X328.687 Y322.12
N3460 G1 X328.437 Y322.741
N3465 G1 X328.202 Y323.198
N3470 G1 X327.89 Y323.691
N3475 G1 X327.629 Y324.031
N3480 G1 X327.242 Y324.455
N3485 G1 X326.816 Y324.843
N3490 G1 X326.325 Y325.216
N3495 G1 X325.945 Y325.462
N3500 G1 X325.317 Y325.808
N3505 G1 X324.643 Y326.114
N3510 G1 X323.912 Y326.387
N3515 G1 X323.07 Y326.641
N3520 G1 X322.087 Y326.873
N3525 G1 X321.045 Y327.057
N3530 G1 X319.946 Y327.195
N3535 G1 X318.791 Y327.289
N3540 G1 X317.582 Y327.339
N3545 G1 X317.193 Y327.342
N3550 G1 X315.772 Y326.603
N3555 G1 X312.419 Y324.787
N3560 G1 X309.124 Y322.911
N3565 G1 X305.881 Y320.973
N3570 G1 X302.689 Y318.973
N3575 G1 X299.544 Y316.906
N3580 G1 X297.533 Y315.533
N3585 G1 X294.501 Y313.382
N3590 G1 X291.526 Y311.174
N3595 G1 X288.601 Y308.904
N3600 G1 X285.726 Y306.572
N3605 G1 X282.876 Y304.157
N3610 G2 X278.75 Y304.391 I-1.94 J2.289
N3615 G1 X272.718 Y310.811
N3620 G3 X268.477 Y310.943 I-2.186 J-2.054
N3625 G1 X239.855 Y284.049
N3630 G3 X239.623 Y279.921 I2.054 J-2.186
N3635 G1 X249.084 Y268.785
N3640 G3 X250.236 Y267.95 I2.286 J1.942
N3645 G2 X251.394 Y267.109 I-1.134 J-2.777
N3650 G1 X251.686 Y266.762
N3655 G1 X251.755 Y266.677
N3660 G1 X251.822 Y266.589
N3665 G1 X252.29 Y265.943
N3670 G2 X252.447 Y265.703 I-2.428 J-1.762
N3675 G1 X252.868 Y264.989
N3680 G2 X253.001 Y264.735 I-2.585 J-1.522
N3685 G1 X253.354 Y263.978
N3690 G1 X253.438 Y263.779
N3695 G1 X253.602 Y263.349
N3700 G1 X253.67 Y263.151
N3705 G1 X253.922 Y262.317
N3710 G2 X253.986 Y262.069 I-2.871 J-0.87
N3715 G1 X254.17 Y261.203
N3720 G1 X254.192 Y261.087
N3725 G1 X254.209 Y260.97
N3730 G1 X254.28 Y260.433
N3735 G3 X254.781 Y260.253 I0.297 J0.039
N3740 G1 X274.385 Y278.49
N3745 G1 X274.425 Y278.536
N3750 G1 X274.455 Y278.59
N3755 G1 X274.474 Y278.648
N3760 G1 X274.48 Y278.71
N3765 G3 X268.78 Y278.704 Z-2.313 I-2.85 J-0.003 F333.3
N3770 G3 X274.48 Y278.71 Z-2.625 I2.85 J0.003
N3775 G3 X268.78 Y278.704 Z-2.938 I-2.85 J-0.003
N3780 G3 X274.48 Y278.71 Z-3.251 I2.85 J0.003
N3785 G3 X268.78 Y278.704 Z-3.563 I-2.85 J-0.003
N3790 G3 X274.48 Y278.71 Z-3.876 I2.85 J0.003
N3795 G3 X272.537 Y281.409 Z-4 I-2.85 J-0.003
N3800 G2 X271.951 Y281.613 I8.399 J25.036 F420
N3805 G3 X271.304 Y281.48 I-0.215 J-0.593
N3810 G1 X270.729 Y280.939
N3815 G3 X270.684 Y280.45 I0.254 J-0.27
N3820 G2 X271.397 Y279.463 I-69.236 J-50.806
N3825 G2 X272.08 Y278.455 I-20.732 J-14.766
N3830 G3 X272.406 Y278.465 I0.16 J0.103
N3835 G2 X273.005 Y279.502 I51.742 J-29.185
N3840 G1 X273.73 Y280.728
N3845 G3 X273.59 Y281.08 I-0.206 J0.122
N3850 G2 X272.537 Y281.409 I7.346 J25.366
N3855 G2 X271.675 Y282.839 I0.41 J1.221
N3860 G3 X270.202 Y283.624 I-0.87 J0.143
N3865 G1 X267.565 Y281.146
N3870 G3 X267.538 Y280.679 I0.233 J-0.248
N3875 G2 X269.19 Y278.617 I-39.373 J-33.247
N3880 G2 X270.662 Y276.423 I-17.836 J-13.558
N3885 G2 X272.087 Y273.709 I-27.215 J-16.017
N3890 G3 X272.386 Y273.701 I0.151 J0.071
N3895 G2 X274.579 Y277.628 I130.506 J-70.31
N3900 G2 X276.85 Y281.512 I422.706 J-244.565
N3905 G2 X277.115 Y281.921 I5.081 J-3.002
N3910 G3 X277.384 Y282.327 I-6.372 J4.514
N3915 G3 X277.24 Y282.64 I-0.176 J0.109
N3920 G2 X271.431 Y284.31 I3.696 J23.805
N3925 G3 X270.816 Y284.201 I-0.225 J-0.524
N3930 G1 X270.202 Y283.624
N3935 G2 X266.557 Y283.013 I-2.281 J2.428
N3940 G3 X262.913 Y282.401 I-1.364 J-3.039
N3945 G1 X261.6 Y281.168
N3950 G3 X261.616 Y280.761 I0.185 J-0.196
N3955 G2 X266.941 Y274.66 I-14.418 J-17.959
N3960 G2 X270.225 Y267.258 I-28.225 J-16.952
N3965 G2 X270.753 Y265.066 I-18.659 J-5.656
N3970 G2 X271.1 Y262.838 I-45.794 J-8.266
N3975 G1 X271.112 Y262.799
N3980 G1 X271.135 Y262.766
N3985 G1 X271.168 Y262.741
N3990 G1 X271.206 Y262.728
N3995 G1 X271.247
N4000 G1 X271.286 Y262.741
N4005 G1 X271.319 Y262.765
N4010 G1 X271.343 Y262.799
N4015 G2 X273.674 Y267.494 I352.41 J-172.028
N4020 G2 X276.143 Y272.118 I101.562 J-51.269
N4025 G1 X278.123 Y275.627
N4030 G2 X280.576 Y279.78 I104.102 J-58.719
N4035 G2 X282.709 Y283.15 I167.642 J-103.69
N4040 G1 X284.94 Y286.6
N4045 G3 X284.785 Y286.829 I-0.126 J0.082
N4050 G2 X270.71 Y289.269 I-3.848 J19.616
N4055 G3 X270.157 Y289.208 I-0.236 J-0.397
N4060 G1 X262.913 Y282.401
N4065 G1 X262.85 Y282.332 Z-3.985 F1000
N4070 G1 X262.799 Y282.255 Z-3.971
N4075 G1 X262.764 Y282.179 Z-3.928
N4080 G1 X262.739 Y282.1 Z-3.885
N4085 G1 X262.728 Y282.034 Z-3.819
N4090 G1 X262.723 Y281.968 Z-3.753
N4095 G1 X262.729 Y281.883 Z-3.585
N4100 G1 X262.733 Y281.854 Z-3.4
N4105 G1 Z0
N4110 G1 X270.658 Y269.574 F420
N4115 G1 Z-3.4 F1000
N4120 G1 X270.657 Y269.567 Z-3.494
N4125 G1 X270.654 Y269.545 Z-3.585
N4130 G1 X270.649 Y269.51 Z-3.672
N4135 G1 X270.643 Y269.461 Z-3.753
N4140 G1 X270.635 Y269.4 Z-3.824
N4145 G1 X270.626 Y269.329 Z-3.885
N4150 G1 X270.615 Y269.25 Z-3.935
N4155 G1 X270.604 Y269.163 Z-3.971
N4160 G1 X270.592 Y269.073 Z-3.993
N4165 G1 X270.58 Y268.979 Z-4
N4170 G1 X266.484 Y237.678 F420
N4175 G2 X266.145 Y237.42 I-0.297 J0.039
N4180 G1 X266.11
N4185 G1 X266.075 Y237.411
N4190 G1 X266.045 Y237.393
N4195 G1 X266.019 Y237.368
N4200 G2 X264.522 Y235.642 I-14.667 J11.212
N4205 G3 X264.233 Y234.936 I0.719 J-0.706
N4210 G1 X264.278 Y215.725
N4215 G2 X264.046 Y212.945 I-16.719 J0
N4220 G2 X263.397 Y210.232 I-20.382 J3.437
N4225 G3 Y209.431 I1.284 J-0.4
N4230 G2 X264.046 Y206.718 I-19.733 J-6.151
N4235 G2 X264.278 Y203.938 I-16.486 J-2.78
N4240 G1 X264.233 Y189.457
N4245 G3 X264.553 Y189.137 I0.319 J0
N4250 G1 X265.941
N4255 G3 X266.261 Y189.457 I0 J0.319
N4260 G1 X266.226 Y209.834
N4265 G1 X266.216 Y215.725
N4270 G1 X266.261 Y237.287
N4275 G1 X266.255 Y237.325
N4280 G1 X266.239 Y237.359
N4285 G1 X266.214 Y237.388
N4290 G1 X266.182 Y237.409
N4295 G1 X266.145 Y237.42
N4300 G3 X264.416 Y237.528 I-1.565 J-11.138
N4305 G3 X262.817 Y236.863 I0.034 J-2.336
N4310 G2 X262.517 Y236.576 I-11.652 J11.919
N4315 G3 X262.165 Y235.769 I0.75 J-0.807
N4320 G1 X262.21 Y215.725
N4325 G2 X261.959 Y212.995 I-14.967 J0
N4330 G2 X261.257 Y210.345 I-17.874 J3.316
N4335 G3 Y209.318 I1.478 J-0.514
N4340 G2 X261.959 Y206.668 I-17.172 J-5.966
N4345 G2 X262.21 Y203.938 I-14.716 J-2.73
N4350 G1 X262.165 Y187.389
N4355 G3 X262.485 Y187.069 I0.319 J0
N4360 G1 X268.01
N4365 G3 X268.329 Y187.389 I0 J0.319
N4370 G1 X268.284 Y241.804
N4375 G2 X268.197 Y243.971 I52.581 J3.193
N4380 G2 X268.331 Y246.136 I13.361 J0.26
N4385 G2 X269.591 Y250.582 I17.221 J-2.48
N4390 G2 X271.483 Y254.797 I170.815 J-74.114
N4395 G1 X273.205 Y258.512
N4400 G2 X275.275 Y262.752 I107.086 J-49.656
N4405 G1 X277.131 Y266.368
N4410 G2 X279.275 Y270.351 I102.13 J-52.414
N4415 G1 X281.255 Y273.861
N4420 G2 X283.635 Y277.888 I100.97 J-56.953
N4425 G1 X285.748 Y281.305
N4430 G2 X288.289 Y285.233 I98.284 J-60.791
N4435 G1 X290.536 Y288.556
N4440 G2 X293.177 Y292.301 I95.005 J-64.22
N4445 G2 X295.891 Y295.934 I260.125 J-191.408
N4450 G2 X298.676 Y299.513 I138.377 J-104.849
N4455 G1 X298.694 Y299.546
N4460 G1 X298.699 Y299.582
N4465 G1 X298.69 Y299.618
N4470 G1 X298.669 Y299.649
N4475 G1 X298.639 Y299.67
N4480 G1 X298.603 Y299.679
N4485 G1 X298.566 Y299.675
N4490 G1 X298.533 Y299.658
N4495 G3 X294.343 Y296.259 I76.68 J-98.813
N4500 G1 X291.565 Y293.905
N4505 G2 X270.377 Y293.904 I-10.594 J12.499
N4510 G3 X269.889 Y293.891 I-0.236 J-0.281
N4515 G1 X256.467 Y281.279
N4520 G3 X256.441 Y280.812 I0.233 J-0.248
N4525 G1 X257.85 Y279.154
N4530 G3 X258.327 Y278.724 I1.825 J1.551
N4535 G2 X263.627 Y273.194 I-10.391 J-15.262
N4540 G2 X266.783 Y266.215 I-25.022 J-15.52
N4545 G2 X267.308 Y264.034 I-18.432 J-5.587
N4550 G2 X267.652 Y261.818 I-46.344 J-8.327
N4555 G2 X267.791 Y259.685 I-16.3 J-2.133
N4560 G1 Y248.581
N4565 G2 X266.404 Y242.029 I-16.172 J0
N4570 G2 X262.817 Y236.863 I-15.239 J6.753
N4575 G2 X260.717 Y236.346 I-1.488 J1.522
N4580 G3 X258.983 Y235.054 I-0.387 J-1.29
N4585 G1 X259.023 Y215.725
N4590 G2 X258.699 Y212.915 I-12.334 J0
N4595 G2 X257.784 Y210.237 I-13.892 J3.251
N4600 G3 Y209.426 I0.888 J-0.406
N4605 G2 X258.699 Y206.748 I-12.977 J-5.929
N4610 G2 X259.023 Y203.938 I-12.009 J-2.811
N4615 G1 X258.978 Y184.202
N4620 G3 X259.298 Y183.882 I0.319 J0
N4625 G1 X271.197
N4630 G3 X271.516 Y184.202 I0 J0.319
N4635 G1 X271.471 Y242.008
N4640 G2 X271.381 Y243.845 I48.657 J3.292
N4645 G2 X271.485 Y245.682 I10.651 J0.318
N4650 G2 X272.618 Y249.538 I13.982 J-2.013
N4655 G3 X274.261 Y253.207 I-243.404 J111.195
N4660 G2 X276.172 Y257.331 I102.477 J-44.967
N4665 G1 X277.992 Y261.059
N4670 G2 X280.07 Y265.112 I103.005 J-50.281
N4675 G1 X281.925 Y268.557
N4680 G2 X284.185 Y272.561 I101.554 J-54.672
N4685 G1 X286.207 Y275.982
N4690 G2 X288.603 Y279.856 I96.989 J-57.314
N4695 G1 X290.782 Y283.225
N4700 G2 X293.316 Y286.974 I94.39 J-61.056
N4705 G1 X295.59 Y290.197
N4710 G2 X298.29 Y293.866 I92.889 J-65.535
N4715 G1 X300.719 Y297.033
N4720 G2 X303.549 Y300.571 I89.868 J-68.957
N4725 G1 X306.123 Y303.662
N4730 G2 X309.091 Y307.085 I87.957 J-73.26
N4735 G1 X311.795 Y310.082
N4740 G2 X314.299 Y312.73 I58.04 J-52.368
N4745 G3 X316.854 Y315.329 I-341.706 J338.506
N4750 G1 X316.875 Y315.36
N4755 G1 X316.884 Y315.396
N4760 G1 X316.879 Y315.434
N4765 G1 X316.862 Y315.467
N4770 G1 X316.834 Y315.492
N4775 G1 X316.799 Y315.506
N4780 G1 X316.762 Y315.507
N4785 G1 X316.726 Y315.494
N4790 G3 X294.973 Y300.872 I87.301 J-153.372
N4795 G3 X291.384 Y297.929 I89.166 J-112.38
N4800 G1 X289.504 Y296.336
N4805 G2 X271.282 Y297.374 I-8.565 J10.105
N4810 G2 X270.857 Y297.855 I7.487 J7.035
N4815 G3 X270.433 Y298.336 I-7.912 J-6.554
N4820 G3 X269.981 Y298.351 I-0.233 J-0.219
N4825 G1 X252.076 Y281.526
N4830 G3 X252.05 Y281.058 I0.233 J-0.248
N4835 G1 X255.713 Y276.746
N4840 G3 X256.243 Y276.282 I1.825 J1.551
N4845 G2 X260.01 Y272.749 I-7.715 J-12
N4850 G2 X262.647 Y268.308 I-20.884 J-15.4
N4855 G2 X263.834 Y264.927 I-16.538 J-7.706
N4860 G2 X264.492 Y261.404 I-31.906 J-7.784
N4865 G2 X264.604 Y259.685 I-13.14 J-1.72
N4870 G1 Y248.581
N4875 G2 X263.201 Y242.697 I-13.04 J0
N4880 G2 X259.326 Y238.052 I-11.981 J6.058
N4885 G3 X258.978 Y237.353 I0.529 J-0.699
N4890 G1 X258.983 Y235.054
N4895 G2 X257.344 Y232.585 I-2.671 J-0.006
N4900 G3 X255.705 Y230.116 I1.032 J-2.464
N4905 G1 X255.732 Y215.725
N4910 G2 X255.265 Y212.785 I-9.491 J0
N4915 G2 X253.949 Y210.116 I-9.919 J3.231
N4920 G3 Y209.547 I0.414 J-0.284
N4925 G2 X255.265 Y206.877 I-8.602 J-5.901
N4930 G2 X255.732 Y203.938 I-9.024 J-2.94
N4935 G1 X255.688 Y181.095
N4940 G3 X255.998 Y180.78 I0.315 J0
N4945 G2 X257.635 Y180.62 I-0.14 J-9.915
N4950 G3 X257.951 Y180.592 I0.315 J1.731
N4955 G1 X272.674
N4960 G3 X272.989 Y180.62 I0 J1.759
N4965 G2 X274.496 Y180.777 I1.778 J-9.756
N4970 G3 X274.806 Y181.096 I-0.009 J0.319
N4975 G1 Y242.076
N4980 G3 X274.783 Y242.405 I-2.347 J0
N4985 G2 X275.372 Y247.425 I9.834 J1.391
N4990 G2 X277.36 Y252.072 I78.294 J-30.736
N4995 G1 X279.083 Y255.787
N5000 G2 X281.039 Y259.794 I101.209 J-46.931
N5005 G1 X282.895 Y263.41
N5010 G2 X284.918 Y267.168 I96.366 J-49.456
N5015 G1 X286.898 Y270.678
N5020 G2 X289.145 Y274.48 I95.327 J-53.77
N5025 G1 X291.258 Y277.897
N5030 G2 X293.657 Y281.605 I92.775 J-57.383
N5035 G1 X295.903 Y284.928
N5040 G2 X298.395 Y288.461 I89.638 J-60.592
N5045 G1 X300.766 Y291.683
N5050 G2 X303.454 Y295.186 I88.549 J-65.157
N5055 G1 X305.951 Y298.309
N5060 G2 X308.78 Y301.706 I86.731 J-69.356
N5065 G1 X311.403 Y304.731
N5070 G2 X314.371 Y308.021 I85.113 J-73.802
N5075 G2 X317.482 Y311.315 I527.552 J-495.092
N5080 G2 X320.661 Y314.543 I92.878 J-88.263
N5085 G2 X320.968 Y314.827 I4.683 J-4.777
N5090 G3 X321.275 Y315.11 I-4.376 J5.06
N5095 G3 X321.946 Y316.362 I-1.661 J1.694
N5100 G3 X322.16 Y317.759 I-19.705 J3.734
N5105 G3 X322.244 Y319.169 I-12.332 J1.447
N5110 G3 X321.817 Y319.787 I-0.657 J0.002
N5115 G3 X320.923 Y320.04 I-2.004 J-5.37
N5120 G3 X320.009 Y320.199 I-3.999 J-20.238
N5125 G2 X319.739 Y320.244 I1.624 J10.742
N5130 G3 X319.469 Y320.284 I-0.951 J-5.37
N5135 G3 X318.181 Y320.042 I-0.267 J-2.126
N5140 G3 X309.515 Y315.037 I87.142 J-160.863
N5145 G3 X301.51 Y309.819 I88.209 J-144.1
N5150 G3 X292.927 Y303.451 I100.716 J-144.698
N5155 G3 X290.133 Y301.171 I82.145 J-103.532
N5160 G3 X287.376 Y298.847 I456.96 J-544.72
N5165 G2 X273.677 Y299.625 I-6.44 J7.598
N5170 G2 X272.125 Y301.308 I86.667 J81.434
N5175 G3 X270.573 Y302.992 I-88.219 J-79.75
N5180 G3 X270.131 Y303.006 I-0.228 J-0.214
N5185 G1 X247.537 Y281.777
N5190 G3 X247.511 Y281.318 I0.228 J-0.243
N5195 G1 X253.052 Y274.797
N5200 G3 X254.584 Y273.436 I5.585 J4.745
N5205 G2 X257.574 Y270.527 I-6.243 J-9.408
N5210 G2 X259.663 Y266.918 I-19.252 J-13.553
N5215 G2 X260.673 Y264.007 I-13.721 J-6.393
N5220 G2 X261.228 Y260.977 I-29.4 J-6.95
N5225 G2 X261.313 Y259.685 I-9.876 J-1.292
N5230 G1 Y248.581
N5235 G2 X259.878 Y243.474 I-9.808 J0
N5240 G2 X256.021 Y239.832 I-8.6 J5.245
N5245 G3 X255.688 Y239.276 I0.297 J-0.556
N5250 G1 X255.705 Y230.116
N5255 G1 X255.712 Y230.024 Z-3.985 F1000
N5260 G1 X255.733 Y229.933 Z-3.971
N5265 G1 X255.764 Y229.856 Z-3.928
N5270 G1 X255.806 Y229.783 Z-3.885
N5275 G1 X255.845 Y229.73 Z-3.819
N5280 G1 X255.891 Y229.682 Z-3.753
N5285 G1 X255.956 Y229.627 Z-3.585
N5290 G1 X255.981 Y229.611 Z-3.4
N5295 G1 Z0
N5300 G1 X256.46 Y209.838 F420
N5305 G1 Z-3.4 F1000
N5310 G1 X256.453 Z-3.494
N5315 G1 X256.431 Y209.837 Z-3.585
N5320 G1 X256.395 Z-3.672
N5325 G1 X256.346 Y209.836 Z-3.753
N5330 G1 X256.285 Z-3.824
N5335 G1 X256.213 Y209.835 Z-3.885
N5340 G1 X256.133 Y209.834 Z-3.935
N5345 G1 X256.046 Y209.833 Z-3.971
N5350 G1 X255.954 Y209.832 Z-3.993
N5355 G1 X255.861 Y209.831 Z-4
N5360 G1 X227.033 Y209.531 F420
N5365 G2 X226.73 Y209.831 I-0.003 J0.3
N5370 G3 X226.641 Y210.235 I-0.964 J0
N5375 G2 X226.224 Y211.186 I26.387 J12.146
N5380 G2 X225.883 Y212.167 I7.85 J3.278
N5385 G1 X222.403 Y224.741
N5390 G1 X222.387 Y224.775
N5395 G1 X222.36 Y224.8
N5400 G1 X222.325 Y224.815
N5405 G1 X222.288 Y224.817
N5410 G1 X222.252 Y224.805
N5415 G1 X222.223 Y224.782
N5420 G1 X222.204 Y224.749
N5425 G1 X222.197 Y224.713
N5430 G1 X222.242 Y215.622
N5435 G2 X221.9 Y212.74 I-12.311 J0
N5440 G2 X220.935 Y210.004 I-13.731 J3.306
N5445 G3 Y209.215 I0.833 J-0.394
N5450 G2 X221.9 Y206.479 I-12.765 J-6.043
N5455 G2 X222.242 Y203.597 I-11.969 J-2.882
N5460 G2 X222.22 Y199.335 I-403.716 J0
N5465 G3 X222.197 Y195.072 I403.693 J-4.262
N5470 G1 X222.204 Y195.036
N5475 G1 X222.223 Y195.003
N5480 G1 X222.252 Y194.98
N5485 G1 X222.288 Y194.968
N5490 G1 X222.325 Y194.97
N5495 G1 X222.36 Y194.984
N5500 G1 X222.387 Y195.01
N5505 G1 X222.404 Y195.044
N5510 G1 X225.892 Y207.528
N5515 G2 X226.23 Y208.493 I8.092 J-2.291
N5520 G2 X226.641 Y209.428 I27.888 J-11.712
N5525 G3 X226.73 Y209.831 I-0.876 J0.403
N5530 G2 X227.757 Y212.378 I3.67 J0
N5535 G3 X228.43 Y215.04 I-1.992 J1.92
N5540 G1 X221.872 Y238.573
N5545 G3 X221.436 Y238.904 I-0.437 J-0.122
N5550 G1 X219.287
N5555 G3 X218.974 Y238.591 I0 J-0.313
N5560 G1 X219.018 Y215.622
N5565 G2 X218.527 Y212.609 I-9.505 J0
N5570 G2 X217.144 Y209.886 I-9.859 J3.296
N5575 G3 Y209.333 I0.39 J-0.277
N5580 G2 X218.527 Y206.611 I-8.476 J-6.018
N5585 G2 X219.018 Y203.597 I-9.015 J-3.014
N5590 G1 X218.974 Y180.896
N5595 G3 X219.287 Y180.583 I0.313 J0
N5600 G1 X221.315
N5605 G3 X221.753 Y180.914 I0 J0.455
N5610 G1 X228.994 Y206.649
N5615 G2 X229.581 Y208.156 I8.2 J-2.322
N5620 G2 X230.403 Y209.548 I10.631 J-5.346
N5625 G3 Y210.115 I-0.413 J0.284
N5630 G2 X229.575 Y211.518 I9.778 J6.717
N5635 G2 X228.988 Y213.038 I7.636 J3.826
N5640 G1 X228.43 Y215.04
N5645 G1 X228.398 Y215.127 Z-3.985 F1000
N5650 G1 X228.353 Y215.208 Z-3.971
N5655 G1 X228.302 Y215.275 Z-3.928
N5660 G1 X228.243 Y215.333 Z-3.885
N5665 G1 X228.19 Y215.374 Z-3.819
N5670 G1 X228.134 Y215.408 Z-3.753
N5675 G1 X228.056 Y215.443 Z-3.585
N5680 G1 X228.028 Y215.452 Z-3.4
N5685 G1 Z0
N5690 G1 X219.656 Y209.614 F420
N5695 G1 Z-3.4 F1000
N5700 G1 X219.649 Z-3.494
N5705 G1 X219.627 Z-3.585
N5710 G1 X219.591 Y209.613 Z-3.672
N5715 G1 X219.542 Z-3.753
N5720 G1 X219.48 Z-3.824
N5725 G1 X219.409 Y209.612 Z-3.885
N5730 G1 X219.329 Y209.611 Z-3.935
N5735 G1 X219.242 Z-3.971
N5740 G1 X219.15 Y209.61 Z-3.993
N5745 G1 X219.056 Z-4
N5750 G1 X175.501 Y209.31 F420
N5755 G2 X175.199 Y209.61 I-0.002 J0.3
N5760 G3 X175.11 Y210 I-0.906 J0
N5765 G2 X174.648 Y211.028 I21.871 J10.458
N5770 G2 X174.276 Y212.091 I8.233 J3.477
N5775 G1 X171.012 Y223.898
N5780 G1 X170.995 Y223.932
N5785 G1 X170.968 Y223.958
N5790 G1 X170.934 Y223.972
N5795 G1 X170.896 Y223.974
N5800 G1 X170.861 Y223.962
N5805 G1 X170.831 Y223.939
N5810 G1 X170.812 Y223.907
N5815 G1 X170.806 Y223.87
N5820 G1 Y194.017
N5825 G1 X170.812 Y193.98
N5830 G1 X170.831 Y193.948
N5835 G1 X170.861 Y193.925
N5840 G1 X170.896 Y193.914
N5845 G1 X170.933 Y193.916
N5850 G1 X170.967 Y193.931
N5855 G1 X170.994 Y193.958
N5860 G1 X171.009 Y193.991
N5865 G1 X174.186 Y206.791
N5870 G2 X174.588 Y208.028 I9.41 J-2.37
N5875 G2 X175.11 Y209.219 I18.527 J-7.418
N5880 G3 X175.199 Y209.61 I-0.817 J0.391
N5885 G2 X176.193 Y212.139 I3.715 J0
N5890 G3 X176.835 Y214.779 I-2.038 J1.894
N5895 G1 X170.187 Y238.634
N5900 G3 X169.75 Y238.965 I-0.437 J-0.122
N5905 G1 X167.934
N5910 G3 X167.621 Y238.652 I0 J-0.313
N5915 G1 Y180.835
N5920 G3 X167.934 Y180.522 I0.313 J0
N5925 G1 X170.562
N5930 G3 X170.984 Y180.852 I0 J0.436
N5935 G1 X177.276 Y206.013
N5940 G2 X177.914 Y207.749 I8.508 J-2.143
N5945 G2 X178.865 Y209.335 I10.118 J-4.987
N5950 G3 Y209.884 I-0.383 J0.275
N5955 G2 X177.97 Y211.351 I9.384 J6.729
N5960 G2 X177.344 Y212.951 I7.672 J3.927
N5965 G1 X176.835 Y214.779
N5970 G2 X178.18 Y218.907 I3.777 J1.052
N5975 G3 X179.526 Y223.035 I-2.42 J3.072
N5980 G1 X174.304 Y241.655
N5985 G2 X174.097 Y242.888 I5.646 J1.583
N5990 G3 X173.187 Y243.745 I-0.91 J-0.055
N5995 G1 X163.242
N6000 G3 X162.31 Y242.812 I0 J-0.933
N6005 G2 X162.308 Y242.407 I-60.296 J0
N6010 G3 X162.392 Y242.01 I0.948 J-0.006
N6015 G2 X162.841 Y239.926 I-4.619 J-2.085
N6020 G1 Y180.082
N6025 G2 X162.392 Y177.997 I-5.067 J0
N6030 G3 X162.281 Y177.341 I1.201 J-0.542
N6035 G2 X162.31 Y176.675 I-7.61 J-0.665
N6040 G3 X163.242 Y175.743 I0.933 J0
N6045 G1 X173.187
N6050 G3 X173.828 Y175.953 I0 J1.082
N6055 G2 X174.409 Y176.297 I1.995 J-2.708
N6060 G3 X174.922 Y176.916 I-0.392 J0.846
N6065 G1 X181.953 Y204.835
N6070 G2 X186.867 Y208.664 I4.914 J-1.238
N6075 G1 X209.066
N6080 G2 X214.133 Y203.597 I0 J-5.067
N6085 G1 Y179.139
N6090 G2 X213.966 Y177.851 I-5.067 J0
N6095 G3 X213.913 Y177.264 I1.716 J-0.451
N6100 G2 X213.936 Y176.675 I-7.69 J-0.589
N6105 G3 X214.868 Y175.743 I0.933 J0
N6110 G1 X225.066
N6115 G3 X225.999 Y176.675 I0 J0.933
N6120 G2 X226.021 Y177.754 I26.731 J0
N6125 G2 X226.191 Y178.82 I4.587 J-0.185
N6130 G1 X233.859 Y205.803
N6135 G2 X235.756 Y208.139 I4.657 J-1.844
N6140 G2 X238.638 Y209.005 I2.882 J-4.365
N6145 G1 X245.771
N6150 G2 X250.839 Y203.938 I0 J-5.067
N6155 G1 Y176.864
N6160 G3 X251.771 Y175.932 I0.933 J0
N6165 G1 X255.858
N6170 G2 X256.605 Y175.837 I0 J-3
N6175 G3 X257.352 Y175.743 I0.747 J2.905
N6180 G1 X273.272
N6185 G3 X274.019 Y175.837 I0 J3
N6190 G2 X274.767 Y175.932 I0.747 J-2.905
N6195 G1 X278.723
N6200 G3 X279.655 Y176.864 I0 J0.933
N6205 G1 Y242.595
N6210 G1 X279.651 Y242.689
N6215 G1 X279.637 Y242.781
N6220 G2 X279.962 Y245.829 I4.965 J1.012
N6225 G1 X281.725 Y249.848
N6230 G2 X283.56 Y253.809 I98.432 J-43.192
N6235 G1 X285.331 Y257.437
N6240 G2 X287.294 Y261.263 I97.248 J-47.471
N6245 G1 X289.153 Y264.716
N6250 G2 X291.208 Y268.359 I92.369 J-49.727
N6255 G1 X293.255 Y271.821
N6260 G2 X295.473 Y275.408 I89.805 J-53.068
N6265 G1 X297.641 Y278.759
N6270 G2 X300.017 Y282.276 I88.542 J-57.273
N6275 G1 X302.287 Y285.493
N6280 G2 X304.773 Y288.87 I85.525 J-60.339
N6285 G1 X307.207 Y292.043
N6290 G2 X309.843 Y295.34 I83.732 J-64.249
N6295 G1 X312.404 Y298.414
N6300 G2 X315.175 Y301.611 I82.139 J-68.415
N6305 G1 X317.861 Y304.588
N6310 G2 X320.767 Y307.684 I80.74 J-72.849
N6315 G2 X324.096 Y311.021 I152.141 J-148.449
N6320 G1 X325.595 Y312.491
N6325 G3 X326.352 Y313.756 I-2.039 J2.08
N6330 G3 X326.525 Y314.504 I-6.595 J1.921
N6335 G2 X326.672 Y315.258 I18.938 J-3.283
N6340 G3 X327.07 Y317.811 I-22.237 J4.777
N6345 G3 X326.99 Y320.393 I-10.008 J0.983
N6350 G3 X326.5 Y321.958 I-5.661 J-0.912
N6355 G3 X325.492 Y323.252 I-3.467 J-1.661
N6360 G3 X323.235 Y324.458 I-4.047 J-4.864
N6365 G3 X320.736 Y325.012 I-5.3 J-17.974
N6370 G3 X319.581 Y325.178 I-11.217 J-74.194
N6375 G3 X318.419 Y325.28 I-1.683 J-12.437
N6380 G3 X317.006 Y324.966 I-0.117 J-2.807
N6385 G3 X315.207 Y323.985 I24.072 J-46.277
N6390 G2 X313.422 Y322.979 I-84.894 J148.637
N6395 G3 X303.806 Y317.233 I85.878 J-154.628
N6400 G3 X295.715 Y311.709 I93.141 J-145.099
N6405 G3 X287.046 Y304.981 I99.881 J-137.659
N6410 G3 X285.626 Y303.784 I73.237 J-88.323
N6415 G2 X284.213 Y302.579 I-223.968 J261.376
N6420 G2 X277.243 Y302.975 I-3.276 J3.866
N6425 G1 X271.211 Y309.395
N6430 G3 X269.893 Y309.436 I-0.68 J-0.639
N6435 G1 X241.271 Y282.543
N6440 G3 X241.199 Y281.259 I0.639 J-0.68
N6445 G1 X250.659 Y270.124
N6450 G3 X251.017 Y269.864 I0.711 J0.604
N6455 G2 X253.147 Y268.249 I-1.959 J-4.796
N6460 G2 X254.649 Y266.038 I-16.334 J-12.709
N6465 G2 X255.599 Y263.897 I-8.844 J-5.205
N6470 G2 X256.192 Y261.631 I-23.676 J-7.407
N6475 G2 X256.357 Y260.664 I-11.91 J-2.523
N6480 G2 X256.419 Y259.685 I-7.6 J-0.979
N6485 G1 Y248.581
N6490 G2 X251.706 Y243.526 I-5.067 J0
N6495 G3 X250.839 Y242.595 I0.065 J-0.93
N6500 G1 Y215.725
N6505 G2 X245.771 Y210.658 I-5.067 J0
N6510 G1 X238.57
N6515 G2 X233.691 Y214.357 I0 J5.067
N6520 G1 X226.187 Y241.113
N6525 G2 X226.035 Y241.956 I4.361 J1.223
N6530 G2 X225.999 Y242.812 I10.168 J0.856
N6535 G3 X225.066 Y243.745 I-0.933 J0
N6540 G1 X214.868
N6545 G3 X213.936 Y242.812 I0 J-0.933
N6550 G3 X214.034 Y241.84 I4.839 J0
N6555 G2 X214.133 Y240.868 I-4.74 J-0.972
N6560 G1 Y215.622
N6565 G2 X209.066 Y210.555 I-5.067 J0
N6570 G1 X186.867
N6575 G2 X181.988 Y214.254 I0 J5.067
N6580 G1 X179.526 Y223.035
N6585 G2 X180.102 Y224.807 I1.617 J0.454
N6590 G3 X180.679 Y226.579 I-1.041 J1.318
N6595 G1 X176.294 Y242.213
N6600 G2 X176.185 Y242.918 I2.889 J0.81
N6605 G3 X173.187 Y245.812 I-2.998 J-0.106
N6610 G1 X163.242
N6615 G3 X160.242 Y242.812 I0 J-3
N6620 G1 Y242.394
N6625 G3 X160.508 Y241.16 I3 J0
N6630 G2 X160.774 Y239.926 I-2.734 J-1.234
N6635 G1 Y180.082
N6640 G2 X160.508 Y178.848 I-3 J0
N6645 G3 X160.242 Y177.614 I2.734 J-1.234
N6650 G1 Y176.675
N6655 G3 X163.242 Y173.675 I3 J0
N6660 G1 X173.187
N6665 G3 X174.863 Y174.187 I0 J3
N6670 G2 X175.278 Y174.422 I1.676 J-2.488
N6675 G3 X176.926 Y176.411 I-1.261 J2.722
N6680 G1 X183.958 Y204.33
N6685 G2 X186.867 Y206.597 I2.909 J-0.733
N6690 G1 X209.066
N6695 G2 X212.066 Y203.597 I0 J-3
N6700 G1 Y179.139
N6705 G2 X211.967 Y178.376 I-3 J0
N6710 G3 X211.868 Y177.614 I2.901 J-0.763
N6715 G1 Y176.675
N6720 G3 X214.868 Y173.675 I3 J0
N6725 G1 X225.066
N6730 G3 X228.066 Y176.675 I0 J3
N6735 G1 Y177.439
N6740 G2 X228.18 Y178.256 I3 J0
N6745 G1 X235.683 Y204.755
N6750 G2 X238.57 Y206.938 I2.887 J-0.817
N6755 G1 X245.771
N6760 G2 X248.771 Y203.938 I0 J-3
N6765 G1 Y176.864
N6770 G3 X251.771 Y173.864 I3 J0
N6775 G1 X255.858
N6780 G2 X256.605 Y173.77 I0 J-3
N6785 G3 X257.352 Y173.675 I0.747 J2.905
N6790 G1 X273.272
N6795 G3 X274.019 Y173.77 I0 J3
N6800 G2 X274.767 Y173.864 I0.747 J-2.905
N6805 G1 X278.723
N6810 G3 X281.723 Y176.864 I0 J3
N6815 G1 Y242.595
N6820 G3 X281.662 Y243.194 I-3 J0
N6825 G2 X281.855 Y244.999 I2.94 J0.599
N6830 G1 X283.649 Y249.087
N6835 G1 X283.675 Y249.144
N6840 G1 X285.392 Y252.849
N6845 G1 X285.418 Y252.903
N6850 G1 X287.204 Y256.562
N6855 G1 X287.231 Y256.616
N6860 G1 X289.087 Y260.231
N6865 G1 X289.114 Y260.283
N6870 G1 X290.952 Y263.697
N6875 G1 X290.981 Y263.749
N6880 G1 X292.958 Y267.254
N6885 G1 X292.988 Y267.307
N6890 G1 X295.033 Y270.767
N6895 G1 X295.064 Y270.819
N6900 G1 X297.177 Y274.234
N6905 G1 X297.209 Y274.285
N6910 G1 X299.39 Y277.656
N6915 G1 X299.423 Y277.707
N6920 G1 X301.673 Y281.035
N6925 G1 X301.707 Y281.084
N6930 G1 X303.966 Y284.287
N6935 G1 X304.001 Y284.336
N6940 G1 X306.377 Y287.564
N6945 G1 X306.413 Y287.612
N6950 G1 X308.853 Y290.792
N6955 G1 X308.89 Y290.839
N6960 G1 X311.394 Y293.97
N6965 G1 X311.432 Y294.017
N6970 G1 X314 Y297.1
N6975 G1 X314.039 Y297.146
N6980 G1 X316.671 Y300.182
N6985 G1 X316.71 Y300.226
N6990 G1 X319.406 Y303.214
N6995 G1 X319.446 Y303.257
N7000 G1 X322.206 Y306.198
N7005 G1 X322.246 Y306.24
N7010 G1 X325.07 Y309.134
N7015 G1 X325.093 Y309.157
N7020 G1 X325.497 Y309.563
N7025 G1 X325.521 Y309.586
N7030 G1 X327.933 Y311.951
N7035 G1 X328.334 Y313.328
N7040 G1 X328.693 Y314.824
N7045 G1 X328.909 Y315.962
N7050 G1 X329.076 Y317.187
N7055 G1 X329.158 Y318.318
N7060 G1 X329.161 Y319.387
N7065 G1 X329.132 Y319.897
N7070 G1 X329.033 Y320.722
N7075 G1 X328.884 Y321.454
N7080 G1 X328.687 Y322.12
N7085 G1 X328.437 Y322.741
N7090 G1 X328.202 Y323.198
N7095 G1 X327.89 Y323.691
N7100 G1 X327.629 Y324.031
N7105 G1 X327.242 Y324.455
N7110 G1 X326.816 Y324.843
N7115 G1 X326.325 Y325.216
N7120 G1 X325.945 Y325.462
N7125 G1 X325.317 Y325.808
N7130 G1 X324.643 Y326.114
N7135 G1 X323.912 Y326.387
N7140 G1 X323.07 Y326.641
N7145 G1 X322.087 Y326.873
N7150 G1 X321.045 Y327.057
N7155 G1 X319.946 Y327.195
N7160 G1 X318.791 Y327.289
N7165 G1 X317.582 Y327.339
N7170 G1 X317.193 Y327.342
N7175 G1 X315.772 Y326.603
N7180 G1 X312.419 Y324.787
N7185 G1 X309.124 Y322.911
N7190 G1 X305.881 Y320.973
N7195 G1 X302.689 Y318.973
N7200 G1 X299.544 Y316.906
N7205 G1 X297.533 Y315.533
N7210 G1 X294.501 Y313.382
N7215 G1 X291.526 Y311.174
N7220 G1 X288.601 Y308.904
N7225 G1 X285.726 Y306.572
N7230 G1 X282.876 Y304.157
N7235 G2 X278.75 Y304.391 I-1.94 J2.289
N7240 G1 X272.718 Y310.811
N7245 G3 X268.477 Y310.943 I-2.186 J-2.054
N7250 G1 X239.855 Y284.049
N7255 G3 X239.623 Y279.921 I2.054 J-2.186
N7260 G1 X249.084 Y268.785
N7265 G3 X250.236 Y267.95 I2.286 J1.942
N7270 G2 X251.394 Y267.109 I-1.134 J-2.777
N7275 G1 X251.686 Y266.762
N7280 G1 X251.755 Y266.677
N7285 G1 X251.822 Y266.589
N7290 G1 X252.29 Y265.943
N7295 G2 X252.447 Y265.703 I-2.428 J-1.762
N7300 G1 X252.868 Y264.989
N7305 G2 X253.001 Y264.735 I-2.585 J-1.522
N7310 G1 X253.354 Y263.978
N7315 G1 X253.438 Y263.779
N7320 G1 X253.602 Y263.349
N7325 G1 X253.67 Y263.151
N7330 G1 X253.922 Y262.317
N7335 G2 X253.986 Y262.069 I-2.871 J-0.87
N7340 G1 X254.17 Y261.203
N7345 G1 X254.192 Y261.087
N7350 G1 X254.209 Y260.97
N7355 G1 X254.327 Y260.074
N7360 G2 X254.352 Y259.685 I-2.975 J-0.389
N7365 G1 Y248.581
N7370 G2 X251.562 Y245.588 I-3 J0
N7375 G3 X248.771 Y242.595 I0.21 J-2.993
N7380 G1 Y215.725
N7385 G2 X245.771 Y212.725 I-3 J0
N7390 G1 X238.57
N7395 G2 X235.681 Y214.915 I0 J3
N7400 G1 X228.178 Y241.671
N7405 G2 X228.066 Y242.481 I2.889 J0.81
N7410 G1 Y242.812
N7415 G3 X225.066 Y245.812 I-3 J0
N7420 G1 X214.868
N7425 G3 X211.868 Y242.812 I0 J-3
N7430 G1 Y242.394
N7435 G3 X211.967 Y241.631 I3 J0
N7440 G2 X212.066 Y240.868 I-2.901 J-0.763
N7445 G1 Y215.622
N7450 G2 X209.066 Y212.622 I-3 J0
N7455 G1 X186.867
N7460 G2 X183.979 Y214.812 I0 J3
N7465 G1 X180.679 Y226.579
N7470 G3 X180.148 Y226.675 I-0.289 J-0.081
N7475 G1 X178.522 Y224.448
N7480 G1 X178.494 Y224.4
N7485 G1 X178.475 Y224.348
N7490 G1 X174.067 Y207.868
N7495 G1 X174.016 Y207.33
N7500 G1 X174.019 Y207.287
N7505 G1 X174.037 Y207.248
N7510 G1 X174.067 Y207.217
N7515 G1 X174.106 Y207.198
N7520 G1 X174.149 Y207.193
N7525 G1 X174.191 Y207.203
N7530 G1 X174.227 Y207.226
N7535 G3 X170.347 Y211.402 Z-4.313 I-1.94 J2.088 F333.3
N7540 G3 X174.227 Y207.226 Z-4.625 I1.94 J-2.088
N7545 G3 X170.347 Y211.402 Z-4.938 I-1.94 J2.088
N7550 G3 X174.227 Y207.226 Z-5.251 I1.94 J-2.088
N7555 G3 X170.347 Y211.402 Z-5.563 I-1.94 J2.088
N7560 G3 X174.227 Y207.226 Z-5.876 I1.94 J-2.088
N7565 G3 X174.885 Y210.486 Z-6 I-1.94 J2.088
N7570 G2 X174.648 Y211.028 I22.097 J9.972 F420
N7575 G2 X174.276 Y212.091 I8.233 J3.477
N7580 G1 X171.012 Y223.898
N7585 G1 X170.995 Y223.932
N7590 G1 X170.968 Y223.958
N7595 G1 X170.934 Y223.972
N7600 G1 X170.896 Y223.974
N7605 G1 X170.861 Y223.962
N7610 G1 X170.831 Y223.939
N7615 G1 X170.812 Y223.907
N7620 G1 X170.806 Y223.87
N7625 G1 Y194.017
N7630 G1 X170.812 Y193.98
N7635 G1 X170.831 Y193.948
N7640 G1 X170.861 Y193.925
N7645 G1 X170.896 Y193.914
N7650 G1 X170.933 Y193.916
N7655 G1 X170.967 Y193.931
N7660 G1 X170.994 Y193.958
N7665 G1 X171.009 Y193.991
N7670 G1 X174.186 Y206.791
N7675 G2 X174.588 Y208.028 I9.41 J-2.37
N7680 G2 X175.11 Y209.219 I18.527 J-7.418
N7685 G3 Y210 I-0.817 J0.391
N7690 G2 X174.885 Y210.486 I21.871 J10.458
N7695 G2 X175.534 Y213.432 I2.299 J1.038
N7700 G3 X176.405 Y216.32 I-1.843 J2.132
N7705 G1 X170.187 Y238.634
N7710 G3 X169.75 Y238.965 I-0.437 J-0.122
N7715 G1 X167.934
N7720 G3 X167.621 Y238.652 I0 J-0.313
N7725 G1 Y180.835
N7730 G3 X167.934 Y180.522 I0.313 J0
N7735 G1 X170.562
N7740 G3 X170.984 Y180.852 I0 J0.436
N7745 G1 X177.276 Y206.013
N7750 G2 X177.914 Y207.749 I8.508 J-2.143
N7755 G2 X178.865 Y209.335 I10.118 J-4.987
N7760 G3 Y209.884 I-0.383 J0.275
N7765 G2 X177.97 Y211.351 I9.384 J6.729
N7770 G2 X177.344 Y212.951 I7.672 J3.927
N7775 G1 X176.405 Y216.32
N7780 G1 X176.373 Y216.407 Z-5.985 F1000
N7785 G1 X176.328 Y216.488 Z-5.971
N7790 G1 X176.278 Y216.555 Z-5.928
N7795 G1 X176.218 Y216.613 Z-5.885
N7800 G1 X176.166 Y216.654 Z-5.819
N7805 G1 X176.109 Y216.688 Z-5.753
N7810 G1 X176.031 Y216.723 Z-5.585
N7815 G1 X176.003 Y216.732 Z-5.4
N7820 G1 Z-2
N7825 G1 X176.353 Y209.605 F420
N7830 G1 Z-5.4 F1000
N7835 G1 X176.361 Y209.606 Z-5.494
N7840 G1 X176.383 Z-5.585
N7845 G1 X176.419 Z-5.672
N7850 G1 X176.468 Z-5.753
N7855 G1 X176.529 Y209.607 Z-5.824
N7860 G1 X176.601 Z-5.885
N7865 G1 X176.681 Y209.608 Z-5.935
N7870 G1 X176.768 Z-5.971
N7875 G1 X176.859 Y209.609 Z-5.993
N7880 G1 X176.953 Y209.61 Z-6
N7885 G1 X220.544 Y209.91 F420
N7890 G2 X220.846 Y209.61 I0.002 J-0.3
N7895 G3 X220.935 Y209.215 I0.921 J0
N7900 G2 X221.9 Y206.479 I-12.765 J-6.043
N7905 G2 X222.242 Y203.597 I-11.969 J-2.882
N7910 G2 X222.22 Y199.335 I-403.716 J0
N7915 G3 X222.197 Y195.072 I403.693 J-4.262
N7920 G1 X222.204 Y195.036
N7925 G1 X222.223 Y195.003
N7930 G1 X222.252 Y194.98
N7935 G1 X222.288 Y194.968
N7940 G1 X222.325 Y194.97
N7945 G1 X222.36 Y194.984
N7950 G1 X222.387 Y195.01
N7955 G1 X222.404 Y195.044
N7960 G1 X225.892 Y207.528
N7965 G2 X226.23 Y208.493 I8.092 J-2.291
N7970 G2 X226.641 Y209.428 I27.888 J-11.712
N7975 G3 Y210.235 I-0.876 J0.403
N7980 G2 X226.224 Y211.186 I26.387 J12.146
N7985 G2 X225.883 Y212.167 I7.85 J3.278
N7990 G1 X222.403 Y224.741
N7995 G1 X222.387 Y224.775
N8000 G1 X222.36 Y224.8
N8005 G1 X222.325 Y224.815
N8010 G1 X222.288 Y224.817
N8015 G1 X222.252 Y224.805
N8020 G1 X222.223 Y224.782
N8025 G1 X222.204 Y224.749
N8030 G1 X222.197 Y224.713
N8035 G1 X222.242 Y215.622
N8040 G2 X221.9 Y212.74 I-12.311 J0
N8045 G2 X220.935 Y210.004 I-13.731 J3.306
N8050 G3 X220.846 Y209.61 I0.833 J-0.394
N8055 G2 X219.866 Y206.992 I-3.987 J0
N8060 G3 X218.989 Y204.338 I2.725 J-2.373
N8065 G2 X219.018 Y203.597 I-9.476 J-0.741
N8070 G1 X218.974 Y180.896
N8075 G3 X219.287 Y180.583 I0.313 J0
N8080 G1 X221.315
N8085 G3 X221.753 Y180.914 I0 J0.455
N8090 G1 X228.994 Y206.649
N8095 G2 X229.581 Y208.156 I8.2 J-2.322
N8100 G2 X230.403 Y209.548 I10.631 J-5.346
N8105 G3 Y210.115 I-0.413 J0.284
N8110 G2 X229.575 Y211.518 I9.778 J6.717
N8115 G2 X228.988 Y213.038 I7.636 J3.826
N8120 G1 X221.872 Y238.573
N8125 G3 X221.436 Y238.904 I-0.437 J-0.122
N8130 G1 X219.287
N8135 G3 X218.974 Y238.591 I0 J-0.313
N8140 G1 X219.018 Y215.622
N8145 G2 X218.527 Y212.609 I-9.505 J0
N8150 G2 X217.144 Y209.886 I-9.859 J3.296
N8155 G3 Y209.333 I0.39 J-0.277
N8160 G2 X218.527 Y206.611 I-8.476 J-6.018
N8165 G2 X218.989 Y204.338 I-9.015 J-3.014
N8170 G1 X219.003 Y204.246 Z-5.985 F1000
N8175 G1 X219.031 Y204.158 Z-5.971
N8180 G1 X219.067 Y204.083 Z-5.928
N8185 G1 X219.114 Y204.013 Z-5.885
N8190 G1 X219.158 Y203.963 Z-5.819
N8195 G1 X219.206 Y203.918 Z-5.753
N8200 G1 X219.276 Y203.869 Z-5.585
N8205 G1 X219.301 Y203.855 Z-5.4
N8210 G1 Z-2
N8215 G1 X227.856 Y209.627 F420
N8220 G1 Z-5.4 F1000
N8225 G1 X227.863 Z-5.494
N8230 G1 X227.885 Z-5.585
N8235 G1 X227.921 Y209.628 Z-5.672
N8240 G1 X227.97 Z-5.753
N8245 G1 X228.032 Y209.629 Z-5.824
N8250 G1 X228.103 Y209.63 Z-5.885
N8255 G1 X228.183 Y209.631 Z-5.935
N8260 G1 X228.27 Y209.632 Z-5.971
N8265 G1 X228.362 Y209.634 Z-5.993
N8270 G1 X228.456 Y209.635 Z-6
N8275 G1 X263.032 Y210.122 F420
N8280 G2 X263.336 Y209.824 I0.004 J-0.3
N8285 G3 X263.397 Y209.431 I1.345 J0.007
N8290 G2 X264.046 Y206.718 I-19.733 J-6.151
N8295 G2 X264.278 Y203.938 I-16.486 J-2.78
N8300 G1 X264.233 Y189.457
N8305 G3 X264.553 Y189.137 I0.319 J0
N8310 G1 X265.941
N8315 G3 X266.261 Y189.457 I0 J0.319
N8320 G1 X266.226 Y209.824
N8325 G1 X266.216 Y215.725
N8330 G1 X266.261 Y237.287
N8335 G3 X266.019 Y237.368 I-0.134 J0
N8340 G2 X264.522 Y235.642 I-14.667 J11.212
N8345 G3 X264.233 Y234.936 I0.719 J-0.706
N8350 G1 X264.278 Y215.725
N8355 G2 X264.046 Y212.945 I-16.719 J0
N8360 G2 X263.397 Y210.232 I-20.382 J3.437
N8365 G3 X263.336 Y209.824 I1.284 J-0.4
N8370 G1 X263.341 Y209.718 Z-5.98 F1000
N8375 G1 X263.354 Y209.612 Z-5.961
N8380 G1 X263.373 Y209.521 Z-5.904
N8385 G1 X263.397 Y209.431 Z-5.848
N8390 G1 X263.429 Y209.327 Z-5.72
N8395 G1 X263.449 Y209.262 Z-5.566
N8400 G1 X263.456 Y209.239 Z-5.4
N8405 G0 Z5
N8410 G0 X274.43 Y278.172
N8415 G1 Z-0.9 F1000
N8420 G1 X274.435 Y278.199 Z-1.082 F333.3
N8425 G1 X274.448 Y278.28 Z-1.246
N8430 G1 X274.464 Y278.406 Z-1.378
N8435 G1 X274.477 Y278.567 Z-1.466
N8440 G1 X274.48 Y278.747 Z-1.5
N8445 G3 X268.781 Y278.666 Z-1.813 I-2.85 J-0.041
N8450 G3 X274.48 Y278.747 Z-2.125 I2.85 J0.041
N8455 G3 X268.781 Y278.666 Z-2.438 I-2.85 J-0.041
N8460 G3 X274.48 Y278.747 Z-2.751 I2.85 J0.041
N8465 G3 X268.781 Y278.666 Z-3.063 I-2.85 J-0.041
N8470 G3 X274.48 Y278.747 Z-3.376 I2.85 J0.041
N8475 G3 X268.781 Y278.666 Z-3.689 I-2.85 J-0.041
N8480 G3 X274.48 Y278.747 Z-4.001 I2.85 J0.041
N8485 G3 X268.781 Y278.666 Z-4.314 I-2.85 J-0.041
N8490 G3 X274.48 Y278.747 Z-4.627 I2.85 J0.041
N8495 G3 X268.781 Y278.666 Z-4.939 I-2.85 J-0.041
N8500 G3 X274.48 Y278.747 Z-5.252 I2.85 J0.041
N8505 G3 X268.781 Y278.666 Z-5.565 I-2.85 J-0.041
N8510 G3 X274.48 Y278.747 Z-5.877 I2.85 J0.041
N8515 G3 X272.537 Y281.409 Z-6 I-2.85 J-0.041
N8520 G2 X271.951 Y281.613 I8.399 J25.036 F420
N8525 G3 X271.304 Y281.48 I-0.215 J-0.593
N8530 G1 X270.729 Y280.939
N8535 G3 X270.684 Y280.45 I0.254 J-0.27
N8540 G2 X271.397 Y279.463 I-69.236 J-50.806
N8545 G2 X272.08 Y278.455 I-20.732 J-14.766
N8550 G3 X272.406 Y278.465 I0.16 J0.103
N8555 G2 X273.005 Y279.502 I51.742 J-29.185
N8560 G1 X273.73 Y280.728
N8565 G3 X273.59 Y281.08 I-0.206 J0.122
N8570 G2 X272.537 Y281.409 I7.346 J25.366
N8575 G2 X271.675 Y282.839 I0.41 J1.221
N8580 G3 X270.202 Y283.624 I-0.87 J0.143
N8585 G1 X267.565 Y281.146
N8590 G3 X267.538 Y280.679 I0.233 J-0.248
N8595 G2 X269.19 Y278.617 I-39.373 J-33.247
N8600 G2 X270.662 Y276.423 I-17.836 J-13.558
N8605 G2 X272.087 Y273.709 I-27.215 J-16.017
N8610 G3 X272.386 Y273.701 I0.151 J0.071
N8615 G2 X274.579 Y277.628 I130.506 J-70.31
N8620 G2 X276.85 Y281.512 I422.706 J-244.565
N8625 G2 X277.115 Y281.921 I5.081 J-3.002
N8630 G3 X277.384 Y282.327 I-6.372 J4.514
N8635 G3 X277.24 Y282.64 I-0.176 J0.109
N8640 G2 X271.431 Y284.31 I3.696 J23.805
N8645 G3 X270.816 Y284.201 I-0.225 J-0.524
N8650 G1 X270.202 Y283.624
N8655 G2 X266.557 Y283.013 I-2.281 J2.428
N8660 G3 X262.913 Y282.401 I-1.364 J-3.039
N8665 G1 X261.6 Y281.168
N8670 G3 X261.616 Y280.761 I0.185 J-0.196
N8675 G2 X266.941 Y274.66 I-14.418 J-17.959
N8680 G2 X270.225 Y267.258 I-28.225 J-16.952
N8685 G2 X270.753 Y265.066 I-18.659 J-5.656
N8690 G2 X271.1 Y262.838 I-45.794 J-8.266
N8695 G1 X271.112 Y262.799
N8700 G1 X271.135 Y262.766
N8705 G1 X271.168 Y262.741
N8710 G1 X271.206 Y262.728
N8715 G1 X271.247
N8720 G1 X271.286 Y262.741
N8725 G1 X271.319 Y262.765
N8730 G1 X271.343 Y262.799
N8735 G2 X273.674 Y267.494 I352.41 J-172.028
N8740 G2 X276.143 Y272.118 I101.562 J-51.269
N8745 G1 X278.123 Y275.627
N8750 G2 X280.576 Y279.78 I104.102 J-58.719
N8755 G2 X282.709 Y283.15 I167.642 J-103.69
N8760 G1 X284.94 Y286.6
N8765 G3 X284.785 Y286.829 I-0.126 J0.082
N8770 G2 X270.71 Y289.269 I-3.848 J19.616
N8775 G3 X270.157 Y289.208 I-0.236 J-0.397
N8780 G1 X262.913 Y282.401
N8785 G2 X259.716 Y281.864 I-2.001 J2.129
N8790 G3 X256.519 Y281.328 I-1.196 J-2.666
N8795 G1 X256.467 Y281.279
N8800 G3 X256.441 Y280.812 I0.233 J-0.248
N8805 G1 X257.85 Y279.154
N8810 G3 X258.327 Y278.724 I1.825 J1.551
N8815 G2 X263.627 Y273.194 I-10.391 J-15.262
N8820 G2 X266.783 Y266.215 I-25.022 J-15.52
N8825 G2 X267.308 Y264.034 I-18.432 J-5.587
N8830 G2 X267.652 Y261.818 I-46.344 J-8.327
N8835 G2 X267.791 Y259.685 I-16.3 J-2.133
N8840 G1 Y248.581
N8845 G2 X266.404 Y242.029 I-16.172 J0
N8850 G2 X262.517 Y236.576 I-15.239 J6.753
N8855 G3 X262.165 Y235.769 I0.75 J-0.807
N8860 G1 X262.21 Y215.725
N8865 G2 X261.959 Y212.995 I-14.967 J0
N8870 G2 X261.257 Y210.345 I-17.874 J3.316
N8875 G3 Y209.318 I1.478 J-0.514
N8880 G2 X261.959 Y206.668 I-17.172 J-5.966
N8885 G2 X262.21 Y203.938 I-14.716 J-2.73
N8890 G1 X262.165 Y187.389
N8895 G3 X262.485 Y187.069 I0.319 J0
N8900 G1 X268.01
N8905 G3 X268.329 Y187.389 I0 J0.319
N8910 G1 X268.284 Y241.804
N8915 G2 X268.197 Y243.971 I52.581 J3.193
N8920 G2 X268.331 Y246.136 I13.361 J0.26
N8925 G2 X269.591 Y250.582 I17.221 J-2.48
N8930 G2 X271.483 Y254.797 I170.815 J-74.114
N8935 G1 X273.205 Y258.512
N8940 G2 X275.275 Y262.752 I107.086 J-49.656
N8945 G1 X277.131 Y266.368
N8950 G2 X279.275 Y270.351 I102.13 J-52.414
N8955 G1 X281.255 Y273.861
N8960 G2 X283.635 Y277.888 I100.97 J-56.953
N8965 G1 X285.748 Y281.305
N8970 G2 X288.289 Y285.233 I98.284 J-60.791
N8975 G1 X290.536 Y288.556
N8980 G2 X293.177 Y292.301 I95.005 J-64.22
N8985 G2 X295.891 Y295.934 I260.125 J-191.408
N8990 G2 X298.676 Y299.513 I138.377 J-104.849
N8995 G1 X298.694 Y299.546
N9000 G1 X298.699 Y299.582
N9005 G1 X298.69 Y299.618
N9010 G1 X298.669 Y299.649
N9015 G1 X298.639 Y299.67
N9020 G1 X298.603 Y299.679
N9025 G1 X298.566 Y299.675
N9030 G1 X298.533 Y299.658
N9035 G3 X294.343 Y296.259 I76.68 J-98.813
N9040 G1 X291.565 Y293.905
N9045 G2 X270.377 Y293.904 I-10.594 J12.499
N9050 G3 X269.889 Y293.891 I-0.236 J-0.281
N9055 G1 X256.519 Y281.328
N9060 G2 X254.566 Y281.087 I-1.141 J1.215
N9065 G3 X253.318 Y279.566 I-0.487 J-0.873
N9070 G1 X255.713 Y276.746
N9075 G3 X256.243 Y276.282 I1.825 J1.551
N9080 G2 X260.01 Y272.749 I-7.715 J-12
N9085 G2 X262.647 Y268.308 I-20.884 J-15.4
N9090 G2 X263.834 Y264.927 I-16.538 J-7.706
N9095 G2 X264.492 Y261.404 I-31.906 J-7.784
N9100 G2 X264.604 Y259.685 I-13.14 J-1.72
N9105 G1 Y248.581
N9110 G2 X263.201 Y242.697 I-13.04 J0
N9115 G2 X259.326 Y238.052 I-11.981 J6.058
N9120 G3 X258.978 Y237.353 I0.529 J-0.699
N9125 G1 X259.023 Y215.725
N9130 G2 X258.699 Y212.915 I-12.334 J0
N9135 G2 X257.784 Y210.237 I-13.892 J3.251
N9140 G3 Y209.426 I0.888 J-0.406
N9145 G2 X258.699 Y206.748 I-12.977 J-5.929
N9150 G2 X259.023 Y203.938 I-12.009 J-2.811
N9155 G1 X258.978 Y184.202
N9160 G3 X259.298 Y183.882 I0.319 J0
N9165 G1 X271.197
N9170 G3 X271.516 Y184.202 I0 J0.319
N9175 G1 X271.471 Y242.008
N9180 G2 X271.381 Y243.845 I48.657 J3.292
N9185 G2 X271.485 Y245.682 I10.651 J0.318
N9190 G2 X272.618 Y249.538 I13.982 J-2.013
N9195 G3 X274.261 Y253.207 I-243.404 J111.195
N9200 G2 X276.172 Y257.331 I102.477 J-44.967
N9205 G1 X277.992 Y261.059
N9210 G2 X280.07 Y265.112 I103.005 J-50.281
N9215 G1 X281.925 Y268.557
N9220 G2 X284.185 Y272.561 I101.554 J-54.672
N9225 G1 X286.207 Y275.982
N9230 G2 X288.603 Y279.856 I96.989 J-57.314
N9235 G1 X290.782 Y283.225
N9240 G2 X293.316 Y286.974 I94.39 J-61.056
N9245 G1 X295.59 Y290.197
N9250 G2 X298.29 Y293.866 I92.889 J-65.535
N9255 G1 X300.719 Y297.033
N9260 G2 X303.549 Y300.571 I89.868 J-68.957
N9265 G1 X306.123 Y303.662
N9270 G2 X309.091 Y307.085 I87.957 J-73.26
N9275 G1 X311.795 Y310.082
N9280 G2 X314.299 Y312.73 I58.04 J-52.368
N9285 G3 X316.854 Y315.329 I-341.706 J338.506
N9290 G1 X316.875 Y315.36
N9295 G1 X316.884 Y315.396
N9300 G1 X316.879 Y315.434
N9305 G1 X316.862 Y315.467
N9310 G1 X316.834 Y315.492
N9315 G1 X316.799 Y315.506
N9320 G1 X316.762 Y315.507
N9325 G1 X316.726 Y315.494
N9330 G3 X294.973 Y300.872 I87.301 J-153.372
N9335 G3 X291.384 Y297.929 I89.166 J-112.38
N9340 G1 X289.504 Y296.336
N9345 G2 X271.282 Y297.374 I-8.565 J10.105
N9350 G2 X270.857 Y297.855 I7.487 J7.035
N9355 G3 X270.433 Y298.336 I-7.912 J-6.554
N9360 G3 X269.981 Y298.351 I-0.233 J-0.219
N9365 G1 X252.076 Y281.526
N9370 G3 X252.05 Y281.058 I0.233 J-0.248
N9375 G1 X253.318 Y279.566
N9380 G2 X253.569 Y276.652 I-1.923 J-1.634
N9385 G3 X254.112 Y273.777 I1.914 J-1.127
N9390 G3 X254.584 Y273.436 I4.525 J5.765
N9395 G2 X257.574 Y270.527 I-6.243 J-9.408
N9400 G2 X259.663 Y266.918 I-19.252 J-13.553
N9405 G2 X260.673 Y264.007 I-13.721 J-6.393
N9410 G2 X261.228 Y260.977 I-29.4 J-6.95
N9415 G2 X261.313 Y259.685 I-9.876 J-1.292
N9420 G1 Y248.581
N9425 G2 X259.878 Y243.474 I-9.808 J0
N9430 G2 X256.021 Y239.832 I-8.6 J5.245
N9435 G3 X255.688 Y239.276 I0.297 J-0.556
N9440 G1 X255.732 Y215.725
N9445 G2 X255.265 Y212.785 I-9.491 J0
N9450 G2 X253.949 Y210.116 I-9.919 J3.231
N9455 G3 Y209.547 I0.414 J-0.284
N9460 G2 X255.265 Y206.877 I-8.602 J-5.901
N9465 G2 X255.732 Y203.938 I-9.024 J-2.94
N9470 G1 X255.688 Y181.095
N9475 G3 X255.998 Y180.78 I0.315 J0
N9480 G2 X257.635 Y180.62 I-0.14 J-9.915
N9485 G3 X257.951 Y180.592 I0.315 J1.731
N9490 G1 X272.674
N9495 G3 X272.989 Y180.62 I0 J1.759
N9500 G2 X274.496 Y180.777 I1.778 J-9.756
N9505 G3 X274.806 Y181.096 I-0.009 J0.319
N9510 G1 Y242.076
N9515 G3 X274.783 Y242.405 I-2.347 J0
N9520 G2 X275.372 Y247.425 I9.834 J1.391
N9525 G2 X277.36 Y252.072 I78.294 J-30.736
N9530 G1 X279.083 Y255.787
N9535 G2 X281.039 Y259.794 I101.209 J-46.931
N9540 G1 X282.895 Y263.41
N9545 G2 X284.918 Y267.168 I96.366 J-49.456
N9550 G1 X286.898 Y270.678
N9555 G2 X289.145 Y274.48 I95.327 J-53.77
N9560 G1 X291.258 Y277.897
N9565 G2 X293.657 Y281.605 I92.775 J-57.383
N9570 G1 X295.903 Y284.928
N9575 G2 X298.395 Y288.461 I89.638 J-60.592
N9580 G1 X300.766 Y291.683
N9585 G2 X303.454 Y295.186 I88.549 J-65.157
N9590 G1 X305.951 Y298.309
N9595 G2 X308.78 Y301.706 I86.731 J-69.356
N9600 G1 X311.403 Y304.731
N9605 G2 X314.371 Y308.021 I85.113 J-73.802
N9610 G2 X317.482 Y311.315 I527.552 J-495.092
N9615 G2 X320.661 Y314.543 I92.878 J-88.263
N9620 G2 X320.968 Y314.827 I4.683 J-4.777
N9625 G3 X321.275 Y315.11 I-4.376 J5.06
N9630 G3 X321.946 Y316.362 I-1.661 J1.694
N9635 G3 X322.16 Y317.759 I-19.705 J3.734
N9640 G3 X322.244 Y319.169 I-12.332 J1.447
N9645 G3 X321.817 Y319.787 I-0.657 J0.002
N9650 G3 X320.923 Y320.04 I-2.004 J-5.37
N9655 G3 X320.009 Y320.199 I-3.999 J-20.238
N9660 G2 X319.739 Y320.244 I1.624 J10.742
N9665 G3 X319.469 Y320.284 I-0.951 J-5.37
N9670 G3 X318.181 Y320.042 I-0.267 J-2.126
N9675 G3 X309.515 Y315.037 I87.142 J-160.863
N9680 G3 X301.51 Y309.819 I88.209 J-144.1
N9685 G3 X292.927 Y303.451 I100.716 J-144.698
N9690 G3 X290.133 Y301.171 I82.145 J-103.532
N9695 G3 X287.376 Y298.847 I456.96 J-544.72
N9700 G2 X273.677 Y299.625 I-6.44 J7.598
N9705 G2 X272.125 Y301.308 I86.667 J81.434
N9710 G3 X270.573 Y302.992 I-88.219 J-79.75
N9715 G3 X270.131 Y303.006 I-0.228 J-0.214
N9720 G1 X247.537 Y281.777
N9725 G3 X247.511 Y281.318 I0.228 J-0.243
N9730 G1 X253.052 Y274.797
N9735 G3 X254.112 Y273.777 I5.585 J4.745
N9740 G2 X255.524 Y269.051 I-2.64 J-3.363
N9745 G3 X255.527 Y264.117 I7.318 J-2.462
N9750 G1 X255.599 Y263.897
N9755 G2 X256.192 Y261.631 I-23.676 J-7.407
N9760 G2 X256.357 Y260.664 I-11.91 J-2.523
N9765 G2 X256.419 Y259.685 I-7.6 J-0.979
N9770 G1 Y248.581
N9775 G2 X251.706 Y243.526 I-5.067 J0
N9780 G3 X250.839 Y242.595 I0.065 J-0.93
N9785 G1 Y215.725
N9790 G2 X245.771 Y210.658 I-5.067 J0
N9795 G1 X238.57
N9800 G2 X233.691 Y214.357 I0 J5.067
N9805 G1 X226.187 Y241.113
N9810 G2 X226.035 Y241.956 I4.361 J1.223
N9815 G2 X225.999 Y242.812 I10.168 J0.856
N9820 G3 X225.066 Y243.745 I-0.933 J0
N9825 G1 X214.868
N9830 G3 X213.936 Y242.812 I0 J-0.933
N9835 G3 X214.034 Y241.84 I4.839 J0
N9840 G2 X214.133 Y240.868 I-4.74 J-0.972
N9845 G1 Y215.622
N9850 G2 X209.066 Y210.555 I-5.067 J0
N9855 G1 X186.867
N9860 G2 X181.988 Y214.254 I0 J5.067
N9865 G1 X174.304 Y241.655
N9870 G2 X174.097 Y242.888 I5.646 J1.583
N9875 G3 X173.187 Y243.745 I-0.91 J-0.055
N9880 G1 X163.242
N9885 G3 X162.31 Y242.812 I0 J-0.933
N9890 G2 X162.308 Y242.407 I-60.296 J0
N9895 G3 X162.392 Y242.01 I0.948 J-0.006
N9900 G2 X162.841 Y239.926 I-4.619 J-2.085
N9905 G1 Y180.082
N9910 G2 X162.392 Y177.997 I-5.067 J0
N9915 G3 X162.281 Y177.341 I1.201 J-0.542
N9920 G2 X162.31 Y176.675 I-7.61 J-0.665
N9925 G3 X163.242 Y175.743 I0.933 J0
N9930 G1 X173.187
N9935 G3 X173.828 Y175.953 I0 J1.082
N9940 G2 X174.409 Y176.297 I1.995 J-2.708
N9945 G3 X174.922 Y176.916 I-0.392 J0.846
N9950 G1 X181.953 Y204.835
N9955 G2 X186.867 Y208.664 I4.914 J-1.238
N9960 G1 X209.066
N9965 G2 X214.133 Y203.597 I0 J-5.067
N9970 G1 Y179.139
N9975 G2 X213.966 Y177.851 I-5.067 J0
N9980 G3 X213.913 Y177.264 I1.716 J-0.451
N9985 G2 X213.936 Y176.675 I-7.69 J-0.589
N9990 G3 X214.868 Y175.743 I0.933 J0
N9995 G1 X225.066
N10000 G3 X225.999 Y176.675 I0 J0.933
N10005 G2 X226.021 Y177.754 I26.731 J0
N10010 G2 X226.191 Y178.82 I4.587 J-0.185
N10015 G1 X233.859 Y205.803
N10020 G2 X235.756 Y208.139 I4.657 J-1.844
N10025 G2 X238.638 Y209.005 I2.882 J-4.365
N10030 G1 X245.771
N10035 G2 X250.839 Y203.938 I0 J-5.067
N10040 G1 Y176.864
N10045 G3 X251.771 Y175.932 I0.933 J0
N10050 G1 X255.858
N10055 G2 X256.605 Y175.837 I0 J-3
N10060 G3 X257.352 Y175.743 I0.747 J2.905
N10065 G1 X273.272
N10070 G3 X274.019 Y175.837 I0 J3
N10075 G2 X274.767 Y175.932 I0.747 J-2.905
N10080 G1 X278.723
N10085 G3 X279.655 Y176.864 I0 J0.933
N10090 G1 Y242.595
N10095 G1 X279.651 Y242.689
N10100 G1 X279.637 Y242.781
N10105 G2 X279.962 Y245.829 I4.965 J1.012
N10110 G1 X281.725 Y249.848
N10115 G2 X283.56 Y253.809 I98.432 J-43.192
N10120 G1 X285.331 Y257.437
N10125 G2 X287.294 Y261.263 I97.248 J-47.471
N10130 G1 X289.153 Y264.716
N10135 G2 X291.208 Y268.359 I92.369 J-49.727
N10140 G1 X293.255 Y271.821
N10145 G2 X295.473 Y275.408 I89.805 J-53.068
N10150 G1 X297.641 Y278.759
N10155 G2 X300.017 Y282.276 I88.542 J-57.273
N10160 G1 X302.287 Y285.493
N10165 G2 X304.773 Y288.87 I85.525 J-60.339
N10170 G1 X307.207 Y292.043
N10175 G2 X309.843 Y295.34 I83.732 J-64.249
N10180 G1 X312.404 Y298.414
N10185 G2 X315.175 Y301.611 I82.139 J-68.415
N10190 G1 X317.861 Y304.588
N10195 G2 X320.767 Y307.684 I80.74 J-72.849
N10200 G2 X324.096 Y311.021 I152.141 J-148.449
N10205 G1 X325.595 Y312.491
N10210 G3 X326.352 Y313.756 I-2.039 J2.08
N10215 G3 X326.525 Y314.504 I-6.595 J1.921
N10220 G2 X326.672 Y315.258 I18.938 J-3.283
N10225 G3 X327.07 Y317.811 I-22.237 J4.777
N10230 G3 X326.99 Y320.393 I-10.008 J0.983
N10235 G3 X326.5 Y321.958 I-5.661 J-0.912
N10240 G3 X325.492 Y323.252 I-3.467 J-1.661
N10245 G3 X323.235 Y324.458 I-4.047 J-4.864
N10250 G3 X320.736 Y325.012 I-5.3 J-17.974
N10255 G3 X319.581 Y325.178 I-11.217 J-74.194
N10260 G3 X318.419 Y325.28 I-1.683 J-12.437
N10265 G3 X317.006 Y324.966 I-0.117 J-2.807
N10270 G3 X315.207 Y323.985 I24.072 J-46.277
N10275 G2 X313.422 Y322.979 I-84.894 J148.637
N10280 G3 X303.806 Y317.233 I85.878 J-154.628
N10285 G3 X295.715 Y311.709 I93.141 J-145.099
N10290 G3 X287.046 Y304.981 I99.881 J-137.659
N10295 G3 X285.626 Y303.784 I73.237 J-88.323
N10300 G2 X284.213 Y302.579 I-223.968 J261.376
N10305 G2 X277.243 Y302.975 I-3.276 J3.866
N10310 G1 X271.211 Y309.395
N10315 G3 X269.893 Y309.436 I-0.68 J-0.639
N10320 G1 X241.271 Y282.543
N10325 G3 X241.199 Y281.259 I0.639 J-0.68
N10330 G1 X250.659 Y270.124
N10335 G3 X251.017 Y269.864 I0.711 J0.604
N10340 G2 X253.147 Y268.249 I-1.959 J-4.796
N10345 G2 X254.649 Y266.038 I-16.334 J-12.709
N10350 G2 X255.527 Y264.117 I-8.844 J-5.205
N10355 G2 X254.994 Y262.245 I-1.625 J-0.549
N10360 G3 X254.28 Y260.433 I1.279 J-1.551
N10365 G1 X254.327 Y260.074
N10370 G2 X254.352 Y259.685 I-2.975 J-0.389
N10375 G1 Y248.581
N10380 G2 X251.562 Y245.588 I-3 J0
N10385 G3 X248.771 Y242.595 I0.21 J-2.993
N10390 G1 Y215.725
N10395 G2 X245.771 Y212.725 I-3 J0
N10400 G1 X238.57
N10405 G2 X235.681 Y214.915 I0 J3
N10410 G1 X228.178 Y241.671
N10415 G2 X228.066 Y242.481 I2.889 J0.81
N10420 G1 Y242.812
N10425 G3 X225.066 Y245.812 I-3 J0
N10430 G1 X214.868
N10435 G3 X211.868 Y242.812 I0 J-3
N10440 G1 Y242.394
N10445 G3 X211.967 Y241.631 I3 J0
N10450 G2 X212.066 Y240.868 I-2.901 J-0.763
N10455 G1 Y215.622
N10460 G2 X209.066 Y212.622 I-3 J0
N10465 G1 X186.867
N10470 G2 X183.979 Y214.812 I0 J3
N10475 G1 X176.294 Y242.213
N10480 G2 X176.185 Y242.918 I2.889 J0.81
N10485 G3 X173.187 Y245.812 I-2.998 J-0.106
N10490 G1 X163.242
N10495 G3 X160.242 Y242.812 I0 J-3
N10500 G1 Y242.394
N10505 G3 X160.508 Y241.16 I3 J0
N10510 G2 X160.774 Y239.926 I-2.734 J-1.234
N10515 G1 Y180.082
N10520 G2 X160.508 Y178.848 I-3 J0
N10525 G3 X160.242 Y177.614 I2.734 J-1.234
N10530 G1 Y176.675
N10535 G3 X163.242 Y173.675 I3 J0
N10540 G1 X173.187
N10545 G3 X174.863 Y174.187 I0 J3
N10550 G2 X175.278 Y174.422 I1.676 J-2.488
N10555 G3 X176.926 Y176.411 I-1.261 J2.722
N10560 G1 X183.958 Y204.33
N10565 G2 X186.867 Y206.597 I2.909 J-0.733
N10570 G1 X209.066
N10575 G2 X212.066 Y203.597 I0 J-3
N10580 G1 Y179.139
N10585 G2 X211.967 Y178.376 I-3 J0
N10590 G3 X211.868 Y177.614 I2.901 J-0.763
N10595 G1 Y176.675
N10600 G3 X214.868 Y173.675 I3 J0
N10605 G1 X225.066
N10610 G3 X228.066 Y176.675 I0 J3
N10615 G1 Y177.439
N10620 G2 X228.18 Y178.256 I3 J0
N10625 G1 X235.683 Y204.755
N10630 G2 X238.57 Y206.938 I2.887 J-0.817
N10635 G1 X245.771
N10640 G2 X248.771 Y203.938 I0 J-3
N10645 G1 Y176.864
N10650 G3 X251.771 Y173.864 I3 J0
N10655 G1 X255.858
N10660 G2 X256.605 Y173.77 I0 J-3
N10665 G3 X257.352 Y173.675 I0.747 J2.905
N10670 G1 X273.272
N10675 G3 X274.019 Y173.77 I0 J3
N10680 G2 X274.767 Y173.864 I0.747 J-2.905
N10685 G1 X278.723
N10690 G3 X281.723 Y176.864 I0 J3
N10695 G1 Y242.595
N10700 G3 X281.662 Y243.194 I-3 J0
N10705 G2 X281.855 Y244.999 I2.94 J0.599
N10710 G1 X283.649 Y249.087
N10715 G1 X283.675 Y249.144
N10720 G1 X285.392 Y252.849
N10725 G1 X285.418 Y252.903
N10730 G1 X287.204 Y256.562
N10735 G1 X287.231 Y256.616
N10740 G1 X289.087 Y260.231
N10745 G1 X289.114 Y260.283
N10750 G1 X290.952 Y263.697
N10755 G1 X290.981 Y263.749
N10760 G1 X292.958 Y267.254
N10765 G1 X292.988 Y267.307
N10770 G1 X295.033 Y270.767
N10775 G1 X295.064 Y270.819
N10780 G1 X297.177 Y274.234
N10785 G1 X297.209 Y274.285
N10790 G1 X299.39 Y277.656
N10795 G1 X299.423 Y277.707
N10800 G1 X301.673 Y281.035
N10805 G1 X301.707 Y281.084
N10810 G1 X303.966 Y284.287
N10815 G1 X304.001 Y284.336
N10820 G1 X306.377 Y287.564
N10825 G1 X306.413 Y287.612
N10830 G1 X308.853 Y290.792
N10835 G1 X308.89 Y290.839
N10840 G1 X311.394 Y293.97
N10845 G1 X311.432 Y294.017
N10850 G1 X314 Y297.1
N10855 G1 X314.039 Y297.146
N10860 G1 X316.671 Y300.182
N10865 G1 X316.71 Y300.226
N10870 G1 X319.406 Y303.214
N10875 G1 X319.446 Y303.257
N10880 G1 X322.206 Y306.198
N10885 G1 X322.246 Y306.24
N10890 G1 X325.07 Y309.134
N10895 G1 X325.093 Y309.157
N10900 G1 X325.497 Y309.563
N10905 G1 X325.521 Y309.586
N10910 G1 X327.933 Y311.951
N10915 G1 X328.334 Y313.328
N10920 G1 X328.693 Y314.824
N10925 G1 X328.909 Y315.962
N10930 G1 X329.076 Y317.187
N10935 G1 X329.158 Y318.318
N10940 G1 X329.161 Y319.387
N10945 G1 X329.132 Y319.897
N10950 G1 X329.033 Y320.722
N10955 G1 X328.884 Y321.454
N10960 G1 X328.687 Y322.12
N10965 G1 X328.437 Y322.741
N10970 G1 X328.202 Y323.198
N10975 G1 X327.89 Y323.691
N10980 G1 X327.629 Y324.031
N10985 G1 X327.242 Y324.455
N10990 G1 X326.816 Y324.843
N10995 G1 X326.325 Y325.216
N11000 G1 X325.945 Y325.462
N11005 G1 X325.317 Y325.808
N11010 G1 X324.643 Y326.114
N11015 G1 X323.912 Y326.387
N11020 G1 X323.07 Y326.641
N11025 G1 X322.087 Y326.873
N11030 G1 X321.045 Y327.057
N11035 G1 X319.946 Y327.195
N11040 G1 X318.791 Y327.289
N11045 G1 X317.582 Y327.339
N11050 G1 X317.193 Y327.342
N11055 G1 X315.772 Y326.603
N11060 G1 X312.419 Y324.787
N11065 G1 X309.124 Y322.911
N11070 G1 X305.881 Y320.973
N11075 G1 X302.689 Y318.973
N11080 G1 X299.544 Y316.906
N11085 G1 X297.533 Y315.533
N11090 G1 X294.501 Y313.382
N11095 G1 X291.526 Y311.174
N11100 G1 X288.601 Y308.904
N11105 G1 X285.726 Y306.572
N11110 G1 X282.876 Y304.157
N11115 G2 X278.75 Y304.391 I-1.94 J2.289
N11120 G1 X272.718 Y310.811
N11125 G3 X268.477 Y310.943 I-2.186 J-2.054
N11130 G1 X239.855 Y284.049
N11135 G3 X239.623 Y279.921 I2.054 J-2.186
N11140 G1 X249.084 Y268.785
N11145 G3 X250.236 Y267.95 I2.286 J1.942
N11150 G2 X251.394 Y267.109 I-1.134 J-2.777
N11155 G1 X251.686 Y266.762
N11160 G1 X251.755 Y266.677
N11165 G1 X251.822 Y266.589
N11170 G1 X252.29 Y265.943
N11175 G2 X252.447 Y265.703 I-2.428 J-1.762
N11180 G1 X252.868 Y264.989
N11185 G2 X253.001 Y264.735 I-2.585 J-1.522
N11190 G1 X253.354 Y263.978
N11195 G1 X253.438 Y263.779
N11200 G1 X253.602 Y263.349
N11205 G1 X253.67 Y263.151
N11210 G1 X253.922 Y262.317
N11215 G2 X253.986 Y262.069 I-2.871 J-0.87
N11220 G1 X254.17 Y261.203
N11225 G1 X254.192 Y261.087
N11230 G1 X254.209 Y260.97
N11235 G1 X254.28 Y260.433
N11240 G3 X254.781 Y260.253 I0.297 J0.039
N11245 G1 X274.385 Y278.49
N11250 G1 X274.425 Y278.536
N11255 G1 X274.455 Y278.59
N11260 G1 X274.474 Y278.648
N11265 G1 X274.48 Y278.71
N11270 G3 X268.78 Y278.704 Z-6.313 I-2.85 J-0.003 F333.3
N11275 G3 X274.48 Y278.71 Z-6.625 I2.85 J0.003
N11280 G3 X268.78 Y278.704 Z-6.938 I-2.85 J-0.003
N11285 G3 X274.48 Y278.71 Z-7.251 I2.85 J0.003
N11290 G3 X268.78 Y278.704 Z-7.563 I-2.85 J-0.003
N11295 G3 X274.48 Y278.71 Z-7.876 I2.85 J0.003
N11300 G3 X272.537 Y281.409 Z-8 I-2.85 J-0.003
N11305 G2 X271.951 Y281.613 I8.399 J25.036 F420
N11310 G3 X271.304 Y281.48 I-0.215 J-0.593
N11315 G1 X270.729 Y280.939
N11320 G3 X270.684 Y280.45 I0.254 J-0.27
N11325 G2 X271.397 Y279.463 I-69.236 J-50.806
N11330 G2 X272.08 Y278.455 I-20.732 J-14.766
N11335 G3 X272.406 Y278.465 I0.16 J0.103
N11340 G2 X273.005 Y279.502 I51.742 J-29.185
N11345 G1 X273.73 Y280.728
N11350 G3 X273.59 Y281.08 I-0.206 J0.122
N11355 G2 X272.537 Y281.409 I7.346 J25.366
N11360 G2 X271.675 Y282.839 I0.41 J1.221
N11365 G3 X270.202 Y283.624 I-0.87 J0.143
N11370 G1 X267.565 Y281.146
N11375 G3 X267.538 Y280.679 I0.233 J-0.248
N11380 G2 X269.19 Y278.617 I-39.373 J-33.247
N11385 G2 X270.662 Y276.423 I-17.836 J-13.558
N11390 G2 X272.087 Y273.709 I-27.215 J-16.017
N11395 G3 X272.386 Y273.701 I0.151 J0.071
N11400 G2 X274.579 Y277.628 I130.506 J-70.31
N11405 G2 X276.85 Y281.512 I422.706 J-244.565
N11410 G2 X277.115 Y281.921 I5.081 J-3.002
N11415 G3 X277.384 Y282.327 I-6.372 J4.514
N11420 G3 X277.24 Y282.64 I-0.176 J0.109
N11425 G2 X271.431 Y284.31 I3.696 J23.805
N11430 G3 X270.816 Y284.201 I-0.225 J-0.524
N11435 G1 X270.202 Y283.624
N11440 G2 X266.557 Y283.013 I-2.281 J2.428
N11445 G3 X262.913 Y282.401 I-1.364 J-3.039
N11450 G1 X261.6 Y281.168
N11455 G3 X261.616 Y280.761 I0.185 J-0.196
N11460 G2 X266.941 Y274.66 I-14.418 J-17.959
N11465 G2 X270.225 Y267.258 I-28.225 J-16.952
N11470 G2 X270.753 Y265.066 I-18.659 J-5.656
N11475 G2 X271.1 Y262.838 I-45.794 J-8.266
N11480 G1 X271.112 Y262.799
N11485 G1 X271.135 Y262.766
N11490 G1 X271.168 Y262.741
N11495 G1 X271.206 Y262.728
N11500 G1 X271.247
N11505 G1 X271.286 Y262.741
N11510 G1 X271.319 Y262.765
N11515 G1 X271.343 Y262.799
N11520 G2 X273.674 Y267.494 I352.41 J-172.028
N11525 G2 X276.143 Y272.118 I101.562 J-51.269
N11530 G1 X278.123 Y275.627
N11535 G2 X280.576 Y279.78 I104.102 J-58.719
N11540 G2 X282.709 Y283.15 I167.642 J-103.69
N11545 G1 X284.94 Y286.6
N11550 G3 X284.785 Y286.829 I-0.126 J0.082
N11555 G2 X270.71 Y289.269 I-3.848 J19.616
N11560 G3 X270.157 Y289.208 I-0.236 J-0.397
N11565 G1 X262.913 Y282.401
N11570 G1 X262.85 Y282.332 Z-7.985 F1000
N11575 G1 X262.799 Y282.255 Z-7.971
N11580 G1 X262.764 Y282.179 Z-7.928
N11585 G1 X262.739 Y282.1 Z-7.885
N11590 G1 X262.728 Y282.034 Z-7.819
N11595 G1 X262.723 Y281.968 Z-7.753
N11600 G1 X262.729 Y281.883 Z-7.585
N11605 G1 X262.733 Y281.854 Z-7.4
N11610 G1 Z-4
N11615 G1 X270.658 Y269.574 F420
N11620 G1 Z-7.4 F1000
N11625 G1 X270.657 Y269.567 Z-7.494
N11630 G1 X270.654 Y269.545 Z-7.585
N11635 G1 X270.649 Y269.51 Z-7.672
N11640 G1 X270.643 Y269.461 Z-7.753
N11645 G1 X270.635 Y269.4 Z-7.824
N11650 G1 X270.626 Y269.329 Z-7.885
N11655 G1 X270.615 Y269.25 Z-7.935
N11660 G1 X270.604 Y269.163 Z-7.971
N11665 G1 X270.592 Y269.073 Z-7.993
N11670 G1 X270.58 Y268.979 Z-8
N11675 G1 X266.484 Y237.678 F420
N11680 G2 X266.145 Y237.42 I-0.297 J0.039
N11685 G1 X266.11
N11690 G1 X266.075 Y237.411
N11695 G1 X266.045 Y237.393
N11700 G1 X266.019 Y237.368
N11705 G2 X264.522 Y235.642 I-14.667 J11.212
N11710 G3 X264.233 Y234.936 I0.719 J-0.706
N11715 G1 X264.278 Y215.725
N11720 G2 X264.046 Y212.945 I-16.719 J0
N11725 G2 X263.397 Y210.232 I-20.382 J3.437
N11730 G3 Y209.431 I1.284 J-0.4
N11735 G2 X264.046 Y206.718 I-19.733 J-6.151
N11740 G2 X264.278 Y203.938 I-16.486 J-2.78
N11745 G1 X264.233 Y189.457
N11750 G3 X264.553 Y189.137 I0.319 J0
N11755 G1 X265.941
N11760 G3 X266.261 Y189.457 I0 J0.319
N11765 G1 X266.226 Y209.834
N11770 G1 X266.216 Y215.725
N11775 G1 X266.261 Y237.287
N11780 G1 X266.255 Y237.325
N11785 G1 X266.239 Y237.359
N11790 G1 X266.214 Y237.388
N11795 G1 X266.182 Y237.409
N11800 G1 X266.145 Y237.42
N11805 G3 X264.416 Y237.528 I-1.565 J-11.138
N11810 G3 X262.817 Y236.863 I0.034 J-2.336
N11815 G2 X262.517 Y236.576 I-11.652 J11.919
N11820 G3 X262.165 Y235.769 I0.75 J-0.807
N11825 G1 X262.21 Y215.725
N11830 G2 X261.959 Y212.995 I-14.967 J0
N11835 G2 X261.257 Y210.345 I-17.874 J3.316
N11840 G3 Y209.318 I1.478 J-0.514
N11845 G2 X261.959 Y206.668 I-17.172 J-5.966
N11850 G2 X262.21 Y203.938 I-14.716 J-2.73
N11855 G1 X262.165 Y187.389
N11860 G3 X262.485 Y187.069 I0.319 J0
N11865 G1 X268.01
N11870 G3 X268.329 Y187.389 I0 J0.319
N11875 G1 X268.284 Y241.804
N11880 G2 X268.197 Y243.971 I52.581 J3.193
N11885 G2 X268.331 Y246.136 I13.361 J0.26
N11890 G2 X269.591 Y250.582 I17.221 J-2.48
N11895 G2 X271.483 Y254.797 I170.815 J-74.114
N11900 G1 X273.205 Y258.512
N11905 G2 X275.275 Y262.752 I107.086 J-49.656
N11910 G1 X277.131 Y266.368
N11915 G2 X279.275 Y270.351 I102.13 J-52.414
N11920 G1 X281.255 Y273.861
N11925 G2 X283.635 Y277.888 I100.97 J-56.953
N11930 G1 X285.748 Y281.305
N11935 G2 X288.289 Y285.233 I98.284 J-60.791
N11940 G1 X290.536 Y288.556
N11945 G2 X293.177 Y292.301 I95.005 J-64.22
N11950 G2 X295.891 Y295.934 I260.125 J-191.408
N11955 G2 X298.676 Y299.513 I138.377 J-104.849
N11960 G1 X298.694 Y299.546
N11965 G1 X298.699 Y299.582
N11970 G1 X298.69 Y299.618
N11975 G1 X298.669 Y299.649
N11980 G1 X298.639 Y299.67
N11985 G1 X298.603 Y299.679
N11990 G1 X298.566 Y299.675
N11995 G1 X298.533 Y299.658
N12000 G3 X294.343 Y296.259 I76.68 J-98.813
N12005 G1 X291.565 Y293.905
N12010 G2 X270.377 Y293.904 I-10.594 J12.499
N12015 G3 X269.889 Y293.891 I-0.236 J-0.281
N12020 G1 X256.467 Y281.279
N12025 G3 X256.441 Y280.812 I0.233 J-0.248
N12030 G1 X257.85 Y279.154
N12035 G3 X258.327 Y278.724 I1.825 J1.551
N12040 G2 X263.627 Y273.194 I-10.391 J-15.262
N12045 G2 X266.783 Y266.215 I-25.022 J-15.52
N12050 G2 X267.308 Y264.034 I-18.432 J-5.587
N12055 G2 X267.652 Y261.818 I-46.344 J-8.327
N12060 G2 X267.791 Y259.685 I-16.3 J-2.133
N12065 G1 Y248.581
N12070 G2 X266.404 Y242.029 I-16.172 J0
N12075 G2 X262.817 Y236.863 I-15.239 J6.753
N12080 G2 X260.717 Y236.346 I-1.488 J1.522
N12085 G3 X258.983 Y235.054 I-0.387 J-1.29
N12090 G1 X259.023 Y215.725
N12095 G2 X258.699 Y212.915 I-12.334 J0
N12100 G2 X257.784 Y210.237 I-13.892 J3.251
N12105 G3 Y209.426 I0.888 J-0.406
N12110 G2 X258.699 Y206.748 I-12.977 J-5.929
N12115 G2 X259.023 Y203.938 I-12.009 J-2.811
N12120 G1 X258.978 Y184.202
N12125 G3 X259.298 Y183.882 I0.319 J0
N12130 G1 X271.197
N12135 G3 X271.516 Y184.202 I0 J0.319
N12140 G1 X271.471 Y242.008
N12145 G2 X271.381 Y243.845 I48.657 J3.292
N12150 G2 X271.485 Y245.682 I10.651 J0.318
N12155 G2 X272.618 Y249.538 I13.982 J-2.013
N12160 G3 X274.261 Y253.207 I-243.404 J111.195
N12165 G2 X276.172 Y257.331 I102.477 J-44.967
N12170 G1 X277.992 Y261.059
N12175 G2 X280.07 Y265.112 I103.005 J-50.281
N12180 G1 X281.925 Y268.557
N12185 G2 X284.185 Y272.561 I101.554 J-54.672
N12190 G1 X286.207 Y275.982
N12195 G2 X288.603 Y279.856 I96.989 J-57.314
N12200 G1 X290.782 Y283.225
N12205 G2 X293.316 Y286.974 I94.39 J-61.056
N12210 G1 X295.59 Y290.197
N12215 G2 X298.29 Y293.866 I92.889 J-65.535
N12220 G1 X300.719 Y297.033
N12225 G2 X303.549 Y300.571 I89.868 J-68.957
N12230 G1 X306.123 Y303.662
N12235 G2 X309.091 Y307.085 I87.957 J-73.26
N12240 G1 X311.795 Y310.082
N12245 G2 X314.299 Y312.73 I58.04 J-52.368
N12250 G3 X316.854 Y315.329 I-341.706 J338.506
N12255 G1 X316.875 Y315.36
N12260 G1 X316.884 Y315.396
N12265 G1 X316.879 Y315.434
N12270 G1 X316.862 Y315.467
N12275 G1 X316.834 Y315.492
N12280 G1 X316.799 Y315.506
N12285 G1 X316.762 Y315.507
N12290 G1 X316.726 Y315.494
N12295 G3 X294.973 Y300.872 I87.301 J-153.372
N12300 G3 X291.384 Y297.929 I89.166 J-112.38
N12305 G1 X289.504 Y296.336
N12310 G2 X271.282 Y297.374 I-8.565 J10.105
N12315 G2 X270.857 Y297.855 I7.487 J7.035
N12320 G3 X270.433 Y298.336 I-7.912 J-6.554
N12325 G3 X269.981 Y298.351 I-0.233 J-0.219
N12330 G1 X252.076 Y281.526
N12335 G3 X252.05 Y281.058 I0.233 J-0.248
N12340 G1 X255.713 Y276.746
N12345 G3 X256.243 Y276.282 I1.825 J1.551
N12350 G2 X260.01 Y272.749 I-7.715 J-12
N12355 G2 X262.647 Y268.308 I-20.884 J-15.4
N12360 G2 X263.834 Y264.927 I-16.538 J-7.706
N12365 G2 X264.492 Y261.404 I-31.906 J-7.784
N12370 G2 X264.604 Y259.685 I-13.14 J-1.72
N12375 G1 Y248.581
N12380 G2 X263.201 Y242.697 I-13.04 J0
N12385 G2 X259.326 Y238.052 I-11.981 J6.058
N12390 G3 X258.978 Y237.353 I0.529 J-0.699
N12395 G1 X258.983 Y235.054
N12400 G2 X257.344 Y232.585 I-2.671 J-0.006
N12405 G3 X255.705 Y230.116 I1.032 J-2.464
N12410 G1 X255.732 Y215.725
N12415 G2 X255.265 Y212.785 I-9.491 J0
N12420 G2 X253.949 Y210.116 I-9.919 J3.231
N12425 G3 Y209.547 I0.414 J-0.284
N12430 G2 X255.265 Y206.877 I-8.602 J-5.901
N12435 G2 X255.732 Y203.938 I-9.024 J-2.94
N12440 G1 X255.688 Y181.095
N12445 G3 X255.998 Y180.78 I0.315 J0
N12450 G2 X257.635 Y180.62 I-0.14 J-9.915
N12455 G3 X257.951 Y180.592 I0.315 J1.731
N12460 G1 X272.674
N12465 G3 X272.989 Y180.62 I0 J1.759
N12470 G2 X274.496 Y180.777 I1.778 J-9.756
N12475 G3 X274.806 Y181.096 I-0.009 J0.319
N12480 G1 Y242.076
N12485 G3 X274.783 Y242.405 I-2.347 J0
N12490 G2 X275.372 Y247.425 I9.834 J1.391
N12495 G2 X277.36 Y252.072 I78.294 J-30.736
N12500 G1 X279.083 Y255.787
N12505 G2 X281.039 Y259.794 I101.209 J-46.931
N12510 G1 X282.895 Y263.41
N12515 G2 X284.918 Y267.168 I96.366 J-49.456
N12520 G1 X286.898 Y270.678
N12525 G2 X289.145 Y274.48 I95.327 J-53.77
N12530 G1 X291.258 Y277.897
N12535 G2 X293.657 Y281.605 I92.775 J-57.383
N12540 G1 X295.903 Y284.928
N12545 G2 X298.395 Y288.461 I89.638 J-60.592
N12550 G1 X300.766 Y291.683
N12555 G2 X303.454 Y295.186 I88.549 J-65.157
N12560 G1 X305.951 Y298.309
N12565 G2 X308.78 Y301.706 I86.731 J-69.356
N12570 G1 X311.403 Y304.731
N12575 G2 X314.371 Y308.021 I85.113 J-73.802
N12580 G2 X317.482 Y311.315 I527.552 J-495.092
N12585 G2 X320.661 Y314.543 I92.878 J-88.263
N12590 G2 X320.968 Y314.827 I4.683 J-4.777
N12595 G3 X321.275 Y315.11 I-4.376 J5.06
N12600 G3 X321.946 Y316.362 I-1.661 J1.694
N12605 G3 X322.16 Y317.759 I-19.705 J3.734
N12610 G3 X322.244 Y319.169 I-12.332 J1.447
N12615 G3 X321.817 Y319.787 I-0.657 J0.002
N12620 G3 X320.923 Y320.04 I-2.004 J-5.37
N12625 G3 X320.009 Y320.199 I-3.999 J-20.238
N12630 G2 X319.739 Y320.244 I1.624 J10.742
N12635 G3 X319.469 Y320.284 I-0.951 J-5.37
N12640 G3 X318.181 Y320.042 I-0.267 J-2.126
N12645 G3 X309.515 Y315.037 I87.142 J-160.863
N12650 G3 X301.51 Y309.819 I88.209 J-144.1
N12655 G3 X292.927 Y303.451 I100.716 J-144.698
N12660 G3 X290.133 Y301.171 I82.145 J-103.532
N12665 G3 X287.376 Y298.847 I456.96 J-544.72
N12670 G2 X273.677 Y299.625 I-6.44 J7.598
N12675 G2 X272.125 Y301.308 I86.667 J81.434
N12680 G3 X270.573 Y302.992 I-88.219 J-79.75
N12685 G3 X270.131 Y303.006 I-0.228 J-0.214
N12690 G1 X247.537 Y281.777
N12695 G3 X247.511 Y281.318 I0.228 J-0.243
N12700 G1 X253.052 Y274.797
N12705 G3 X254.584 Y273.436 I5.585 J4.745
N12710 G2 X257.574 Y270.527 I-6.243 J-9.408
N12715 G2 X259.663 Y266.918 I-19.252 J-13.553
N12720 G2 X260.673 Y264.007 I-13.721 J-6.393
N12725 G2 X261.228 Y260.977 I-29.4 J-6.95
N12730 G2 X261.313 Y259.685 I-9.876 J-1.292
N12735 G1 Y248.581
N12740 G2 X259.878 Y243.474 I-9.808 J0
N12745 G2 X256.021 Y239.832 I-8.6 J5.245
N12750 G3 X255.688 Y239.276 I0.297 J-0.556
N12755 G1 X255.705 Y230.116
N12760 G1 X255.712 Y230.024 Z-7.985 F1000
N12765 G1 X255.733 Y229.933 Z-7.971
N12770 G1 X255.764 Y229.856 Z-7.928
N12775 G1 X255.806 Y229.783 Z-7.885
N12780 G1 X255.845 Y229.73 Z-7.819
N12785 G1 X255.891 Y229.682 Z-7.753
N12790 G1 X255.956 Y229.627 Z-7.585
N12795 G1 X255.981 Y229.611 Z-7.4
N12800 G1 Z-4
N12805 G1 X256.46 Y209.838 F420
N12810 G1 Z-7.4 F1000
N12815 G1 X256.453 Z-7.494
N12820 G1 X256.431 Y209.837 Z-7.585
N12825 G1 X256.395 Z-7.672
N12830 G1 X256.346 Y209.836 Z-7.753
N12835 G1 X256.285 Z-7.824
N12840 G1 X256.213 Y209.835 Z-7.885
N12845 G1 X256.133 Y209.834 Z-7.935
N12850 G1 X256.046 Y209.833 Z-7.971
N12855 G1 X255.954 Y209.832 Z-7.993
N12860 G1 X255.861 Y209.831 Z-8
N12865 G1 X227.033 Y209.531 F420
N12870 G2 X226.73 Y209.831 I-0.003 J0.3
N12875 G3 X226.641 Y210.235 I-0.964 J0
N12880 G2 X226.224 Y211.186 I26.387 J12.146
N12885 G2 X225.883 Y212.167 I7.85 J3.278
N12890 G1 X222.403 Y224.741
N12895 G1 X222.387 Y224.775
N12900 G1 X222.36 Y224.8
N12905 G1 X222.325 Y224.815
N12910 G1 X222.288 Y224.817
N12915 G1 X222.252 Y224.805
N12920 G1 X222.223 Y224.782
N12925 G1 X222.204 Y224.749
N12930 G1 X222.197 Y224.713
N12935 G1 X222.242 Y215.622
N12940 G2 X221.9 Y212.74 I-12.311 J0
N12945 G2 X220.935 Y210.004 I-13.731 J3.306
N12950 G3 Y209.215 I0.833 J-0.394
N12955 G2 X221.9 Y206.479 I-12.765 J-6.043
N12960 G2 X222.242 Y203.597 I-11.969 J-2.882
N12965 G2 X222.22 Y199.335 I-403.716 J0
N12970 G3 X222.197 Y195.072 I403.693 J-4.262
N12975 G1 X222.204 Y195.036
N12980 G1 X222.223 Y195.003
N12985 G1 X222.252 Y194.98
N12990 G1 X222.288 Y194.968
N12995 G1 X222.325 Y194.97
N13000 G1 X222.36 Y194.984
N13005 G1 X222.387 Y195.01
N13010 G1 X222.404 Y195.044
N13015 G1 X225.892 Y207.528
N13020 G2 X226.23 Y208.493 I8.092 J-2.291
N13025 G2 X226.641 Y209.428 I27.888 J-11.712
N13030 G3 X226.73 Y209.831 I-0.876 J0.403
N13035 G2 X227.757 Y212.378 I3.67 J0
N13040 G3 X228.43 Y215.04 I-1.992 J1.92
N13045 G1 X221.872 Y238.573
N13050 G3 X221.436 Y238.904 I-0.437 J-0.122
N13055 G1 X219.287
N13060 G3 X218.974 Y238.591 I0 J-0.313
N13065 G1 X219.018 Y215.622
N13070 G2 X218.527 Y212.609 I-9.505 J0
N13075 G2 X217.144 Y209.886 I-9.859 J3.296
N13080 G3 Y209.333 I0.39 J-0.277
N13085 G2 X218.527 Y206.611 I-8.476 J-6.018
N13090 G2 X219.018 Y203.597 I-9.015 J-3.014
N13095 G1 X218.974 Y180.896
N13100 G3 X219.287 Y180.583 I0.313 J0
N13105 G1 X221.315
N13110 G3 X221.753 Y180.914 I0 J0.455
N13115 G1 X228.994 Y206.649
N13120 G2 X229.581 Y208.156 I8.2 J-2.322
N13125 G2 X230.403 Y209.548 I10.631 J-5.346
N13130 G3 Y210.115 I-0.413 J0.284
N13135 G2 X229.575 Y211.518 I9.778 J6.717
N13140 G2 X228.988 Y213.038 I7.636 J3.826
N13145 G1 X228.43 Y215.04
N13150 G1 X228.398 Y215.127 Z-7.985 F1000
N13155 G1 X228.353 Y215.208 Z-7.971
N13160 G1 X228.302 Y215.275 Z-7.928
N13165 G1 X228.243 Y215.333 Z-7.885
N13170 G1 X228.19 Y215.374 Z-7.819
N13175 G1 X228.134 Y215.408 Z-7.753
N13180 G1 X228.056 Y215.443 Z-7.585
N13185 G1 X228.028 Y215.452 Z-7.4
N13190 G1 Z-4
N13195 G1 X219.656 Y209.614 F420
N13200 G1 Z-7.4 F1000
N13205 G1 X219.649 Z-7.494
N13210 G1 X219.627 Z-7.585
N13215 G1 X219.591 Y209.613 Z-7.672
N13220 G1 X219.542 Z-7.753
N13225 G1 X219.48 Z-7.824
N13230 G1 X219.409 Y209.612 Z-7.885
N13235 G1 X219.329 Y209.611 Z-7.935
N13240 G1 X219.242 Z-7.971
N13245 G1 X219.15 Y209.61 Z-7.993
N13250 G1 X219.056 Z-8
N13255 G1 X175.501 Y209.31 F420
N13260 G2 X175.199 Y209.61 I-0.002 J0.3
N13265 G3 X175.11 Y210 I-0.906 J0
N13270 G2 X174.648 Y211.028 I21.871 J10.458
N13275 G2 X174.276 Y212.091 I8.233 J3.477
N13280 G1 X171.012 Y223.898
N13285 G1 X170.995 Y223.932
N13290 G1 X170.968 Y223.958
N13295 G1 X170.934 Y223.972
N13300 G1 X170.896 Y223.974
N13305 G1 X170.861 Y223.962
N13310 G1 X170.831 Y223.939
N13315 G1 X170.812 Y223.907
N13320 G1 X170.806 Y223.87
N13325 G1 Y194.017
N13330 G1 X170.812 Y193.98
N13335 G1 X170.831 Y193.948
N13340 G1 X170.861 Y193.925
N13345 G1 X170.896 Y193.914
N13350 G1 X170.933 Y193.916
N13355 G1 X170.967 Y193.931
N13360 G1 X170.994 Y193.958
N13365 G1 X171.009 Y193.991
N13370 G1 X174.186 Y206.791
N13375 G2 X174.588 Y208.028 I9.41 J-2.37
N13380 G2 X175.11 Y209.219 I18.527 J-7.418
N13385 G3 X175.199 Y209.61 I-0.817 J0.391
N13390 G2 X176.193 Y212.139 I3.715 J0
N13395 G3 X176.835 Y214.779 I-2.038 J1.894
N13400 G1 X170.187 Y238.634
N13405 G3 X169.75 Y238.965 I-0.437 J-0.122
N13410 G1 X167.934
N13415 G3 X167.621 Y238.652 I0 J-0.313
N13420 G1 Y180.835
N13425 G3 X167.934 Y180.522 I0.313 J0
N13430 G1 X170.562
N13435 G3 X170.984 Y180.852 I0 J0.436
N13440 G1 X177.276 Y206.013
N13445 G2 X177.914 Y207.749 I8.508 J-2.143
N13450 G2 X178.865 Y209.335 I10.118 J-4.987
N13455 G3 Y209.884 I-0.383 J0.275
N13460 G2 X177.97 Y211.351 I9.384 J6.729
N13465 G2 X177.344 Y212.951 I7.672 J3.927
N13470 G1 X176.835 Y214.779
N13475 G2 X178.18 Y218.907 I3.777 J1.052
N13480 G3 X179.526 Y223.035 I-2.42 J3.072
N13485 G1 X174.304 Y241.655
N13490 G2 X174.097 Y242.888 I5.646 J1.583
N13495 G3 X173.187 Y243.745 I-0.91 J-0.055
N13500 G1 X163.242
N13505 G3 X162.31 Y242.812 I0 J-0.933
N13510 G2 X162.308 Y242.407 I-60.296 J0
N13515 G3 X162.392 Y242.01 I0.948 J-0.006
N13520 G2 X162.841 Y239.926 I-4.619 J-2.085
N13525 G1 Y180.082
N13530 G2 X162.392 Y177.997 I-5.067 J0
N13535 G3 X162.281 Y177.341 I1.201 J-0.542
N13540 G2 X162.31 Y176.675 I-7.61 J-0.665
N13545 G3 X163.242 Y175.743 I0.933 J0
N13550 G1 X173.187
N13555 G3 X173.828 Y175.953 I0 J1.082
N13560 G2 X174.409 Y176.297 I1.995 J-2.708
N13565 G3 X174.922 Y176.916 I-0.392 J0.846
N13570 G1 X181.953 Y204.835
N13575 G2 X186.867 Y208.664 I4.914 J-1.238
N13580 G1 X209.066
N13585 G2 X214.133 Y203.597 I0 J-5.067
N13590 G1 Y179.139
N13595 G2 X213.966 Y177.851 I-5.067 J0
N13600 G3 X213.913 Y177.264 I1.716 J-0.451
N13605 G2 X213.936 Y176.675 I-7.69 J-0.589
N13610 G3 X214.868 Y175.743 I0.933 J0
N13615 G1 X225.066
N13620 G3 X225.999 Y176.675 I0 J0.933
N13625 G2 X226.021 Y177.754 I26.731 J0
N13630 G2 X226.191 Y178.82 I4.587 J-0.185
N13635 G1 X233.859 Y205.803
N13640 G2 X235.756 Y208.139 I4.657 J-1.844
N13645 G2 X238.638 Y209.005 I2.882 J-4.365
N13650 G1 X245.771
N13655 G2 X250.839 Y203.938 I0 J-5.067
N13660 G1 Y176.864
N13665 G3 X251.771 Y175.932 I0.933 J0
N13670 G1 X255.858
N13675 G2 X256.605 Y175.837 I0 J-3
N13680 G3 X257.352 Y175.743 I0.747 J2.905
N13685 G1 X273.272
N13690 G3 X274.019 Y175.837 I0 J3
N13695 G2 X274.767 Y175.932 I0.747 J-2.905
N13700 G1 X278.723
N13705 G3 X279.655 Y176.864 I0 J0.933
N13710 G1 Y242.595
N13715 G1 X279.651 Y242.689
N13720 G1 X279.637 Y242.781
N13725 G2 X279.962 Y245.829 I4.965 J1.012
N13730 G1 X281.725 Y249.848
N13735 G2 X283.56 Y253.809 I98.432 J-43.192
N13740 G1 X285.331 Y257.437
N13745 G2 X287.294 Y261.263 I97.248 J-47.471
N13750 G1 X289.153 Y264.716
N13755 G2 X291.208 Y268.359 I92.369 J-49.727
N13760 G1 X293.255 Y271.821
N13765 G2 X295.473 Y275.408 I89.805 J-53.068
N13770 G1 X297.641 Y278.759
N13775 G2 X300.017 Y282.276 I88.542 J-57.273
N13780 G1 X302.287 Y285.493
N13785 G2 X304.773 Y288.87 I85.525 J-60.339
N13790 G1 X307.207 Y292.043
N13795 G2 X309.843 Y295.34 I83.732 J-64.249
N13800 G1 X312.404 Y298.414
N13805 G2 X315.175 Y301.611 I82.139 J-68.415
N13810 G1 X317.861 Y304.588
N13815 G2 X320.767 Y307.684 I80.74 J-72.849
N13820 G2 X324.096 Y311.021 I152.141 J-148.449
N13825 G1 X325.595 Y312.491
N13830 G3 X326.352 Y313.756 I-2.039 J2.08
N13835 G3 X326.525 Y314.504 I-6.595 J1.921
N13840 G2 X326.672 Y315.258 I18.938 J-3.283
N13845 G3 X327.07 Y317.811 I-22.237 J4.777
N13850 G3 X326.99 Y320.393 I-10.008 J0.983
N13855 G3 X326.5 Y321.958 I-5.661 J-0.912
N13860 G3 X325.492 Y323.252 I-3.467 J-1.661
N13865 G3 X323.235 Y324.458 I-4.047 J-4.864
N13870 G3 X320.736 Y325.012 I-5.3 J-17.974
N13875 G3 X319.581 Y325.178 I-11.217 J-74.194
N13880 G3 X318.419 Y325.28 I-1.683 J-12.437
N13885 G3 X317.006 Y324.966 I-0.117 J-2.807
N13890 G3 X315.207 Y323.985 I24.072 J-46.277
N13895 G2 X313.422 Y322.979 I-84.894 J148.637
N13900 G3 X303.806 Y317.233 I85.878 J-154.628
N13905 G3 X295.715 Y311.709 I93.141 J-145.099
N13910 G3 X287.046 Y304.981 I99.881 J-137.659
N13915 G3 X285.626 Y303.784 I73.237 J-88.323
N13920 G2 X284.213 Y302.579 I-223.968 J261.376
N13925 G2 X277.243 Y302.975 I-3.276 J3.866
N13930 G1 X271.211 Y309.395
N13935 G3 X269.893 Y309.436 I-0.68 J-0.639
N13940 G1 X241.271 Y282.543
N13945 G3 X241.199 Y281.259 I0.639 J-0.68
N13950 G1 X250.659 Y270.124
N13955 G3 X251.017 Y269.864 I0.711 J0.604
N13960 G2 X253.147 Y268.249 I-1.959 J-4.796
N13965 G2 X254.649 Y266.038 I-16.334 J-12.709
N13970 G2 X255.599 Y263.897 I-8.844 J-5.205
N13975 G2 X256.192 Y261.631 I-23.676 J-7.407
N13980 G2 X256.357 Y260.664 I-11.91 J-2.523
N13985 G2 X256.419 Y259.685 I-7.6 J-0.979
N13990 G1 Y248.581
N13995 G2 X251.706 Y243.526 I-5.067 J0
N14000 G3 X250.839 Y242.595 I0.065 J-0.93
N14005 G1 Y215.725
N14010 G2 X245.771 Y210.658 I-5.067 J0
N14015 G1 X238.57
N14020 G2 X233.691 Y214.357 I0 J5.067
N14025 G1 X226.187 Y241.113
N14030 G2 X226.035 Y241.956 I4.361 J1.223
N14035 G2 X225.999 Y242.812 I10.168 J0.856
N14040 G3 X225.066 Y243.745 I-0.933 J0
N14045 G1 X214.868
N14050 G3 X213.936 Y242.812 I0 J-0.933
N14055 G3 X214.034 Y241.84 I4.839 J0
N14060 G2 X214.133 Y240.868 I-4.74 J-0.972
N14065 G1 Y215.622
N14070 G2 X209.066 Y210.555 I-5.067 J0
N14075 G1 X186.867
N14080 G2 X181.988 Y214.254 I0 J5.067
N14085 G1 X179.526 Y223.035
N14090 G2 X180.102 Y224.807 I1.617 J0.454
N14095 G3 X180.679 Y226.579 I-1.041 J1.318
N14100 G1 X176.294 Y242.213
N14105 G2 X176.185 Y242.918 I2.889 J0.81
N14110 G3 X173.187 Y245.812 I-2.998 J-0.106
N14115 G1 X163.242
N14120 G3 X160.242 Y242.812 I0 J-3
N14125 G1 Y242.394
N14130 G3 X160.508 Y241.16 I3 J0
N14135 G2 X160.774 Y239.926 I-2.734 J-1.234
N14140 G1 Y180.082
N14145 G2 X160.508 Y178.848 I-3 J0
N14150 G3 X160.242 Y177.614 I2.734 J-1.234
N14155 G1 Y176.675
N14160 G3 X163.242 Y173.675 I3 J0
N14165 G1 X173.187
N14170 G3 X174.863 Y174.187 I0 J3
N14175 G2 X175.278 Y174.422 I1.676 J-2.488
N14180 G3 X176.926 Y176.411 I-1.261 J2.722
N14185 G1 X183.958 Y204.33
N14190 G2 X186.867 Y206.597 I2.909 J-0.733
N14195 G1 X209.066
N14200 G2 X212.066 Y203.597 I0 J-3
N14205 G1 Y179.139
N14210 G2 X211.967 Y178.376 I-3 J0
N14215 G3 X211.868 Y177.614 I2.901 J-0.763
N14220 G1 Y176.675
N14225 G3 X214.868 Y173.675 I3 J0
N14230 G1 X225.066
N14235 G3 X228.066 Y176.675 I0 J3
N14240 G1 Y177.439
N14245 G2 X228.18 Y178.256 I3 J0
N14250 G1 X235.683 Y204.755
N14255 G2 X238.57 Y206.938 I2.887 J-0.817
N14260 G1 X245.771
N14265 G2 X248.771 Y203.938 I0 J-3
N14270 G1 Y176.864
N14275 G3 X251.771 Y173.864 I3 J0
N14280 G1 X255.858
N14285 G2 X256.605 Y173.77 I0 J-3
N14290 G3 X257.352 Y173.675 I0.747 J2.905
N14295 G1 X273.272
N14300 G3 X274.019 Y173.77 I0 J3
N14305 G2 X274.767 Y173.864 I0.747 J-2.905
N14310 G1 X278.723
N14315 G3 X281.723 Y176.864 I0 J3
N14320 G1 Y242.595
N14325 G3 X281.662 Y243.194 I-3 J0
N14330 G2 X281.855 Y244.999 I2.94 J0.599
N14335 G1 X283.649 Y249.087
N14340 G1 X283.675 Y249.144
N14345 G1 X285.392 Y252.849
N14350 G1 X285.418 Y252.903
N14355 G1 X287.204 Y256.562
N14360 G1 X287.231 Y256.616
N14365 G1 X289.087 Y260.231
N14370 G1 X289.114 Y260.283
N14375 G1 X290.952 Y263.697
N14380 G1 X290.981 Y263.749
N14385 G1 X292.958 Y267.254
N14390 G1 X292.988 Y267.307
N14395 G1 X295.033 Y270.767
N14400 G1 X295.064 Y270.819
N14405 G1 X297.177 Y274.234
N14410 G1 X297.209 Y274.285
N14415 G1 X299.39 Y277.656
N14420 G1 X299.423 Y277.707
N14425 G1 X301.673 Y281.035
N14430 G1 X301.707 Y281.084
N14435 G1 X303.966 Y284.287
N14440 G1 X304.001 Y284.336
N14445 G1 X306.377 Y287.564
N14450 G1 X306.413 Y287.612
N14455 G1 X308.853 Y290.792
N14460 G1 X308.89 Y290.839
N14465 G1 X311.394 Y293.97
N14470 G1 X311.432 Y294.017
N14475 G1 X314 Y297.1
N14480 G1 X314.039 Y297.146
N14485 G1 X316.671 Y300.182
N14490 G1 X316.71 Y300.226
N14495 G1 X319.406 Y303.214
N14500 G1 X319.446 Y303.257
N14505 G1 X322.206 Y306.198
N14510 G1 X322.246 Y306.24
N14515 G1 X325.07 Y309.134
N14520 G1 X325.093 Y309.157
N14525 G1 X325.497 Y309.563
N14530 G1 X325.521 Y309.586
N14535 G1 X327.933 Y311.951
N14540 G1 X328.334 Y313.328
N14545 G1 X328.693 Y314.824
N14550 G1 X328.909 Y315.962
N14555 G1 X329.076 Y317.187
N14560 G1 X329.158 Y318.318
N14565 G1 X329.161 Y319.387
N14570 G1 X329.132 Y319.897
N14575 G1 X329.033 Y320.722
N14580 G1 X328.884 Y321.454
N14585 G1 X328.687 Y322.12
N14590 G1 X328.437 Y322.741
N14595 G1 X328.202 Y323.198
N14600 G1 X327.89 Y323.691
N14605 G1 X327.629 Y324.031
N14610 G1 X327.242 Y324.455
N14615 G1 X326.816 Y324.843
N14620 G1 X326.325 Y325.216
N14625 G1 X325.945 Y325.462
N14630 G1 X325.317 Y325.808
N14635 G1 X324.643 Y326.114
N14640 G1 X323.912 Y326.387
N14645 G1 X323.07 Y326.641
