%
(BottomSlopeParallel)
(BottomSlopeParallel)
(T1 D=6 CR=0 - ZMIN=-9.544 - flat end mill)
N10 G90 G94
N15 G17
N20 G21
N25 G28 G91 Z0
N30 G90

(BottomSlopeParallel)
N35 T1 M6
N40 S14000 M3
N45 G54
N50 G0 X208.593 Y292.031
N55 G0 G43 Z15 H1
N60 G0 Z-2.119
N65 G1 Z-3.571 F1000
N70 G18 G3 X207.994 Z-4.171 I-0.6 K0
N75 G1 X204.391 Z-4.181 F420
N80 G1 X202.63 Z-4.171
N85 G1 X195.747 Z-3.983
N90 G1 X195.715 Y292.033
N95 G1 X195.683 Y292.038 Z-3.984
N100 G1 X195.652 Y292.047 Z-3.987
N105 G1 X195.623 Y292.059 Z-3.991
N110 G1 X195.595 Y292.075 Z-3.996
N115 G1 X195.569 Y292.094 Z-4.002
N120 G1 X195.546 Y292.115 Z-4.009
N125 G1 X195.526 Y292.139 Z-4.018
N130 G1 X195.509 Y292.165 Z-4.027
N135 G1 X195.496 Y292.192 Z-4.037
N140 G1 X195.486 Y292.221 Z-4.048
N145 G1 X195.48 Y292.251 Z-4.059
N150 G1 X195.478 Y292.281 Z-4.07
N155 G1 X195.479 Y292.311 Z-4.081
N160 G1 X195.485 Y292.341 Z-4.093
N165 G1 X195.494 Y292.369 Z-4.104
N170 G1 X195.507 Y292.397 Z-4.115
N175 G1 X195.523 Y292.423 Z-4.125
N180 G1 X195.543 Y292.447 Z-4.134
N185 G1 X195.566 Y292.468 Z-4.143
N190 G1 X195.591 Y292.487 Z-4.151
N195 G1 X195.618 Y292.502 Z-4.157
N200 G1 X195.647 Y292.515 Z-4.163
N205 G1 X195.678 Y292.524 Z-4.167
N210 G1 X195.71 Y292.529 Z-4.17
N215 G1 X195.742 Y292.531 Z-4.171
N220 G1 X197.232 Z-4.212
N225 G1 X200.735 Z-4.284
N230 G1 X204.183 Z-4.317
N235 G1 X207.722 Z-4.309
N240 G1 X211.094 Z-4.264
N245 G1 X215.069 Z-4.171
N250 G1 X219.077 Z-4.038
N255 G1 X219.109 Y292.533 Z-4.037
N260 G1 X219.139 Y292.538 Z-4.038
N265 G1 X219.169 Y292.547 Z-4.039
N270 G1 X219.198 Y292.559 Z-4.041
N275 G1 X219.225 Y292.575 Z-4.045
N280 G1 X219.249 Y292.594 Z-4.049
N285 G1 X219.272 Y292.615 Z-4.054
N290 G1 X219.291 Y292.639 Z-4.059
N295 G1 X219.308 Y292.665 Z-4.066
N300 G1 X219.321 Y292.692 Z-4.073
N305 G1 X219.33 Y292.721 Z-4.08
N310 G1 X219.336 Y292.751 Z-4.088
N315 G1 X219.338 Y292.781 Z-4.096
N320 G1 X219.337 Y292.811 Z-4.104
N325 G1 X219.331 Y292.841 Z-4.112
N330 G1 X219.322 Y292.869 Z-4.12
N335 G1 X219.31 Y292.897 Z-4.128
N340 G1 X219.294 Y292.923 Z-4.135
N345 G1 X219.275 Y292.947 Z-4.142
N350 G1 X219.253 Y292.968 Z-4.149
N355 G1 X219.228 Y292.987 Z-4.155
N360 G1 X219.202 Y293.002 Z-4.16
N365 G1 X219.173 Y293.015 Z-4.164
N370 G1 X219.144 Y293.023 Z-4.167
N375 G1 X219.113 Y293.029 Z-4.17
N380 G1 X219.082 Y293.031 Z-4.171
N385 G1 X214.882 Z-4.311
N390 G1 X211.241 Z-4.398
N395 G1 X207.698 Z-4.446
N400 G1 X204.242 Z-4.453
N405 G1 X200.957 Z-4.424
N410 G1 X197.516 Z-4.355
N415 G1 X193.807 Z-4.241
N420 G1 X191.957 Z-4.171
N425 G1 X188.938 Z-4.039
N430 G1 X188.907 Y293.033 Z-4.038
N435 G1 X188.876 Y293.038
N440 G1 X188.846 Y293.047 Z-4.039
N445 G1 X188.817 Y293.059 Z-4.041
N450 G1 X188.79 Y293.075 Z-4.044
N455 G1 X188.766 Y293.094 Z-4.048
N460 G1 X188.743 Y293.115 Z-4.053
N465 G1 X188.724 Y293.139 Z-4.058
N470 G1 X188.707 Y293.165 Z-4.064
N475 G1 X188.694 Y293.192 Z-4.071
N480 G1 X188.685 Y293.221 Z-4.078
N485 G1 X188.679 Y293.251 Z-4.086
N490 G1 X188.676 Y293.281 Z-4.094
N495 G1 X188.678 Y293.311 Z-4.102
N500 G1 X188.683 Y293.341 Z-4.11
N505 G1 X188.692 Y293.369 Z-4.118
N510 G1 X188.705 Y293.397 Z-4.126
N515 G1 X188.721 Y293.423 Z-4.133
N520 G1 X188.74 Y293.447 Z-4.14
N525 G1 X188.761 Y293.468 Z-4.147
N530 G1 X188.786 Y293.486 Z-4.153
N535 G1 X188.812 Y293.502 Z-4.158
N540 G1 X188.841 Y293.514 Z-4.163
N545 G1 X188.87 Y293.523 Z-4.167
N550 G1 X188.901 Y293.529 Z-4.169
N555 G1 X188.932 Y293.531 Z-4.171
N560 G1 X189.272 Z-4.186
N565 G1 X193.216 Z-4.355
N570 G1 X196.837 Z-4.473
N575 G1 X200.369 Z-4.551
N580 G1 X203.925 Z-4.587
N585 G1 X207.225 Z-4.584
N590 G1 X210.644 Z-4.545
N595 G1 X214.206 Z-4.466
N600 G1 X218.145 Z-4.34
N605 G1 X222.274 Z-4.171
N610 G1 X225.007 Z-4.043
N615 G1 X225.039 Y293.533 Z-4.042
N620 G1 X225.069 Y293.538
N625 G1 X225.099 Y293.547 Z-4.043
N630 G1 X225.128 Y293.559 Z-4.045
N635 G1 X225.154 Y293.575 Z-4.047
N640 G1 X225.179 Y293.594 Z-4.051
N645 G1 X225.201 Y293.615 Z-4.055
N650 G1 X225.221 Y293.639 Z-4.061
N655 G1 X225.237 Y293.665 Z-4.066
N660 G1 X225.25 Y293.692 Z-4.073
N665 G1 X225.26 Y293.721 Z-4.08
N670 G1 X225.266 Y293.751 Z-4.087
N675 G1 X225.268 Y293.781 Z-4.095
N680 G1 X225.267 Y293.811 Z-4.103
N685 G1 X225.262 Y293.841 Z-4.111
N690 G1 X225.253 Y293.869 Z-4.119
N695 G1 X225.24 Y293.897 Z-4.126
N700 G1 X225.224 Y293.923 Z-4.134
N705 G1 X225.205 Y293.946 Z-4.141
N710 G1 X225.184 Y293.968 Z-4.147
N715 G1 X225.159 Y293.986 Z-4.153
N720 G1 X225.133 Y294.002 Z-4.158
N725 G1 X225.105 Y294.014 Z-4.163
N730 G1 X225.075 Y294.023 Z-4.167
N735 G1 X225.045 Y294.029 Z-4.169
N740 G1 X225.013 Y294.031 Z-4.171
N745 G1 X220.584 Z-4.379
N750 G1 X216.561 Z-4.531
N755 G1 X212.598 Z-4.64
N760 G1 X208.857 Z-4.703
N765 G1 X205.391 Z-4.724
N770 G1 X202.111 Z-4.707
N775 G1 X198.693 Z-4.652
N780 G1 X195.101 Z-4.556
N785 G1 X191.19 Z-4.408
N790 G1 X187.008 Z-4.207
N795 G1 X186.31 Z-4.171
N800 G1 X183.941 Z-4.038
N805 G1 X183.91 Y294.033 Z-4.036
N810 G1 X183.879 Y294.038
N815 G1 X183.849 Y294.047 Z-4.037
N820 G1 X183.82 Y294.059 Z-4.039
N825 G1 X183.793 Y294.075 Z-4.041
N830 G1 X183.769 Y294.094 Z-4.045
N835 G1 X183.746 Y294.115 Z-4.049
N840 G1 X183.727 Y294.139 Z-4.054
N845 G1 X183.71 Y294.164 Z-4.06
N850 G1 X183.697 Y294.192 Z-4.067
N855 G1 X183.687 Y294.221 Z-4.074
N860 G1 X183.681 Y294.251 Z-4.082
N865 G1 X183.679 Y294.281 Z-4.09
N870 G1 X183.68 Y294.311 Z-4.098
N875 G1 X183.685 Y294.34 Z-4.106
N880 G1 X183.694 Y294.369 Z-4.114
N885 G1 X183.707 Y294.397 Z-4.123
N890 G1 X183.722 Y294.423 Z-4.13
N895 G1 X183.741 Y294.446 Z-4.138
N900 G1 X183.763 Y294.468 Z-4.145
N905 G1 X183.787 Y294.486 Z-4.151
N910 G1 X183.814 Y294.502 Z-4.157
N915 G1 X183.842 Y294.514 Z-4.162
N920 G1 X183.872 Y294.523 Z-4.166
N925 G1 X183.902 Y294.529 Z-4.169
N930 G1 X183.933 Y294.531 Z-4.171
N935 G1 X185.26 Z-4.246
N940 G1 X189.709 Z-4.476
N945 G1 X193.364 Z-4.629
N950 G1 X197.014 Z-4.745
N955 G1 X200.437 Z-4.818
N960 G1 X203.785 Z-4.853
N965 G1 X207.318 Z-4.85
N970 G1 X210.883 Z-4.807
N975 G1 X214.694 Z-4.72
N980 G1 X218.819 Z-4.585
N985 G1 X222.806 Z-4.415
N990 G1 X227.464 Z-4.171
N995 G1 X229.695 Z-4.044
N1000 G1 X229.727 Y294.532 Z-4.043
N1005 G1 X229.757 Y294.538
N1010 G1 X229.787 Y294.547
N1015 G1 X229.816 Y294.559 Z-4.045
N1020 G1 X229.842 Y294.575 Z-4.047
N1025 G1 X229.867 Y294.594 Z-4.05
N1030 G1 X229.889 Y294.615 Z-4.055
N1035 G1 X229.909 Y294.639 Z-4.06
N1040 G1 X229.925 Y294.664 Z-4.065
N1045 G1 X229.939 Y294.692 Z-4.071
N1050 G1 X229.948 Y294.721 Z-4.078
N1055 G1 X229.954 Y294.75 Z-4.086
N1060 G1 X229.957 Y294.781 Z-4.093
N1065 G1 X229.955 Y294.811 Z-4.101
N1070 G1 X229.95 Y294.84 Z-4.109
N1075 G1 X229.941 Y294.869 Z-4.117
N1080 G1 X229.929 Y294.897 Z-4.124
N1085 G1 X229.913 Y294.923 Z-4.132
N1090 G1 X229.894 Y294.946 Z-4.139
N1095 G1 X229.873 Y294.968 Z-4.146
N1100 G1 X229.848 Y294.986 Z-4.152
N1105 G1 X229.822 Y295.002 Z-4.157
N1110 G1 X229.794 Y295.014 Z-4.162
N1115 G1 X229.764 Y295.023 Z-4.166
N1120 G1 X229.734 Y295.029 Z-4.169
N1125 G1 X229.703 Y295.031 Z-4.171
N1130 G1 X225.013 Z-4.438
N1135 G1 X221.206 Z-4.62
N1140 G1 X217.078 Z-4.779
N1145 G1 X212.994 Z-4.896
N1150 G1 X209.513 Z-4.96
N1155 G1 X205.866 Z-4.988
N1160 G1 X202.488 Z-4.976
N1165 G1 X198.978 Z-4.924
N1170 G1 X195.621 Z-4.837
N1175 G1 X191.876 Z-4.703
N1180 G1 X187.908 Z-4.522
N1185 G1 X183.384 Z-4.271
N1190 G1 X181.736 Z-4.171
N1195 G1 X179.677 Z-4.04
N1200 G1 X179.646 Y295.032 Z-4.038
N1205 G1 X179.615 Y295.038
N1210 G1 X179.585 Y295.047
N1215 G1 X179.557 Y295.059 Z-4.04
N1220 G1 X179.53 Y295.075 Z-4.042
N1225 G1 X179.505 Y295.093 Z-4.045
N1230 G1 X179.482 Y295.115 Z-4.05
N1235 G1 X179.463 Y295.139 Z-4.055
N1240 G1 X179.446 Y295.164 Z-4.06
N1245 G1 X179.433 Y295.192 Z-4.067
N1250 G1 X179.423 Y295.221 Z-4.074
N1255 G1 X179.417 Y295.25 Z-4.081
N1260 G1 X179.415 Y295.281 Z-4.089
N1265 G1 X179.416 Y295.311 Z-4.097
N1270 G1 X179.421 Y295.34 Z-4.105
N1275 G1 X179.43 Y295.369 Z-4.113
N1280 G1 X179.442 Y295.397 Z-4.121
N1285 G1 X179.458 Y295.423 Z-4.129
N1290 G1 X179.477 Y295.446 Z-4.137
N1295 G1 X179.499 Y295.468 Z-4.144
N1300 G1 X179.523 Y295.486 Z-4.15
N1305 G1 X179.549 Y295.502 Z-4.156
N1310 G1 X179.577 Y295.514 Z-4.161
N1315 G1 X179.607 Y295.523 Z-4.165
N1320 G1 X179.637 Y295.529 Z-4.169
N1325 G1 X179.669 Y295.531 Z-4.171
N1330 G1 X181.419 Z-4.283
N1335 G1 X185.904 Z-4.549
N1340 G1 X190.14 Z-4.76
N1345 G1 X193.947 Z-4.914
N1350 G1 X197.669 Z-5.024
N1355 G1 X201.218 Z-5.091
N1360 G1 X204.59 Z-5.117
N1365 G1 X208.047 Z-5.106
N1370 G1 X211.476 Z-5.057
N1375 G1 X215.354 Z-4.964
N1380 G1 X219.091 Z-4.838
N1385 G1 X223.248 Z-4.659
N1390 G1 X227.034 Z-4.462
N1395 G1 X231.783 Z-4.171
N1400 G1 X233.729 Z-4.045
N1405 G1 X233.76 Y295.532 Z-4.043
N1410 G1 X233.79 Y295.538
N1415 G1 X233.82 Y295.547
N1420 G1 X233.849 Y295.559 Z-4.044
N1425 G1 X233.876 Y295.575 Z-4.047
N1430 G1 X233.9 Y295.593 Z-4.05
N1435 G1 X233.923 Y295.615 Z-4.054
N1440 G1 X233.942 Y295.639 Z-4.058
N1445 G1 X233.959 Y295.664 Z-4.064
N1450 G1 X233.972 Y295.692 Z-4.07
N1455 G1 X233.982 Y295.721 Z-4.077
N1460 G1 X233.988 Y295.75 Z-4.084
N1465 G1 X233.99 Y295.781 Z-4.091
N1470 G1 X233.989 Y295.811 Z-4.099
N1475 G1 X233.984 Y295.84 Z-4.107
N1480 G1 X233.975 Y295.869 Z-4.115
N1485 G1 X233.962 Y295.897 Z-4.123
N1490 G1 X233.947 Y295.923 Z-4.13
N1495 G1 X233.928 Y295.946 Z-4.137
N1500 G1 X233.906 Y295.968 Z-4.144
N1505 G1 X233.882 Y295.986 Z-4.151
N1510 G1 X233.856 Y296.002 Z-4.156
N1515 G1 X233.828 Y296.014 Z-4.161
N1520 G1 X233.798 Y296.023 Z-4.165
N1525 G1 X233.768 Y296.029 Z-4.169
N1530 G1 X233.737 Y296.031 Z-4.171
N1535 G1 X228.9 Z-4.485
N1540 G1 X224.766 Z-4.715
N1545 G1 X220.46 Z-4.915
N1550 G1 X216.384 Z-5.061
N1555 G1 X212.307 Z-5.17
N1560 G1 X208.808 Z-5.228
N1565 G1 X205.321 Z-5.248
N1570 G1 X201.863 Z-5.229
N1575 G1 X198.27 Z-5.167
N1580 G1 X194.556 Z-5.063
N1585 G1 X190.656 Z-4.914
N1590 G1 X186.351 Z-4.703
N1595 G1 X182.127 Z-4.461
N1600 G1 X177.698 Z-4.171
N1605 G1 X175.823 Z-4.042
N1610 G1 X175.792 Y296.032 Z-4.04
N1615 G1 X175.761 Y296.038
N1620 G1 X175.732 Y296.047
N1625 G1 X175.703 Y296.059 Z-4.041
N1630 G1 X175.676 Y296.075 Z-4.043
N1635 G1 X175.651 Y296.093 Z-4.046
N1640 G1 X175.629 Y296.115 Z-4.05
N1645 G1 X175.609 Y296.138 Z-4.055
N1650 G1 X175.593 Y296.164 Z-4.061
N1655 G1 X175.58 Y296.192 Z-4.067
N1660 G1 X175.57 Y296.221 Z-4.074
N1665 G1 X175.564 Y296.25 Z-4.081
N1670 G1 X175.561 Y296.281 Z-4.089
N1675 G1 X175.563 Y296.311 Z-4.097
N1680 G1 X175.568 Y296.34 Z-4.105
N1685 G1 X175.576 Y296.369 Z-4.113
N1690 G1 X175.589 Y296.397 Z-4.121
N1695 G1 X175.604 Y296.423 Z-4.129
N1700 G1 X175.623 Y296.446 Z-4.136
N1705 G1 X175.645 Y296.468 Z-4.143
N1710 G1 X175.669 Y296.486 Z-4.15
N1715 G1 X175.695 Y296.502 Z-4.156
N1720 G1 X175.723 Y296.514 Z-4.161
N1725 G1 X175.753 Y296.523 Z-4.165
N1730 G1 X175.783 Y296.529 Z-4.169
N1735 G1 X175.814 Y296.53 Z-4.171
N1740 G1 X178.906 Z-4.384
N1745 G1 X183.214 Z-4.657
N1750 G1 X187.792 Z-4.909
N1755 G1 X192.012 Z-5.098
N1760 G1 X195.928 Z-5.235
N1765 G1 X199.5 Z-5.321
N1770 G1 X203.101 Z-5.367
N1775 G1 X206.425 Z-5.373
N1780 G1 X209.943 Z-5.34
N1785 G1 X213.651 Z-5.267
N1790 G1 X217.759 Z-5.144
N1795 G1 X222.003 Z-4.977
N1800 G1 X226.01 Z-4.78
N1805 G1 X230.508 Z-4.518
N1810 G1 X235.584 Z-4.171
N1815 G1 X237.338 Z-4.046
N1820 G1 X237.369 Y296.532 Z-4.044
N1825 G1 X237.4 Y296.538 Z-4.043
N1830 G1 X237.43 Y296.547
N1835 G1 X237.458 Y296.559 Z-4.044
N1840 G1 X237.485 Y296.575 Z-4.046
N1845 G1 X237.51 Y296.593 Z-4.049
N1850 G1 X237.532 Y296.615 Z-4.053
N1855 G1 X237.552 Y296.638 Z-4.058
N1860 G1 X237.568 Y296.664 Z-4.063
N1865 G1 X237.581 Y296.692 Z-4.069
N1870 G1 X237.591 Y296.721 Z-4.075
N1875 G1 X237.597 Y296.75 Z-4.083
N1880 G1 X237.6 Y296.78 Z-4.09
N1885 G1 X237.598 Y296.811 Z-4.098
N1890 G1 X237.593 Y296.84 Z-4.106
N1895 G1 X237.585 Y296.869 Z-4.113
N1900 G1 X237.572 Y296.897 Z-4.121
N1905 G1 X237.557 Y296.922 Z-4.129
N1910 G1 X237.538 Y296.946 Z-4.136
N1915 G1 X237.516 Y296.968 Z-4.143
N1920 G1 X237.492 Y296.986 Z-4.15
N1925 G1 X237.466 Y297.002 Z-4.155
N1930 G1 X237.438 Y297.014 Z-4.161
N1935 G1 X237.409 Y297.023 Z-4.165
N1940 G1 X237.378 Y297.029 Z-4.169
N1945 G1 X237.347 Y297.03 Z-4.171
N1950 G1 X232.307 Z-4.532
N1955 G1 X227.775 Z-4.812
N1960 G1 X224.06 Z-5.009
N1965 G1 X219.722 Z-5.2
N1970 G1 X215.905 Z-5.332
N1975 G1 X211.925 Z-5.431
N1980 G1 X208.273 Z-5.486
N1985 G1 X204.766 Z-5.5
N1990 G1 X201.306 Z-5.475
N1995 G1 X197.834 Z-5.412
N2000 G1 X194.197 Z-5.307
N2005 G1 X190.329 Z-5.155
N2010 G1 X186.008 Z-4.945
N2015 G1 X181.524 Z-4.684
N2020 G1 X177.202 Z-4.4
N2025 G1 X173.991 Z-4.171
N2030 G1 X172.238 Z-4.046
N2035 G1 X172.207 Y297.032 Z-4.045
N2040 G1 X172.177 Y297.038 Z-4.044
N2045 G1 X172.147 Y297.047
N2050 G1 X172.119 Y297.059 Z-4.045
N2055 G1 X172.092 Y297.075 Z-4.047
N2060 G1 X172.067 Y297.093 Z-4.05
N2065 G1 X172.045 Y297.115 Z-4.054
N2070 G1 X172.025 Y297.138 Z-4.058
N2075 G1 X172.009 Y297.164 Z-4.064
N2080 G1 X171.995 Y297.192 Z-4.07
N2085 G1 X171.986 Y297.221 Z-4.076
N2090 G1 X171.979 Y297.25 Z-4.083
N2095 G1 X171.977 Y297.28 Z-4.091
N2100 G1 X171.978 Y297.311 Z-4.098
N2105 G1 X171.983 Y297.34 Z-4.106
N2110 G1 X171.992 Y297.369 Z-4.114
N2115 G1 X172.004 Y297.397 Z-4.122
N2120 G1 X172.02 Y297.422 Z-4.129
N2125 G1 X172.039 Y297.446 Z-4.137
N2130 G1 X172.06 Y297.468 Z-4.143
N2135 G1 X172.084 Y297.486 Z-4.15
N2140 G1 X172.111 Y297.502 Z-4.156
N2145 G1 X172.139 Y297.514 Z-4.161
N2150 G1 X172.168 Y297.523 Z-4.165
N2155 G1 X172.199 Y297.529 Z-4.169
N2160 G1 X172.23 Y297.53 Z-4.171
N2165 G1 X172.46 Z-4.187
N2170 G1 X177.826 Z-4.574
N2175 G1 X182.886 Z-4.897
N2180 G1 X187.432 Z-5.145
N2185 G1 X191.373 Z-5.326
N2190 G1 X195.247 Z-5.466
N2195 G1 X198.924 Z-5.562
N2200 G1 X202.408 Z-5.614
N2205 G1 X205.649 Z-5.626
N2210 G1 X209.085 Z-5.603
N2215 G1 X212.758 Z-5.539
N2220 G1 X216.75 Z-5.431
N2225 G1 X220.939 Z-5.278
N2230 G1 X225.337 Z-5.072
N2235 G1 X229.449 Z-4.843
N2240 G1 X234.023 Z-4.545
N2245 G1 X239.035 Z-4.171
N2250 G1 X240.653 Z-4.046
N2255 G1 X240.684 Y297.532 Z-4.044
N2260 G1 X240.715 Y297.538 Z-4.043
N2265 G1 X240.744 Y297.547
N2270 G1 X240.773 Y297.559 Z-4.044
N2275 G1 X240.8 Y297.575 Z-4.046
N2280 G1 X240.825 Y297.593 Z-4.049
N2285 G1 X240.847 Y297.615 Z-4.052
N2290 G1 X240.867 Y297.638 Z-4.057
N2295 G1 X240.883 Y297.664 Z-4.062
N2300 G1 X240.896 Y297.692 Z-4.068
N2305 G1 X240.906 Y297.721 Z-4.074
N2310 G1 X240.912 Y297.75 Z-4.081
N2315 G1 X240.915 Y297.78 Z-4.089
N2320 G1 X240.913 Y297.811 Z-4.096
N2325 G1 X240.908 Y297.84 Z-4.104
N2330 G1 X240.9 Y297.869 Z-4.112
N2335 G1 X240.888 Y297.897 Z-4.12
N2340 G1 X240.872 Y297.922 Z-4.128
N2345 G1 X240.853 Y297.946 Z-4.135
N2350 G1 X240.832 Y297.967 Z-4.142
N2355 G1 X240.808 Y297.986 Z-4.149
N2360 G1 X240.781 Y298.002 Z-4.155
N2365 G1 X240.753 Y298.014 Z-4.16
N2370 G1 X240.724 Y298.023 Z-4.165
N2375 G1 X240.694 Y298.029 Z-4.168
N2380 G1 X240.663 Y298.03 Z-4.171
N2385 G1 X235.611 Z-4.562
N2390 G1 X230.88 Z-4.883
N2395 G1 X226.475 Z-5.139
N2400 G1 X222.422 Z-5.339
N2405 G1 X218.132 Z-5.509
N2410 G1 X213.975 Z-5.635
N2415 G1 X210.227 Z-5.711
N2420 G1 X206.805 Z-5.746
N2425 G1 X203.376 Z-5.744
N2430 G1 X199.898 Z-5.704
N2435 G1 X196.387 Z-5.625
N2440 G1 X192.538 Z-5.497
N2445 G1 X188.395 Z-5.319
N2450 G1 X184.156 Z-5.096
N2455 G1 X179.798 Z-4.833
N2460 G1 X174.685 Z-4.484
N2465 G1 X170.513 Z-4.171
N2470 G1 X168.844 Z-4.043
N2475 G1 X168.813 Y298.032 Z-4.041
N2480 G1 X168.783 Y298.038 Z-4.04
N2485 G1 X168.753 Y298.047
N2490 G1 X168.724 Y298.059 Z-4.041
N2495 G1 X168.697 Y298.075 Z-4.043
N2500 G1 X168.673 Y298.093 Z-4.046
N2505 G1 X168.65 Y298.115 Z-4.049
N2510 G1 X168.63 Y298.138 Z-4.054
N2515 G1 X168.614 Y298.164 Z-4.059
N2520 G1 X168.601 Y298.192 Z-4.065
N2525 G1 X168.591 Y298.221 Z-4.072
N2530 G1 X168.585 Y298.25 Z-4.079
N2535 G1 X168.582 Y298.28 Z-4.087
N2540 G1 X168.583 Y298.31 Z-4.095
N2545 G1 X168.588 Y298.34 Z-4.103
N2550 G1 X168.597 Y298.369 Z-4.111
N2555 G1 X168.609 Y298.397 Z-4.119
N2560 G1 X168.625 Y298.422 Z-4.127
N2565 G1 X168.644 Y298.446 Z-4.135
N2570 G1 X168.665 Y298.467 Z-4.142
N2575 G1 X168.689 Y298.486 Z-4.149
N2580 G1 X168.715 Y298.502 Z-4.155
N2585 G1 X168.744 Y298.514 Z-4.16
N2590 G1 X168.773 Y298.523 Z-4.165
N2595 G1 X168.804 Y298.529 Z-4.168
N2600 G1 X168.835 Y298.53 Z-4.171
N2605 G1 X171.815 Z-4.401
N2610 G1 X176.433 Z-4.736
N2615 G1 X180.797 Z-5.023
N2620 G1 X185.537 Z-5.298
N2625 G1 X189.97 Z-5.515
N2630 G1 X193.965 Z-5.672
N2635 G1 X197.775 Z-5.783
N2640 G1 X201.276 Z-5.847
N2645 G1 X204.652 Z-5.871
N2650 G1 X207.932 Z-5.86
N2655 G1 X211.434 Z-5.812
N2660 G1 X215.607 Z-5.713
N2665 G1 X219.404 Z-5.587
N2670 G1 X223.686 Z-5.405
N2675 G1 X227.632 Z-5.202
N2680 G1 X232.349 Z-4.916
N2685 G1 X237.187 Z-4.575
N2690 G1 X242.228 Z-4.171
N2695 G1 X243.739 Z-4.047
N2700 G1 X243.77 Y298.532 Z-4.045
N2705 G1 X243.801 Y298.538 Z-4.044
N2710 G1 X243.83 Y298.547 Z-4.043
N2715 G1 X243.859 Y298.559 Z-4.044
N2720 G1 X243.886 Y298.575 Z-4.046
N2725 G1 X243.911 Y298.593 Z-4.048
N2730 G1 X243.933 Y298.615 Z-4.052
N2735 G1 X243.952 Y298.638 Z-4.056
N2740 G1 X243.969 Y298.664 Z-4.061
N2745 G1 X243.982 Y298.692 Z-4.067
N2750 G1 X243.992 Y298.72 Z-4.074
N2755 G1 X243.998 Y298.75 Z-4.08
N2760 G1 X244.001 Y298.78 Z-4.088
N2765 G1 X244 Y298.81 Z-4.095
N2770 G1 X243.995 Y298.84 Z-4.103
N2775 G1 X243.986 Y298.869 Z-4.111
N2780 G1 X243.974 Y298.896 Z-4.119
N2785 G1 X243.958 Y298.922 Z-4.127
N2790 G1 X243.94 Y298.946 Z-4.134
N2795 G1 X243.918 Y298.967 Z-4.142
N2800 G1 X243.894 Y298.986 Z-4.148
N2805 G1 X243.868 Y299.002 Z-4.154
N2810 G1 X243.84 Y299.014 Z-4.16
N2815 G1 X243.811 Y299.023 Z-4.164
N2820 G1 X243.78 Y299.028 Z-4.168
N2825 G1 X243.749 Y299.03 Z-4.171
N2830 G1 X238.679 Z-4.589
N2835 G1 X233.846 Z-4.943
N2840 G1 X229.006 Z-5.249
N2845 G1 X224.539 Z-5.487
N2850 G1 X220.37 Z-5.672
N2855 G1 X216.126 Z-5.819
N2860 G1 X212.058 Z-5.921
N2865 G1 X208.585 Z-5.976
N2870 G1 X205.087 Z-5.994
N2875 G1 X201.867 Z-5.976
N2880 G1 X198.357 Z-5.918
N2885 G1 X194.557 Z-5.813
N2890 G1 X190.452 Z-5.659
N2895 G1 X186.163 Z-5.454
N2900 G1 X181.722 Z-5.206
N2905 G1 X176.542 Z-4.872
N2910 G1 X171.042 Z-4.473
N2915 G1 X167.193 Z-4.171
N2920 G1 X165.593 Z-4.043
N2925 G1 X165.562 Y299.032 Z-4.041
N2930 G1 X165.532 Y299.038 Z-4.04
N2935 G1 X165.502 Y299.047
N2940 G1 X165.473 Y299.059 Z-4.041
N2945 G1 X165.446 Y299.075 Z-4.043
N2950 G1 X165.422 Y299.093 Z-4.046
N2955 G1 X165.399 Y299.114 Z-4.049
N2960 G1 X165.38 Y299.138 Z-4.054
N2965 G1 X165.363 Y299.164 Z-4.059
N2970 G1 X165.35 Y299.192 Z-4.065
N2975 G1 X165.34 Y299.22 Z-4.072
N2980 G1 X165.334 Y299.25 Z-4.079
N2985 G1 X165.331 Y299.28 Z-4.087
N2990 G1 X165.332 Y299.31 Z-4.095
N2995 G1 X165.337 Y299.34 Z-4.103
N3000 G1 X165.346 Y299.369 Z-4.111
N3005 G1 X165.358 Y299.396 Z-4.119
N3010 G1 X165.374 Y299.422 Z-4.127
N3015 G1 X165.392 Y299.446 Z-4.134
N3020 G1 X165.414 Y299.467 Z-4.141
N3025 G1 X165.438 Y299.486 Z-4.148
N3030 G1 X165.464 Y299.502 Z-4.154
N3035 G1 X165.492 Y299.514 Z-4.16
N3040 G1 X165.522 Y299.523 Z-4.164
N3045 G1 X165.552 Y299.528 Z-4.168
N3050 G1 X165.583 Y299.53 Z-4.171
N3055 G1 X169.019 Z-4.446
N3060 G1 X174.467 Z-4.854
N3065 G1 X179.615 Z-5.2
N3070 G1 X184.043 Z-5.463
N3075 G1 X188.35 Z-5.685
N3080 G1 X192.614 Z-5.866
N3085 G1 X196.443 Z-5.991
N3090 G1 X200.028 Z-6.07
N3095 G1 X203.524 Z-6.108
N3100 G1 X206.83 Z-6.109
N3105 G1 X210.407 Z-6.071
N3110 G1 X214.236 Z-5.992
N3115 G1 X218.219 Z-5.872
N3120 G1 X222.552 Z-5.702
N3125 G1 X226.43 Z-5.514
N3130 G1 X230.869 Z-5.261
N3135 G1 X235.603 Z-4.946
N3140 G1 X240.41 Z-4.58
N3145 G1 X245.222 Z-4.171
N3150 G1 X246.648 Z-4.047
N3155 G1 X246.679 Y299.532 Z-4.045
N3160 G1 X246.709 Y299.538 Z-4.044
N3165 G1 X246.739 Y299.546 Z-4.043
N3170 G1 X246.768 Y299.559 Z-4.044
N3175 G1 X246.794 Y299.574 Z-4.046
N3180 G1 X246.819 Y299.593 Z-4.048
N3185 G1 X246.842 Y299.614 Z-4.051
N3190 G1 X246.861 Y299.638 Z-4.056
N3195 G1 X246.878 Y299.664 Z-4.061
N3200 G1 X246.891 Y299.692 Z-4.066
N3205 G1 X246.901 Y299.72 Z-4.073
N3210 G1 X246.907 Y299.75 Z-4.08
N3215 G1 X246.91 Y299.78 Z-4.087
N3220 G1 X246.908 Y299.81 Z-4.095
N3225 G1 X246.904 Y299.84 Z-4.102
N3230 G1 X246.895 Y299.869 Z-4.11
N3235 G1 X246.883 Y299.896 Z-4.118
N3240 G1 X246.867 Y299.922 Z-4.126
N3245 G1 X246.849 Y299.946 Z-4.134
N3250 G1 X246.827 Y299.967 Z-4.141
N3255 G1 X246.803 Y299.986 Z-4.148
N3260 G1 X246.777 Y300.002 Z-4.154
N3265 G1 X246.749 Y300.014 Z-4.159
N3270 G1 X246.72 Y300.023 Z-4.164
N3275 G1 X246.689 Y300.028 Z-4.168
N3280 G1 X246.658 Y300.03 Z-4.171
N3285 G1 X241.613 Z-4.61
N3290 G1 X236.965 Z-4.972
N3295 G1 X232.267 Z-5.296
N3300 G1 X227.659 Z-5.57
N3305 G1 X223.573 Z-5.776
N3310 G1 X219.185 Z-5.958
N3315 G1 X215.231 Z-6.084
N3320 G1 X211.27 Z-6.174
N3325 G1 X207.642 Z-6.222
N3330 G1 X204.376 Z-6.231
N3335 G1 X200.984 Z-6.203
N3340 G1 X197.38 Z-6.134
N3345 G1 X193.49 Z-6.018
N3350 G1 X189.486 Z-5.857
N3355 G1 X184.902 Z-5.633
N3360 G1 X179.736 Z-5.331
N3365 G1 X174.458 Z-4.979
N3370 G1 X168.848 Z-4.562
N3375 G1 X164.002 Z-4.171
N3380 G1 X162.456 Z-4.043
N3385 G1 X162.425 Y300.032 Z-4.041
N3390 G1 X162.394 Y300.037 Z-4.04
N3395 G1 X162.364 Y300.046
N3400 G1 X162.336 Y300.059 Z-4.041
N3405 G1 X162.309 Y300.074 Z-4.043
N3410 G1 X162.284 Y300.093 Z-4.045
N3415 G1 X162.261 Y300.114 Z-4.049
N3420 G1 X162.242 Y300.138 Z-4.054
N3425 G1 X162.225 Y300.164 Z-4.059
N3430 G1 X162.212 Y300.192 Z-4.065
N3435 G1 X162.202 Y300.22 Z-4.071
N3440 G1 X162.196 Y300.25 Z-4.078
N3445 G1 X162.193 Y300.28 Z-4.086
N3450 G1 X162.194 Y300.31 Z-4.094
N3455 G1 X162.199 Y300.34 Z-4.102
N3460 G1 X162.208 Y300.369 Z-4.11
N3465 G1 X162.22 Y300.396 Z-4.118
N3470 G1 X162.236 Y300.422 Z-4.126
N3475 G1 X162.254 Y300.446 Z-4.134
N3480 G1 X162.276 Y300.467 Z-4.141
N3485 G1 X162.3 Y300.486 Z-4.148
N3490 G1 X162.326 Y300.502 Z-4.154
N3495 G1 X162.354 Y300.514 Z-4.159
N3500 G1 X162.384 Y300.523 Z-4.164
N3505 G1 X162.414 Y300.528 Z-4.168
N3510 G1 X162.445 Y300.53 Z-4.171
N3515 G1 X165.432 Z-4.418
N3520 G1 X171.025 Z-4.856
N3525 G1 X176.736 Z-5.26
N3530 G1 X182.229 Z-5.603
N3535 G1 X186.9 Z-5.855
N3540 G1 X191.076 Z-6.044
N3545 G1 X195.25 Z-6.193
N3550 G1 X198.885 Z-6.286
N3555 G1 X202.12 Z-6.335
N3560 G1 X205.385 Z-6.349
N3565 G1 X208.604 Z-6.331
N3570 G1 X212.104 Z-6.276
N3575 G1 X216.205 Z-6.174
N3580 G1 X220.492 Z-6.027
N3585 G1 X224.588 Z-5.848
N3590 G1 X229.02 Z-5.615
N3595 G1 X233.808 Z-5.318
N3600 G1 X238.426 Z-4.988
N3605 G1 X243.019 Z-4.62
N3610 G1 X248.059 Z-4.171
N3615 G1 X249.415 Z-4.048
N3620 G1 X249.446 Y300.532 Z-4.046
N3625 G1 X249.477 Y300.537 Z-4.044
N3630 G1 X249.507 Y300.546
N3635 G1 X249.535 Y300.559
N3640 G1 X249.562 Y300.574 Z-4.046
N3645 G1 X249.587 Y300.593 Z-4.048
N3650 G1 X249.609 Y300.614 Z-4.051
N3655 G1 X249.629 Y300.638 Z-4.055
N3660 G1 X249.645 Y300.664 Z-4.06
N3665 G1 X249.659 Y300.691 Z-4.066
N3670 G1 X249.668 Y300.72 Z-4.072
N3675 G1 X249.675 Y300.75 Z-4.079
N3680 G1 X249.677 Y300.78 Z-4.086
N3685 G1 X249.676 Y300.81 Z-4.094
N3690 G1 X249.671 Y300.84 Z-4.102
N3695 G1 X249.663 Y300.869 Z-4.11
N3700 G1 X249.65 Y300.896 Z-4.118
N3705 G1 X249.635 Y300.922 Z-4.125
N3710 G1 X249.617 Y300.946 Z-4.133
N3715 G1 X249.595 Y300.967 Z-4.14
N3720 G1 X249.571 Y300.986 Z-4.147
N3725 G1 X249.545 Y301.001 Z-4.153
N3730 G1 X249.517 Y301.014 Z-4.159
N3735 G1 X249.488 Y301.023 Z-4.164
N3740 G1 X249.457 Y301.028 Z-4.168
N3745 G1 X249.426 Y301.03 Z-4.171
N3750 G1 X244.402 Z-4.628
N3755 G1 X239.854 Z-5.002
N3760 G1 X235.302 Z-5.338
N3765 G1 X230.478 Z-5.65
N3770 G1 X225.755 Z-5.909
N3775 G1 X221.639 Z-6.098
N3780 G1 X217.235 Z-6.259
N3785 G1 X213.504 Z-6.362
N3790 G1 X209.567 Z-6.434
N3795 G1 X206.208 Z-6.463
N3800 G1 X202.829 Z-6.456
N3805 G1 X199.3 Z-6.41
N3810 G1 X195.499 Z-6.318
N3815 G1 X191.52 Z-6.179
N3820 G1 X186.964 Z-5.977
N3825 G1 X181.915 Z-5.705
N3830 G1 X177.016 Z-5.4
N3835 G1 X172.349 Z-5.077
N3840 G1 X167.524 Z-4.713
N3845 G1 X162.3 Z-4.287
N3850 G1 X160.912 Z-4.171
N3855 G1 X159.408 Z-4.044
N3860 G1 X159.377 Y301.032 Z-4.041
N3865 G1 X159.347 Y301.037 Z-4.04
N3870 G1 X159.317 Y301.046
N3875 G1 X159.288 Y301.059 Z-4.041
N3880 G1 X159.261 Y301.074 Z-4.042
N3885 G1 X159.236 Y301.093 Z-4.045
N3890 G1 X159.214 Y301.114 Z-4.049
N3895 G1 X159.194 Y301.138 Z-4.053
N3900 G1 X159.178 Y301.164 Z-4.058
N3905 G1 X159.164 Y301.191 Z-4.064
N3910 G1 X159.155 Y301.22 Z-4.071
N3915 G1 X159.148 Y301.25 Z-4.078
N3920 G1 X159.146 Y301.28 Z-4.086
N3925 G1 X159.147 Y301.31 Z-4.093
N3930 G1 X159.152 Y301.34 Z-4.101
N3935 G1 X159.161 Y301.369 Z-4.11
N3940 G1 X159.173 Y301.396 Z-4.118
N3945 G1 X159.188 Y301.422 Z-4.126
N3950 G1 X159.207 Y301.446 Z-4.133
N3955 G1 X159.228 Y301.467 Z-4.141
N3960 G1 X159.252 Y301.486 Z-4.147
N3965 G1 X159.279 Y301.501 Z-4.154
N3970 G1 X159.307 Y301.514 Z-4.159
N3975 G1 X159.336 Y301.523 Z-4.164
N3980 G1 X159.367 Y301.528 Z-4.168
N3985 G1 X159.397 Y301.53 Z-4.171
N3990 G1 X161.782 Z-4.374
N3995 G1 X167.047 Z-4.803
N4000 G1 X172.523 Z-5.214
N4005 G1 X177.971 Z-5.583
N4010 G1 X183.048 Z-5.888
N4015 G1 X187.367 Z-6.113
N4020 G1 X191.839 Z-6.308
N4025 G1 X195.811 Z-6.442
N4030 G1 X199.503 Z-6.529
N4035 G1 X203.009 Z-6.573
N4040 G1 X206.509 Z-6.577
N4045 G1 X210.151 Z-6.54
N4050 G1 X214.225 Z-6.459
N4055 G1 X218.429 Z-6.336
N4060 G1 X222.71 Z-6.168
N4065 G1 X227.189 Z-5.954
N4070 G1 X232.038 Z-5.674
N4075 G1 X236.815 Z-5.353
N4080 G1 X241.268 Z-5.014
N4085 G1 X245.775 Z-4.634
N4090 G1 X250.763 Z-4.171
N4095 G1 X252.06 Z-4.049
N4100 G1 X252.091 Y301.532 Z-4.046
N4105 G1 X252.121 Y301.537 Z-4.045
N4110 G1 X252.151 Y301.546 Z-4.044
N4115 G1 X252.179 Y301.559
N4120 G1 X252.206 Y301.574 Z-4.046
N4125 G1 X252.231 Y301.593 Z-4.048
N4130 G1 X252.253 Y301.614 Z-4.051
N4135 G1 X252.273 Y301.638 Z-4.055
N4140 G1 X252.29 Y301.664 Z-4.06
N4145 G1 X252.303 Y301.691 Z-4.065
N4150 G1 X252.313 Y301.72 Z-4.072
N4155 G1 X252.319 Y301.75 Z-4.078
N4160 G1 X252.322 Y301.78 Z-4.086
N4165 G1 X252.321 Y301.81 Z-4.093
N4170 G1 X252.316 Y301.84 Z-4.101
N4175 G1 X252.307 Y301.869 Z-4.109
N4180 G1 X252.295 Y301.896 Z-4.117
N4185 G1 X252.28 Y301.922 Z-4.125
N4190 G1 X252.261 Y301.946 Z-4.132
N4195 G1 X252.24 Y301.967 Z-4.14
N4200 G1 X252.216 Y301.986 Z-4.147
N4205 G1 X252.19 Y302.001 Z-4.153
N4210 G1 X252.162 Y302.014 Z-4.159
N4215 G1 X252.132 Y302.023 Z-4.164
N4220 G1 X252.102 Y302.028 Z-4.168
N4225 G1 X252.071 Y302.03 Z-4.171
N4230 G1 X247.083 Z-4.643
N4235 G1 X242.677 Z-5.023
N4240 G1 X238.27 Z-5.368
N4245 G1 X233.615 Z-5.692
N4250 G1 X228.799 Z-5.984
N4255 G1 X224.163 Z-6.219
N4260 G1 X220.265 Z-6.383
N4265 G1 X215.935 Z-6.527
N4270 G1 X211.786 Z-6.626
N4275 G1 X208.222 Z-6.678
N4280 G1 X204.889 Z-6.693
N4285 G1 X201.678 Z-6.675
N4290 G1 X198.313 Z-6.62
N4295 G1 X194.657 Z-6.521
N4300 G1 X190.521 Z-6.37
N4305 G1 X186.259 Z-6.174
N4310 G1 X181.487 Z-5.916
N4315 G1 X176.163 Z-5.586
N4320 G1 X170.655 Z-5.201
N4325 G1 X165.215 Z-4.784
N4330 G1 X159.906 Z-4.343
N4335 G1 X157.901 Z-4.171
N4340 G1 X156.431 Z-4.044
N4345 G1 X156.4 Y302.032 Z-4.042
N4350 G1 X156.37 Y302.037 Z-4.04
N4355 G1 X156.34 Y302.046
N4360 G1 X156.311 Y302.059 Z-4.041
N4365 G1 X156.284 Y302.074 Z-4.042
N4370 G1 X156.259 Y302.093 Z-4.045
N4375 G1 X156.237 Y302.114 Z-4.049
N4380 G1 X156.217 Y302.138 Z-4.053
N4385 G1 X156.201 Y302.164 Z-4.058
N4390 G1 X156.187 Y302.191 Z-4.064
N4395 G1 X156.177 Y302.22 Z-4.071
N4400 G1 X156.171 Y302.25 Z-4.078
N4405 G1 X156.169 Y302.28 Z-4.085
N4410 G1 X156.17 Y302.31 Z-4.093
N4415 G1 X156.175 Y302.34 Z-4.101
N4420 G1 X156.183 Y302.369 Z-4.109
N4425 G1 X156.196 Y302.396 Z-4.117
N4430 G1 X156.211 Y302.422 Z-4.125
N4435 G1 X156.23 Y302.446 Z-4.133
N4440 G1 X156.251 Y302.467 Z-4.14
N4445 G1 X156.275 Y302.486 Z-4.147
N4450 G1 X156.301 Y302.501 Z-4.153
N4455 G1 X156.329 Y302.514 Z-4.159
N4460 G1 X156.359 Y302.523 Z-4.164
N4465 G1 X156.389 Y302.528 Z-4.168
N4470 G1 X156.42 Y302.53 Z-4.171
N4475 G1 X158.303 Z-4.334
N4480 G1 X163.834 Z-4.799
N4485 G1 X169.745 Z-5.257
N4490 G1 X175.697 Z-5.674
N4495 G1 X181.304 Z-6.022
N4500 G1 X186.597 Z-6.306
N4505 G1 X191.141 Z-6.508
N4510 G1 X195.236 Z-6.653
N4515 G1 X199.036 Z-6.746
N4520 G1 X202.513 Z-6.794
N4525 G1 X205.941 Z-6.804
N4530 G1 X209.56 Z-6.774
N4535 G1 X213.687 Z-6.698
N4540 G1 X217.425 Z-6.595
N4545 G1 X221.706 Z-6.44
N4550 G1 X225.761 Z-6.257
N4555 G1 X230.464 Z-6.005
N4560 G1 X235.168 Z-5.707
N4565 G1 X239.713 Z-5.38
N4570 G1 X244.011 Z-5.035
N4575 G1 X248.327 Z-4.655
N4580 G1 X253.356 Z-4.171
N4585 G1 X254.606 Z-4.049
N4590 G1 X254.637 Y302.532 Z-4.046
N4595 G1 X254.667 Y302.537 Z-4.045
N4600 G1 X254.697 Y302.546 Z-4.044
N4605 G1 X254.725 Y302.559
N4610 G1 X254.752 Y302.574 Z-4.046
N4615 G1 X254.777 Y302.593 Z-4.048
N4620 G1 X254.799 Y302.614 Z-4.051
N4625 G1 X254.819 Y302.638 Z-4.055
N4630 G1 X254.836 Y302.664 Z-4.06
N4635 G1 X254.849 Y302.691 Z-4.065
N4640 G1 X254.859 Y302.72 Z-4.071
N4645 G1 X254.865 Y302.75 Z-4.078
N4650 G1 X254.868 Y302.78 Z-4.085
N4655 G1 X254.867 Y302.81 Z-4.093
N4660 G1 X254.862 Y302.84 Z-4.1
N4665 G1 X254.853 Y302.869 Z-4.108
N4670 G1 X254.841 Y302.896 Z-4.116
N4675 G1 X254.826 Y302.922 Z-4.124
N4680 G1 X254.807 Y302.946 Z-4.132
N4685 G1 X254.786 Y302.967 Z-4.139
N4690 G1 X254.762 Y302.986 Z-4.146
N4695 G1 X254.736 Y303.001 Z-4.153
N4700 G1 X254.708 Y303.014 Z-4.158
N4705 G1 X254.679 Y303.023 Z-4.163
N4710 G1 X254.648 Y303.028 Z-4.168
N4715 G1 X254.618 Y303.03 Z-4.171
N4720 G1 X249.606 Z-4.661
N4725 G1 X245.374 Z-5.042
N4730 G1 X241.143 Z-5.39
N4735 G1 X236.695 Z-5.72
N4740 G1 X232.084 Z-6.023
N4745 G1 X227.192 Z-6.3
N4750 G1 X222.688 Z-6.511
N4755 G1 X218.561 Z-6.67
N4760 G1 X214.33 Z-6.793
N4765 G1 X210.244 Z-6.874
N4770 G1 X206.615 Z-6.913
N4775 G1 X203.356 Z-6.912
N4780 G1 X199.898 Z-6.873
N4785 G1 X196.338 Z-6.795
N4790 G1 X192.346 Z-6.667
N4795 G1 X188.149 Z-6.492
N4800 G1 X183.59 Z-6.265
N4805 G1 X178.142 Z-5.948
N4810 G1 X172.476 Z-5.573
N4815 G1 X166.911 Z-5.165
N4820 G1 X161.732 Z-4.753
N4825 G1 X156.331 Z-4.291
N4830 G1 X154.954 Z-4.171
N4835 G1 X153.513 Z-4.045
N4840 G1 X153.482 Y303.032 Z-4.043
N4845 G1 X153.451 Y303.037 Z-4.042
N4850 G1 X153.421 Y303.046 Z-4.041
N4855 G1 X153.393 Y303.059 Z-4.042
N4860 G1 X153.366 Y303.074 Z-4.044
N4865 G1 X153.341 Y303.093 Z-4.046
N4870 G1 X153.319 Y303.114 Z-4.05
N4875 G1 X153.299 Y303.138 Z-4.054
N4880 G1 X153.282 Y303.164 Z-4.059
N4885 G1 X153.269 Y303.191 Z-4.065
N4890 G1 X153.259 Y303.22 Z-4.071
N4895 G1 X153.253 Y303.25 Z-4.078
N4900 G1 X153.25 Y303.28 Z-4.086
N4905 G1 X153.251 Y303.31 Z-4.094
N4910 G1 X153.256 Y303.34 Z-4.101
N4915 G1 X153.265 Y303.369 Z-4.11
N4920 G1 X153.277 Y303.396 Z-4.118
N4925 G1 X153.293 Y303.422 Z-4.125
N4930 G1 X153.311 Y303.446 Z-4.133
N4935 G1 X153.333 Y303.467 Z-4.14
N4940 G1 X153.357 Y303.486 Z-4.147
N4945 G1 X153.383 Y303.501 Z-4.153
N4950 G1 X153.411 Y303.514 Z-4.159
N4955 G1 X153.44 Y303.523 Z-4.164
N4960 G1 X153.471 Y303.528 Z-4.168
N4965 G1 X153.502 Y303.53 Z-4.171
N4970 G1 X158.829 Z-4.636
N4975 G1 X164.245 Z-5.08
N4980 G1 X169.419 Z-5.474
N4985 G1 X174.367 Z-5.82
N4990 G1 X179.059 Z-6.119
N4995 G1 X183.952 Z-6.397
N5000 G1 X188.99 Z-6.642
N5005 G1 X193.461 Z-6.817
N5010 G1 X197.397 Z-6.933
N5015 G1 X200.802 Z-6.997
N5020 G1 X204.174 Z-7.025
N5025 G1 X207.427 Z-7.016
N5030 G1 X211.366 Z-6.966
N5035 G1 X215.494 Z-6.873
N5040 G1 X219.841 Z-6.735
N5045 G1 X223.899 Z-6.57
N5050 G1 X228.663 Z-6.335
N5055 G1 X233.548 Z-6.047
N5060 G1 X238.136 Z-5.734
N5065 G1 X242.542 Z-5.398
N5070 G1 X246.747 Z-5.045
N5075 G1 X250.93 Z-4.661
N5080 G1 X255.857 Z-4.171
N5085 G1 X257.064 Z-4.049
N5090 G1 X257.094 Y303.532 Z-4.047
N5095 G1 X257.125 Y303.537 Z-4.045
N5100 G1 X257.155 Y303.546 Z-4.044
N5105 G1 X257.183 Y303.559
N5110 G1 X257.21 Y303.574 Z-4.046
N5115 G1 X257.235 Y303.593 Z-4.048
N5120 G1 X257.257 Y303.614 Z-4.051
N5125 G1 X257.277 Y303.638 Z-4.055
N5130 G1 X257.294 Y303.664 Z-4.059
N5135 G1 X257.307 Y303.691 Z-4.065
N5140 G1 X257.317 Y303.72 Z-4.071
N5145 G1 X257.323 Y303.75 Z-4.077
N5150 G1 X257.326 Y303.78 Z-4.085
N5155 G1 X257.325 Y303.81 Z-4.092
N5160 G1 X257.32 Y303.84 Z-4.1
N5165 G1 X257.311 Y303.869 Z-4.108
N5170 G1 X257.299 Y303.896 Z-4.116
N5175 G1 X257.284 Y303.922 Z-4.124
N5180 G1 X257.265 Y303.946 Z-4.131
N5185 G1 X257.244 Y303.967 Z-4.139
N5190 G1 X257.22 Y303.986 Z-4.146
N5195 G1 X257.194 Y304.001 Z-4.152
N5200 G1 X257.166 Y304.014 Z-4.158
N5205 G1 X257.137 Y304.023 Z-4.163
N5210 G1 X257.107 Y304.028 Z-4.168
N5215 G1 X257.076 Y304.03 Z-4.171
N5220 G1 X252.164 Z-4.667
N5225 G1 X248.053 Z-5.05
N5230 G1 X243.865 Z-5.41
N5235 G1 X239.527 Z-5.749
N5240 G1 X235.081 Z-6.061
N5245 G1 X230.303 Z-6.356
N5250 G1 X225.41 Z-6.612
N5255 G1 X220.944 Z-6.803
N5260 G1 X216.546 Z-6.952
N5265 G1 X212.335 Z-7.055
N5270 G1 X208.332 Z-7.116
N5275 G1 X204.845 Z-7.134
N5280 G1 X201.429 Z-7.113
N5285 G1 X197.865 Z-7.052
N5290 G1 X194.163 Z-6.951
N5295 G1 X189.839 Z-6.788
N5300 G1 X185.408 Z-6.583
N5305 G1 X180.14 Z-6.297
N5310 G1 X174.372 Z-5.937
N5315 G1 X168.664 Z-5.538
N5320 G1 X163.317 Z-5.129
N5325 G1 X157.957 Z-4.688
N5330 G1 X152.064 Z-4.171
N5335 G1 X150.648 Z-4.046
N5340 G1 X150.617 Y304.032 Z-4.043
N5345 G1 X150.586 Y304.037 Z-4.042
N5350 G1 X150.556 Y304.046
N5355 G1 X150.528 Y304.058
N5360 G1 X150.501 Y304.074 Z-4.044
N5365 G1 X150.476 Y304.093 Z-4.046
N5370 G1 X150.454 Y304.114 Z-4.05
N5375 G1 X150.434 Y304.138 Z-4.054
N5380 G1 X150.417 Y304.164 Z-4.059
N5385 G1 X150.404 Y304.191 Z-4.065
N5390 G1 X150.394 Y304.22 Z-4.071
N5395 G1 X150.388 Y304.25 Z-4.078
N5400 G1 X150.385 Y304.28 Z-4.086
N5405 G1 X150.387 Y304.31 Z-4.093
N5410 G1 X150.391 Y304.34 Z-4.101
N5415 G1 X150.4 Y304.368 Z-4.109
N5420 G1 X150.412 Y304.396 Z-4.117
N5425 G1 X150.428 Y304.422 Z-4.125
N5430 G1 X150.446 Y304.446 Z-4.133
N5435 G1 X150.468 Y304.467 Z-4.14
N5440 G1 X150.492 Y304.486 Z-4.147
N5445 G1 X150.518 Y304.501 Z-4.153
N5450 G1 X150.546 Y304.514 Z-4.159
N5455 G1 X150.575 Y304.523 Z-4.164
N5460 G1 X150.606 Y304.528 Z-4.168
N5465 G1 X150.637 Y304.53 Z-4.171
N5470 G1 X155.981 Z-4.645
N5475 G1 X161.366 Z-5.095
N5480 G1 X166.451 Z-5.492
N5485 G1 X171.74 Z-5.874
N5490 G1 X177.099 Z-6.225
N5495 G1 X182.03 Z-6.515
N5500 G1 X186.55 Z-6.749
N5505 G1 X191.346 Z-6.959
N5510 G1 X195.589 Z-7.101
N5515 G1 X199.243 Z-7.188
N5520 G1 X202.62 Z-7.233
N5525 G1 X206.018 Z-7.24
N5530 G1 X209.773 Z-7.205
N5535 G1 X213.842 Z-7.129
N5540 G1 X218.185 Z-7.009
N5545 G1 X222.326 Z-6.856
N5550 G1 X227.041 Z-6.642
N5555 G1 X231.899 Z-6.374
N5560 G1 X236.503 Z-6.08
N5565 G1 X240.792 Z-5.77
N5570 G1 X244.969 Z-5.437
N5575 G1 X249.1 Z-5.077
N5580 G1 X253.282 Z-4.682
N5585 G1 X258.276 Z-4.171
N5590 G1 X259.446 Z-4.05
N5595 G1 X259.477 Y304.532 Z-4.047
N5600 G1 X259.508 Y304.537 Z-4.046
N5605 G1 X259.537 Y304.546 Z-4.045
N5610 G1 X259.566 Y304.558
N5615 G1 X259.593 Y304.574 Z-4.046
N5620 G1 X259.617 Y304.593 Z-4.048
N5625 G1 X259.64 Y304.614 Z-4.051
N5630 G1 X259.659 Y304.638 Z-4.054
N5635 G1 X259.676 Y304.664 Z-4.059
N5640 G1 X259.689 Y304.691 Z-4.064
N5645 G1 X259.699 Y304.72 Z-4.07
N5650 G1 X259.706 Y304.75 Z-4.077
N5655 G1 X259.708 Y304.78 Z-4.084
N5660 G1 X259.707 Y304.81 Z-4.092
N5665 G1 X259.702 Y304.84 Z-4.099
N5670 G1 X259.694 Y304.868 Z-4.107
N5675 G1 X259.682 Y304.896 Z-4.115
N5680 G1 X259.667 Y304.922 Z-4.123
N5685 G1 X259.648 Y304.946 Z-4.131
N5690 G1 X259.627 Y304.967 Z-4.138
N5695 G1 X259.603 Y304.986 Z-4.145
N5700 G1 X259.577 Y305.001 Z-4.152
N5705 G1 X259.549 Y305.014 Z-4.158
N5710 G1 X259.52 Y305.022 Z-4.163
N5715 G1 X259.489 Y305.028 Z-4.168
N5720 G1 X259.459 Y305.03 Z-4.171
N5725 G1 X254.467 Z-4.688
N5730 G1 X250.316 Z-5.087
N5735 G1 X246.19 Z-5.452
N5740 G1 X242.059 Z-5.789
N5745 G1 X237.875 Z-6.098
N5750 G1 X233.421 Z-6.393
N5755 G1 X228.677 Z-6.666
N5760 G1 X223.942 Z-6.896
N5765 G1 X219.963 Z-7.054
N5770 G1 X215.57 Z-7.192
N5775 G1 X211.54 Z-7.283
N5780 G1 X207.663 Z-7.334
N5785 G1 X204.336 Z-7.346
N5790 G1 X200.906 Z-7.321
N5795 G1 X197.322 Z-7.255
N5800 G1 X193.466 Z-7.141
N5805 G1 X188.861 Z-6.964
N5810 G1 X183.666 Z-6.713
N5815 G1 X178.408 Z-6.417
N5820 G1 X173.226 Z-6.089
N5825 G1 X167.556 Z-5.693
N5830 G1 X161.174 Z-5.202
N5835 G1 X155.526 Z-4.732
N5840 G1 X149.577 Z-4.203
N5845 G1 X149.219 Z-4.171
N5850 G1 X147.825 Z-4.045
N5855 G1 X147.794 Y305.032 Z-4.042
N5860 G1 X147.763 Y305.037 Z-4.041
N5865 G1 X147.734 Y305.046
N5870 G1 X147.705 Y305.058
N5875 G1 X147.678 Y305.074 Z-4.043
N5880 G1 X147.653 Y305.093 Z-4.045
N5885 G1 X147.631 Y305.114 Z-4.049
N5890 G1 X147.611 Y305.138 Z-4.053
N5895 G1 X147.595 Y305.164 Z-4.058
N5900 G1 X147.581 Y305.191 Z-4.064
N5905 G1 X147.571 Y305.22 Z-4.07
N5910 G1 X147.565 Y305.25 Z-4.077
N5915 G1 X147.562 Y305.28 Z-4.085
N5920 G1 X147.564 Y305.31 Z-4.092
N5925 G1 X147.569 Y305.34 Z-4.1
N5930 G1 X147.577 Y305.368 Z-4.109
N5935 G1 X147.589 Y305.396 Z-4.117
N5940 G1 X147.605 Y305.422 Z-4.125
N5945 G1 X147.623 Y305.446 Z-4.132
N5950 G1 X147.645 Y305.467 Z-4.14
N5955 G1 X147.669 Y305.485 Z-4.147
N5960 G1 X147.695 Y305.501 Z-4.153
N5965 G1 X147.723 Y305.513 Z-4.159
N5970 G1 X147.752 Y305.522 Z-4.164
N5975 G1 X147.783 Y305.528 Z-4.168
N5980 G1 X147.814 Y305.53 Z-4.171
N5985 G1 X151.183 Z-4.477
N5990 G1 X157.58 Z-5.03
N5995 G1 X163.064 Z-5.471
N6000 G1 X168.254 Z-5.859
N6005 G1 X173.764 Z-6.237
N6010 G1 X179.248 Z-6.577
N6015 G1 X184.557 Z-6.866
N6020 G1 X188.912 Z-7.071
N6025 G1 X193.488 Z-7.249
N6030 G1 X197.337 Z-7.359
N6035 G1 X200.927 Z-7.425
N6040 G1 X204.366 Z-7.45
N6045 G1 X207.944 Z-7.435
N6050 G1 X212.148 Z-7.375
N6055 G1 X216.39 Z-7.275
N6060 G1 X220.741 Z-7.131
N6065 G1 X225.267 Z-6.943
N6070 G1 X230.174 Z-6.693
N6075 G1 X234.745 Z-6.419
N6080 G1 X239.041 Z-6.128
N6085 G1 X243.146 Z-5.819
N6090 G1 X247.319 Z-5.473
N6095 G1 X251.481 Z-5.099
N6100 G1 X255.666 Z-4.691
N6105 G1 X260.623 Z-4.171
N6110 G1 X261.76 Z-4.051
N6115 G1 X261.791 Y305.532 Z-4.048
N6120 G1 X261.822 Y305.537 Z-4.046
N6125 G1 X261.851 Y305.546 Z-4.045
N6130 G1 X261.88 Y305.558
N6135 G1 X261.907 Y305.574 Z-4.046
N6140 G1 X261.931 Y305.593 Z-4.048
N6145 G1 X261.954 Y305.614 Z-4.051
N6150 G1 X261.973 Y305.638 Z-4.054
N6155 G1 X261.99 Y305.664 Z-4.059
N6160 G1 X262.003 Y305.691 Z-4.064
N6165 G1 X262.013 Y305.72 Z-4.07
N6170 G1 X262.02 Y305.75 Z-4.077
N6175 G1 X262.022 Y305.78 Z-4.084
N6180 G1 X262.021 Y305.81 Z-4.091
N6185 G1 X262.016 Y305.84 Z-4.099
N6190 G1 X262.008 Y305.868 Z-4.107
N6195 G1 X261.996 Y305.896 Z-4.115
N6200 G1 X261.981 Y305.922 Z-4.123
N6205 G1 X261.962 Y305.945 Z-4.131
N6210 G1 X261.941 Y305.967 Z-4.138
N6215 G1 X261.917 Y305.985 Z-4.145
N6220 G1 X261.891 Y306.001 Z-4.152
N6225 G1 X261.863 Y306.013 Z-4.158
N6230 G1 X261.834 Y306.022 Z-4.163
N6235 G1 X261.804 Y306.028 Z-4.168
N6240 G1 X261.773 Y306.03 Z-4.171
N6245 G1 X256.934 Z-4.685
N6250 G1 X252.783 Z-5.096
N6255 G1 X248.594 Z-5.479
N6260 G1 X244.395 Z-5.833
N6265 G1 X240.22 Z-6.155
N6270 G1 X236.069 Z-6.443
N6275 G1 X231.652 Z-6.717
N6280 G1 X226.749 Z-6.979
N6285 G1 X222.005 Z-7.187
N6290 G1 X218.131 Z-7.326
N6295 G1 X213.815 Z-7.443
N6300 G1 X209.656 Z-7.519
N6305 G1 X206.086 Z-7.552
N6310 G1 X202.8 Z-7.548
N6315 G1 X199.458 Z-7.507
N6320 G1 X195.7 Z-7.42
N6325 G1 X191.493 Z-7.281
N6330 G1 X186.895 Z-7.085
N6335 G1 X182.293 Z-6.855
N6340 G1 X177.129 Z-6.56
N6345 G1 X171.636 Z-6.208
N6350 G1 X166.302 Z-5.832
N6355 G1 X161.131 Z-5.439
N6360 G1 X155.406 Z-4.971
N6365 G1 X148.801 Z-4.389
N6370 G1 X146.415 Z-4.171
N6375 G1 X145.038 Z-4.045
N6380 G1 X145.007 Y306.031 Z-4.042
N6385 G1 X144.976 Y306.037 Z-4.041
N6390 G1 X144.947 Y306.046
N6395 G1 X144.918 Y306.058
N6400 G1 X144.891 Y306.074 Z-4.043
N6405 G1 X144.866 Y306.093 Z-4.045
N6410 G1 X144.844 Y306.114 Z-4.049
N6415 G1 X144.824 Y306.138 Z-4.053
N6420 G1 X144.808 Y306.163 Z-4.058
N6425 G1 X144.794 Y306.191 Z-4.064
N6430 G1 X144.784 Y306.22 Z-4.07
N6435 G1 X144.778 Y306.25 Z-4.077
N6440 G1 X144.775 Y306.28 Z-4.084
N6445 G1 X144.777 Y306.31 Z-4.092
N6450 G1 X144.781 Y306.339 Z-4.1
N6455 G1 X144.79 Y306.368 Z-4.108
N6460 G1 X144.802 Y306.396 Z-4.116
N6465 G1 X144.818 Y306.422 Z-4.124
N6470 G1 X144.836 Y306.445 Z-4.132
N6475 G1 X144.858 Y306.467 Z-4.14
N6480 G1 X144.882 Y306.485 Z-4.147
N6485 G1 X144.908 Y306.501 Z-4.153
N6490 G1 X144.936 Y306.513 Z-4.159
N6495 G1 X144.965 Y306.522 Z-4.164
N6500 G1 X144.996 Y306.528 Z-4.168
N6505 G1 X145.026 Y306.53 Z-4.171
N6510 G1 X146.591 Z-4.315
N6515 G1 X152.727 Z-4.865
N6520 G1 X159.154 Z-5.4
N6525 G1 X164.623 Z-5.823
N6530 G1 X169.954 Z-6.205
N6535 G1 X175.601 Z-6.575
N6540 G1 X181.155 Z-6.899
N6545 G1 X186.24 Z-7.159
N6550 G1 X190.369 Z-7.34
N6555 G1 X194.699 Z-7.494
N6560 G1 X198.334 Z-7.589
N6565 G1 X201.86 Z-7.641
N6570 G1 X205.095 Z-7.655
N6575 G1 X208.822 Z-7.63
N6580 G1 X213.013 Z-7.563
N6585 G1 X217.25 Z-7.455
N6590 G1 X221.801 Z-7.299
N6595 G1 X226.092 Z-7.114
N6600 G1 X230.412 Z-6.894
N6605 G1 X235.216 Z-6.608
N6610 G1 X240.14 Z-6.272
N6615 G1 X245.011 Z-5.898
N6620 G1 X249.554 Z-5.512
N6625 G1 X253.853 Z-5.113
N6630 G1 X257.93 Z-4.705
N6635 G1 X262.907 Z-4.171
N6640 G1 X264.015 Z-4.051
N6645 G1 X264.046 Y306.531 Z-4.048
N6650 G1 X264.077 Y306.537 Z-4.046
N6655 G1 X264.106 Y306.546 Z-4.045
N6660 G1 X264.135 Y306.558
N6665 G1 X264.162 Y306.574 Z-4.046
N6670 G1 X264.187 Y306.592 Z-4.048
N6675 G1 X264.209 Y306.614 Z-4.051
N6680 G1 X264.229 Y306.638 Z-4.054
N6685 G1 X264.245 Y306.663 Z-4.059
N6690 G1 X264.259 Y306.691 Z-4.064
N6695 G1 X264.269 Y306.72 Z-4.07
N6700 G1 X264.275 Y306.749 Z-4.076
N6705 G1 X264.278 Y306.78 Z-4.083
N6710 G1 X264.276 Y306.81 Z-4.091
N6715 G1 X264.272 Y306.839 Z-4.099
N6720 G1 X264.263 Y306.868 Z-4.106
N6725 G1 X264.251 Y306.896 Z-4.114
N6730 G1 X264.236 Y306.922 Z-4.122
N6735 G1 X264.218 Y306.945 Z-4.13
N6740 G1 X264.196 Y306.967 Z-4.138
N6745 G1 X264.172 Y306.985 Z-4.145
N6750 G1 X264.146 Y307.001 Z-4.151
N6755 G1 X264.119 Y307.013 Z-4.157
N6760 G1 X264.089 Y307.022 Z-4.163
N6765 G1 X264.059 Y307.028 Z-4.167
N6770 G1 X264.028 Y307.03 Z-4.171
N6775 G1 X259.072 Z-4.709
N6780 G1 X254.955 Z-5.126
N6785 G1 X250.681 Z-5.527
N6790 G1 X245.993 Z-5.931
N6795 G1 X240.839 Z-6.332
N6800 G1 X235.688 Z-6.685
N6805 G1 X230.661 Z-6.986
N6810 G1 X225.656 Z-7.238
N6815 G1 X221.12 Z-7.426
N6820 G1 X216.782 Z-7.57
N6825 G1 X212.492 Z-7.672
N6830 G1 X208.216 Z-7.736
N6835 G1 X204.688 Z-7.756
N6840 G1 X201.469 Z-7.738
N6845 G1 X197.933 Z-7.681
N6850 G1 X193.999 Z-7.575
N6855 G1 X189.578 Z-7.41
N6860 G1 X184.941 Z-7.2
N6865 G1 X179.469 Z-6.911
N6870 G1 X173.783 Z-6.569
N6875 G1 X168.172 Z-6.193
N6880 G1 X162.967 Z-5.814
N6885 G1 X157.341 Z-5.373
N6890 G1 X150.798 Z-4.82
N6895 G1 X145.099 Z-4.305
N6900 G1 X143.646 Z-4.171
N6905 G1 X142.283 Z-4.045
N6910 G1 X142.252 Y307.031 Z-4.043
N6915 G1 X142.221 Y307.037 Z-4.042
N6920 G1 X142.191 Y307.046 Z-4.041
N6925 G1 X142.163 Y307.058 Z-4.042
N6930 G1 X142.136 Y307.074 Z-4.043
N6935 G1 X142.111 Y307.092 Z-4.046
N6940 G1 X142.089 Y307.114 Z-4.049
N6945 G1 X142.069 Y307.138 Z-4.053
N6950 G1 X142.052 Y307.163 Z-4.058
N6955 G1 X142.039 Y307.191 Z-4.064
N6960 G1 X142.029 Y307.22 Z-4.07
N6965 G1 X142.023 Y307.249 Z-4.077
N6970 G1 X142.02 Y307.28 Z-4.085
N6975 G1 X142.021 Y307.31 Z-4.092
N6980 G1 X142.026 Y307.339 Z-4.1
N6985 G1 X142.035 Y307.368 Z-4.108
N6990 G1 X142.047 Y307.396 Z-4.117
N6995 G1 X142.062 Y307.422 Z-4.125
N7000 G1 X142.081 Y307.445 Z-4.132
N7005 G1 X142.102 Y307.467 Z-4.14
N7010 G1 X142.126 Y307.485 Z-4.147
N7015 G1 X142.153 Y307.501 Z-4.153
N7020 G1 X142.181 Y307.513 Z-4.159
N7025 G1 X142.21 Y307.522 Z-4.164
N7030 G1 X142.24 Y307.528 Z-4.168
N7035 G1 X142.271 Y307.53 Z-4.171
N7040 G1 X148.076 Z-4.704
N7045 G1 X153.737 Z-5.195
N7050 G1 X160.204 Z-5.718
N7055 G1 X165.785 Z-6.136
N7060 G1 X171.094 Z-6.502
N7065 G1 X176.293 Z-6.83
N7070 G1 X181.268 Z-7.114
N7075 G1 X186.068 Z-7.356
N7080 G1 X191.027 Z-7.57
N7085 G1 X195.384 Z-7.716
N7090 G1 X199.125 Z-7.805
N7095 G1 X202.338 Z-7.847
N7100 G1 X205.669 Z-7.853
N7105 G1 X209.546 Z-7.82
N7110 G1 X213.799 Z-7.744
N7115 G1 X218.278 Z-7.624
N7120 G1 X222.198 Z-7.486
N7125 G1 X227.003 Z-7.277
N7130 G1 X232.027 Z-7.013
N7135 G1 X236.77 Z-6.721
N7140 G1 X241.385 Z-6.4
N7145 G1 X246.431 Z-6.008
N7150 G1 X251.532 Z-5.566
N7155 G1 X256.013 Z-5.141
N7160 G1 X260.256 Z-4.706
N7165 G1 X265.135 Z-4.171
N7170 G1 X266.217 Z-4.051
N7175 G1 X266.247 Y307.531 Z-4.048
N7180 G1 X266.278 Y307.537 Z-4.046
N7185 G1 X266.308 Y307.546 Z-4.045
N7190 G1 X266.336 Y307.558
N7195 G1 X266.363 Y307.574 Z-4.046
N7200 G1 X266.388 Y307.592 Z-4.048
N7205 G1 X266.41 Y307.614 Z-4.05
N7210 G1 X266.43 Y307.638 Z-4.054
N7215 G1 X266.446 Y307.663 Z-4.058
N7220 G1 X266.46 Y307.691 Z-4.064
N7225 G1 X266.47 Y307.72 Z-4.07
N7230 G1 X266.476 Y307.749 Z-4.076
N7235 G1 X266.479 Y307.78 Z-4.083
N7240 G1 X266.478 Y307.81 Z-4.09
N7245 G1 X266.473 Y307.839 Z-4.098
N7250 G1 X266.464 Y307.868 Z-4.106
N7255 G1 X266.453 Y307.896 Z-4.114
N7260 G1 X266.437 Y307.922 Z-4.122
N7265 G1 X266.419 Y307.945 Z-4.13
N7270 G1 X266.398 Y307.967 Z-4.137
N7275 G1 X266.374 Y307.985 Z-4.145
N7280 G1 X266.348 Y308.001 Z-4.151
N7285 G1 X266.32 Y308.013 Z-4.157
N7290 G1 X266.291 Y308.022 Z-4.163
N7295 G1 X266.261 Y308.028 Z-4.167
N7300 G1 X266.23 Y308.03 Z-4.171
N7305 G1 X261.319 Z-4.715
N7310 G1 X257.059 Z-5.155
N7315 G1 X252.061 Z-5.634
N7320 G1 X246.947 Z-6.076
N7325 G1 X242.524 Z-6.424
N7330 G1 X238.043 Z-6.742
N7335 G1 X233.436 Z-7.034
N7340 G1 X228.506 Z-7.305
N7345 G1 X223.505 Z-7.534
N7350 G1 X219.031 Z-7.698
N7355 G1 X214.607 Z-7.824
N7360 G1 X210.299 Z-7.906
N7365 G1 X206.321 Z-7.947
N7370 G1 X202.898 Z-7.948
N7375 G1 X199.408 Z-7.908
N7380 G1 X195.774 Z-7.827
N7385 G1 X191.48 Z-7.685
N7390 G1 X186.896 Z-7.496
N7395 G1 X181.35 Z-7.222
N7400 G1 X175.541 Z-6.891
N7405 G1 X169.802 Z-6.524
N7410 G1 X164.501 Z-6.154
N7415 G1 X158.853 Z-5.729
N7420 G1 X152.215 Z-5.188
N7425 G1 X146.431 Z-4.681
N7430 G1 X140.907 Z-4.171
N7435 G1 X139.556 Z-4.045
N7440 G1 X139.525 Y308.031 Z-4.043
N7445 G1 X139.495 Y308.037 Z-4.041
N7450 G1 X139.465 Y308.046
N7455 G1 X139.436 Y308.058
N7460 G1 X139.409 Y308.074 Z-4.043
N7465 G1 X139.385 Y308.092 Z-4.045
N7470 G1 X139.362 Y308.114 Z-4.049
N7475 G1 X139.342 Y308.137 Z-4.053
N7480 G1 X139.326 Y308.163 Z-4.058
N7485 G1 X139.312 Y308.191 Z-4.064
N7490 G1 X139.303 Y308.22 Z-4.07
N7495 G1 X139.296 Y308.249 Z-4.077
N7500 G1 X139.294 Y308.279 Z-4.084
N7505 G1 X139.295 Y308.31 Z-4.092
N7510 G1 X139.3 Y308.339 Z-4.1
N7515 G1 X139.308 Y308.368 Z-4.108
N7520 G1 X139.32 Y308.396 Z-4.116
N7525 G1 X139.336 Y308.422 Z-4.124
N7530 G1 X139.354 Y308.445 Z-4.132
N7535 G1 X139.376 Y308.467 Z-4.139
N7540 G1 X139.4 Y308.485 Z-4.146
N7545 G1 X139.426 Y308.501 Z-4.153
N7550 G1 X139.454 Y308.513 Z-4.159
N7555 G1 X139.483 Y308.522 Z-4.164
N7560 G1 X139.514 Y308.528 Z-4.168
N7565 G1 X139.545 Y308.529 Z-4.171
N7570 G1 X144.078 Z-4.593
N7575 G1 X149.881 Z-5.109
N7580 G1 X156.201 Z-5.635
N7585 G1 X162.508 Z-6.12
N7590 G1 X167.704 Z-6.49
N7595 G1 X173.062 Z-6.842
N7600 G1 X178.561 Z-7.17
N7605 G1 X183.69 Z-7.442
N7610 G1 X188.268 Z-7.655
N7615 G1 X193.054 Z-7.841
N7620 G1 X197.037 Z-7.957
N7625 G1 X200.598 Z-8.023
N7630 G1 X203.993 Z-8.048
N7635 G1 X207.576 Z-8.034
N7640 G1 X211.838 Z-7.977
N7645 G1 X216.282 Z-7.878
N7650 G1 X220.345 Z-7.752
N7655 G1 X225.204 Z-7.561
N7660 G1 X230.213 Z-7.317
N7665 G1 X234.942 Z-7.046
N7670 G1 X239.412 Z-6.755
N7675 G1 X243.83 Z-6.433
N7680 G1 X248.277 Z-6.077
N7685 G1 X253.334 Z-5.631
N7690 G1 X258.267 Z-5.153
N7695 G1 X262.365 Z-4.724
N7700 G1 X267.313 Z-4.171
N7705 G1 X268.37 Z-4.052
N7710 G1 X268.401 Y308.531 Z-4.049
N7715 G1 X268.431 Y308.537 Z-4.047
N7720 G1 X268.461 Y308.546 Z-4.046
N7725 G1 X268.489 Y308.558 Z-4.045
N7730 G1 X268.516 Y308.574 Z-4.046
N7735 G1 X268.541 Y308.592 Z-4.048
N7740 G1 X268.563 Y308.614 Z-4.05
N7745 G1 X268.583 Y308.637 Z-4.054
N7750 G1 X268.6 Y308.663 Z-4.058
N7755 G1 X268.613 Y308.691 Z-4.063
N7760 G1 X268.623 Y308.72 Z-4.069
N7765 G1 X268.629 Y308.749 Z-4.076
N7770 G1 X268.632 Y308.779 Z-4.083
N7775 G1 X268.631 Y308.81 Z-4.09
N7780 G1 X268.626 Y308.839 Z-4.098
N7785 G1 X268.618 Y308.868 Z-4.106
N7790 G1 X268.606 Y308.896 Z-4.114
N7795 G1 X268.591 Y308.921 Z-4.122
N7800 G1 X268.572 Y308.945 Z-4.13
N7805 G1 X268.551 Y308.967 Z-4.137
N7810 G1 X268.527 Y308.985 Z-4.144
N7815 G1 X268.501 Y309.001 Z-4.151
N7820 G1 X268.473 Y309.013 Z-4.157
N7825 G1 X268.444 Y309.022 Z-4.163
N7830 G1 X268.414 Y309.028 Z-4.167
N7835 G1 X268.383 Y309.029 Z-4.171
N7840 G1 X263.534 Z-4.718
N7845 G1 X259.223 Z-5.174
N7850 G1 X254.206 Z-5.664
N7855 G1 X249.405 Z-6.092
N7860 G1 X244.99 Z-6.451
N7865 G1 X240.656 Z-6.773
N7870 G1 X236.296 Z-7.064
N7875 G1 X231.724 Z-7.335
N7880 G1 X226.89 Z-7.582
N7885 G1 X221.872 Z-7.793
N7890 G1 X217.45 Z-7.94
N7895 G1 X212.948 Z-8.052
N7900 G1 X208.946 Z-8.116
N7905 G1 X204.941 Z-8.143
N7910 G1 X201.751 Z-8.132
N7915 G1 X198.543 Z-8.086
N7920 G1 X194.737 Z-7.991
N7925 G1 X190.211 Z-7.834
N7930 G1 X184.782 Z-7.595
N7935 G1 X178.802 Z-7.285
N7940 G1 X172.439 Z-6.908
N7945 G1 X166.579 Z-6.521
N7950 G1 X161.105 Z-6.128
N7955 G1 X154.947 Z-5.651
N7960 G1 X148.597 Z-5.119
N7965 G1 X142.457 Z-4.571
N7970 G1 X138.193 Z-4.171
N7975 G1 X136.855 Z-4.045
N7980 G1 X136.824 Y309.031 Z-4.042
N7985 G1 X136.793 Y309.037 Z-4.041
N7990 G1 X136.764 Y309.046 Z-4.04
N7995 G1 X136.735 Y309.058 Z-4.041
N8000 G1 X136.708 Y309.074 Z-4.042
N8005 G1 X136.683 Y309.092 Z-4.045
N8010 G1 X136.661 Y309.114 Z-4.048
N8015 G1 X136.641 Y309.137 Z-4.052
N8020 G1 X136.624 Y309.163 Z-4.057
N8025 G1 X136.611 Y309.191 Z-4.063
N8030 G1 X136.601 Y309.22 Z-4.069
N8035 G1 X136.595 Y309.249 Z-4.076
N8040 G1 X136.592 Y309.279 Z-4.084
N8045 G1 X136.593 Y309.31 Z-4.092
N8050 G1 X136.598 Y309.339 Z-4.1
N8055 G1 X136.607 Y309.368 Z-4.108
N8060 G1 X136.619 Y309.396 Z-4.116
N8065 G1 X136.634 Y309.421 Z-4.124
N8070 G1 X136.653 Y309.445 Z-4.132
N8075 G1 X136.674 Y309.467 Z-4.139
N8080 G1 X136.698 Y309.485 Z-4.146
N8085 G1 X136.724 Y309.501 Z-4.153
N8090 G1 X136.752 Y309.513 Z-4.158
N8095 G1 X136.782 Y309.522 Z-4.164
N8100 G1 X136.812 Y309.528 Z-4.168
N8105 G1 X136.843 Y309.529 Z-4.171
N8110 G1 X139.423 Z-4.415
N8115 G1 X146.179 Z-5.03
N8120 G1 X151.976 Z-5.524
N8125 G1 X158.518 Z-6.044
N8130 G1 X164.398 Z-6.476
N8135 G1 X169.76 Z-6.84
N8140 G1 X175.566 Z-7.201
N8145 G1 X181.693 Z-7.54
N8150 G1 X187.283 Z-7.807
N8155 G1 X191.216 Z-7.967
N8160 G1 X195.605 Z-8.112
N8165 G1 X199.218 Z-8.193
N8170 G1 X202.686 Z-8.232
N8175 G1 X206.075
N8180 G1 X210.141 Z-8.193
N8185 G1 X214.434 Z-8.114
N8190 G1 X218.902 Z-7.991
N8195 G1 X223.567 Z-7.823
N8200 G1 X228.543 Z-7.6
N8205 G1 X233.172 Z-7.353
N8210 G1 X237.562 Z-7.085
N8215 G1 X241.83 Z-6.793
N8220 G1 X246.089 Z-6.472
N8225 G1 X250.377 Z-6.118
N8230 G1 X255.038 Z-5.699
N8235 G1 X260.115 Z-5.2
N8240 G1 X264.559 Z-4.727
N8245 G1 X269.444 Z-4.171
N8250 G1 X270.48 Z-4.052
N8255 G1 X270.511 Y309.531 Z-4.049
N8260 G1 X270.541 Y309.537 Z-4.047
N8265 G1 X270.571 Y309.546 Z-4.046
N8270 G1 X270.6 Y309.558
N8275 G1 X270.626 Y309.574
N8280 G1 X270.651 Y309.592 Z-4.048
N8285 G1 X270.673 Y309.614 Z-4.05
N8290 G1 X270.693 Y309.637 Z-4.054
N8295 G1 X270.71 Y309.663 Z-4.058
N8300 G1 X270.723 Y309.691 Z-4.063
N8305 G1 X270.733 Y309.72 Z-4.069
N8310 G1 X270.74 Y309.749 Z-4.076
N8315 G1 X270.742 Y309.779 Z-4.083
N8320 G1 X270.741 Y309.81 Z-4.09
N8325 G1 X270.736 Y309.839 Z-4.098
N8330 G1 X270.728 Y309.868 Z-4.105
N8335 G1 X270.716 Y309.896 Z-4.113
N8340 G1 X270.701 Y309.921 Z-4.121
N8345 G1 X270.683 Y309.945 Z-4.129
N8350 G1 X270.661 Y309.966 Z-4.137
N8355 G1 X270.638 Y309.985 Z-4.144
N8360 G1 X270.612 Y310.001 Z-4.151
N8365 G1 X270.584 Y310.013 Z-4.157
N8370 G1 X270.555 Y310.022 Z-4.162
N8375 G1 X270.524 Y310.028 Z-4.167
N8380 G1 X270.494 Y310.029 Z-4.171
N8385 G1 X265.57 Z-4.736
N8390 G1 X261.223 Z-5.203
N8395 G1 X256.168 Z-5.705
N8400 G1 X251.603 Z-6.121
N8405 G1 X247.314 Z-6.481
N8410 G1 X243.014 Z-6.811
N8415 G1 X238.745 Z-7.109
N8420 G1 X234.513 Z-7.374
N8425 G1 X229.99 Z-7.624
N8430 G1 X225.068 Z-7.856
N8435 G1 X220.226 Z-8.041
N8440 G1 X216.143 Z-8.164
N8445 G1 X211.689 Z-8.26
N8450 G1 X207.561 Z-8.314
N8455 G1 X203.89 Z-8.329
N8460 G1 X200.567 Z-8.307
N8465 G1 X196.889 Z-8.239
N8470 G1 X192.999 Z-8.126
N8475 G1 X188.205 Z-7.943
N8480 G1 X182.851 Z-7.695
N8485 G1 X177.405 Z-7.406
N8490 G1 X171.843 Z-7.076
N8495 G1 X165.787 Z-6.68
N8500 G1 X159.249 Z-6.211
N8505 G1 X153.572 Z-5.77
N8510 G1 X146.938 Z-5.217
N8515 G1 X140.931 Z-4.681
N8520 G1 X135.503 Z-4.171
N8525 G1 X134.176 Z-4.046
N8530 G1 X134.145 Y310.031 Z-4.043
N8535 G1 X134.114 Y310.037 Z-4.042
N8540 G1 X134.084 Y310.046 Z-4.041
N8545 G1 X134.056 Y310.058 Z-4.042
N8550 G1 X134.029 Y310.074 Z-4.043
N8555 G1 X134.004 Y310.092 Z-4.046
N8560 G1 X133.981 Y310.114 Z-4.049
N8565 G1 X133.962 Y310.137 Z-4.053
N8570 G1 X133.945 Y310.163 Z-4.058
N8575 G1 X133.932 Y310.191 Z-4.064
N8580 G1 X133.922 Y310.22 Z-4.07
N8585 G1 X133.916 Y310.249 Z-4.077
N8590 G1 X133.913 Y310.279 Z-4.084
N8595 G1 X133.914 Y310.309 Z-4.092
N8600 G1 X133.919 Y310.339 Z-4.1
N8605 G1 X133.928 Y310.368 Z-4.108
N8610 G1 X133.94 Y310.396 Z-4.116
N8615 G1 X133.955 Y310.421 Z-4.124
N8620 G1 X133.974 Y310.445 Z-4.132
N8625 G1 X133.995 Y310.466 Z-4.139
N8630 G1 X134.019 Y310.485 Z-4.146
N8635 G1 X134.045 Y310.501 Z-4.153
N8640 G1 X134.073 Y310.513 Z-4.158
N8645 G1 X134.102 Y310.522 Z-4.164
N8650 G1 X134.133 Y310.527 Z-4.168
N8655 G1 X134.164 Y310.529 Z-4.171
N8660 G1 X135.197 Z-4.269
N8665 G1 X141.403 Z-4.849
N8670 G1 X148.022 Z-5.428
N8675 G1 X153.908 Z-5.911
N8680 G1 X160.55 Z-6.416
N8685 G1 X166.195 Z-6.812
N8690 G1 X171.102 Z-7.131
N8695 G1 X177.105 Z-7.489
N8700 G1 X177.433 Z-7.518
N8705 G1 X177.488 Z-7.517
N8710 G1 X177.541 Z-7.508
N8715 G1 X177.591 Z-7.488
N8720 G1 X177.656 Z-7.465
N8725 G1 X177.723 Z-7.458
N8730 G1 X177.755 Y310.531 Z-7.457
N8735 G1 X177.787 Y310.537 Z-7.455
N8740 G1 X177.818 Y310.546 Z-7.452
N8745 G1 X177.847 Y310.558 Z-7.447
N8750 G1 X177.874 Y310.574 Z-7.442
N8755 G1 X177.9 Y310.592 Z-7.435
N8760 G1 X177.922 Y310.614 Z-7.427
N8765 G1 X177.942 Y310.637 Z-7.419
N8770 G1 X177.959 Y310.663 Z-7.409
N8775 G1 X177.972 Y310.691 Z-7.4
N8780 G1 X177.981 Y310.719 Z-7.389
N8785 G1 X177.987 Y310.749 Z-7.378
N8790 G1 X177.989 Y310.779 Z-7.368
N8795 G1 X177.987 Y310.809 Z-7.357
N8800 G1 X177.981 Y310.839 Z-7.346
N8805 G1 X177.972 Y310.868 Z-7.336
N8810 G1 X177.959 Y310.895 Z-7.326
N8815 G1 X177.942 Y310.921 Z-7.317
N8820 G1 X177.922 Y310.945 Z-7.308
N8825 G1 X177.9 Y310.966 Z-7.3
N8830 G1 X177.874 Y310.985 Z-7.294
N8835 G1 X177.847 Y311.001 Z-7.288
N8840 G1 X177.818 Y311.013 Z-7.284
N8845 G1 X177.787 Y311.022 Z-7.28
N8850 G1 X177.755 Y311.027 Z-7.278
N8855 G1 X177.723 Y311.029
N8860 G1 X172.921
N8865 G1 X172.853 Z-7.285
N8870 G1 X172.789 Z-7.308
N8875 G1 X172.734 Z-7.329
N8880 G1 X172.675 Z-7.338
N8885 G1 X172.616 Z-7.336
N8890 G1 X172.495 Z-7.319
N8895 G1 X165.746 Z-6.886
N8900 G1 X159.964 Z-6.481
N8905 G1 X153.853 Z-6.02
N8910 G1 X147.329 Z-5.487
N8915 G1 X141.477 Z-4.978
N8920 G1 X134.901 Z-4.368
N8925 G1 X132.834 Z-4.171
N8930 G1 X131.517 Z-4.046
N8935 G1 X131.486 Y311.031 Z-4.043
N8940 G1 X131.455 Y311.037 Z-4.042
N8945 G1 X131.425 Y311.046 Z-4.041
N8950 G1 X131.397 Y311.058 Z-4.042
N8955 G1 X131.37 Y311.074 Z-4.043
N8960 G1 X131.345 Y311.092 Z-4.045
N8965 G1 X131.323 Y311.113 Z-4.049
N8970 G1 X131.303 Y311.137 Z-4.053
N8975 G1 X131.286 Y311.163 Z-4.058
N8980 G1 X131.273 Y311.191 Z-4.063
N8985 G1 X131.263 Y311.219 Z-4.07
N8990 G1 X131.257 Y311.249 Z-4.077
N8995 G1 X131.254 Y311.279 Z-4.084
N9000 G1 X131.255 Y311.309 Z-4.092
N9005 G1 X131.26 Y311.339 Z-4.1
N9010 G1 X131.269 Y311.368 Z-4.108
N9015 G1 X131.281 Y311.395 Z-4.116
N9020 G1 X131.296 Y311.421 Z-4.124
N9025 G1 X131.315 Y311.445 Z-4.132
N9030 G1 X131.336 Y311.466 Z-4.139
N9035 G1 X131.36 Y311.485 Z-4.146
N9040 G1 X131.386 Y311.501 Z-4.153
N9045 G1 X131.414 Y311.513 Z-4.158
N9050 G1 X131.444 Y311.522 Z-4.163
N9055 G1 X131.474 Y311.527 Z-4.168
N9060 G1 X131.505 Y311.529 Z-4.171
N9065 G1 X137.769 Z-4.763
N9070 G1 X144.328 Z-5.349
N9075 G1 X150.203 Z-5.841
N9080 G1 X156.709 Z-6.349
N9085 G1 X162.865 Z-6.793
N9090 G1 X168.964 Z-7.199
N9095 G1 X169.085 Z-7.215
N9100 G1 X169.144 Z-7.217
N9105 G1 X169.202 Z-7.208
N9110 G1 X169.257 Z-7.187
N9115 G1 X169.321 Z-7.164
N9120 G1 X169.389 Z-7.156
N9125 G1 X169.419 Y311.531
N9130 G1 X169.449 Y311.536 Z-7.155
N9135 G1 X169.479 Y311.545 Z-7.153
N9140 G1 X169.507 Y311.558 Z-7.151
N9145 G1 X169.533 Y311.573 Z-7.148
N9150 G1 X169.557 Y311.592 Z-7.145
N9155 G1 X169.579 Y311.613 Z-7.141
N9160 G1 X169.598 Y311.637 Z-7.137
N9165 G1 X169.614 Y311.663 Z-7.132
N9170 G1 X169.626 Y311.691 Z-7.127
N9175 G1 X169.635 Y311.719 Z-7.122
N9180 G1 X169.641 Y311.749 Z-7.117
N9185 G1 X169.643 Y311.779 Z-7.111
N9190 G1 X169.641 Y311.809 Z-7.106
N9195 G1 X169.635 Y311.839 Z-7.1
N9200 G1 X169.626 Y311.868 Z-7.095
N9205 G1 X169.614 Y311.895 Z-7.09
N9210 G1 X169.598 Y311.921 Z-7.085
N9215 G1 X169.579 Y311.945 Z-7.081
N9220 G1 X169.557 Y311.966 Z-7.077
N9225 G1 X169.533 Y311.985 Z-7.074
N9230 G1 X169.507 Y312.001 Z-7.071
N9235 G1 X169.479 Y312.013 Z-7.069
N9240 G1 X169.449 Y312.022 Z-7.067
N9245 G1 X169.419 Y312.027 Z-7.066
N9250 G1 X169.389 Y312.029
N9255 G1 X166.482
N9260 G1 X166.414 Z-7.074
N9265 G1 X166.35 Z-7.097
N9270 G1 X166.299 Z-7.116
N9275 G1 X166.246 Z-7.126
N9280 G1 X166.192
N9285 G1 X165.95 Z-7.105
N9290 G1 X158.981 Z-6.624
N9295 G1 X152.774 Z-6.157
N9300 G1 X146.459 Z-5.648
N9305 G1 X140.137 Z-5.1
N9310 G1 X133.637 Z-4.503
N9315 G1 X130.181 Z-4.171
N9320 G1 X128.875 Z-4.045
N9325 G1 X128.844 Y312.031 Z-4.043
N9330 G1 X128.813 Y312.036 Z-4.041
N9335 G1 X128.784 Y312.045
N9340 G1 X128.755 Y312.058
N9345 G1 X128.728 Y312.073 Z-4.043
N9350 G1 X128.703 Y312.092 Z-4.045
N9355 G1 X128.681 Y312.113 Z-4.048
N9360 G1 X128.661 Y312.137 Z-4.052
N9365 G1 X128.645 Y312.163 Z-4.057
N9370 G1 X128.631 Y312.191 Z-4.063
N9375 G1 X128.621 Y312.219 Z-4.069
N9380 G1 X128.615 Y312.249 Z-4.076
N9385 G1 X128.612 Y312.279 Z-4.084
N9390 G1 X128.613 Y312.309 Z-4.091
N9395 G1 X128.618 Y312.339 Z-4.099
N9400 G1 X128.627 Y312.368 Z-4.108
N9405 G1 X128.639 Y312.395 Z-4.116
N9410 G1 X128.654 Y312.421 Z-4.124
N9415 G1 X128.673 Y312.445 Z-4.132
N9420 G1 X128.694 Y312.466 Z-4.139
N9425 G1 X128.718 Y312.485 Z-4.146
N9430 G1 X128.744 Y312.5 Z-4.153
N9435 G1 X128.772 Y312.513 Z-4.158
N9440 G1 X128.802 Y312.522 Z-4.163
N9445 G1 X128.832 Y312.527 Z-4.168
N9450 G1 X128.863 Y312.529 Z-4.171
N9455 G1 X130.953 Z-4.372
N9460 G1 X137.789 Z-5.011
N9465 G1 X143.797 Z-5.538
N9470 G1 X150.528 Z-6.091
N9475 G1 X156.448 Z-6.544
N9480 G1 X163.488 Z-7.042
N9485 G1 X163.697 Z-7.06
N9490 G1 X163.751
N9495 G1 X163.805 Z-7.05
N9500 G1 X163.856 Z-7.031
N9505 G1 X163.92 Z-7.008
N9510 G1 X163.988 Z-7
N9515 G1 X164.018 Y312.531
N9520 G1 X164.048 Y312.536
N9525 G1 X164.077 Y312.545 Z-6.999
N9530 G1 X164.104 Y312.558 Z-6.998
N9535 G1 X164.13 Y312.573 Z-6.996
N9540 G1 X164.154 Y312.592 Z-6.994
N9545 G1 X164.176 Y312.613 Z-6.992
N9550 G1 X164.194 Y312.637 Z-6.99
N9555 G1 X164.21 Y312.663 Z-6.987
N9560 G1 X164.222 Y312.69 Z-6.984
N9565 G1 X164.231 Y312.719 Z-6.982
N9570 G1 X164.237 Y312.749 Z-6.979
N9575 G1 X164.239 Y312.779 Z-6.976
N9580 G1 X164.237 Y312.809 Z-6.973
N9585 G1 X164.231 Y312.839 Z-6.97
N9590 G1 X164.222 Y312.868 Z-6.967
N9595 G1 X164.21 Y312.895 Z-6.964
N9600 G1 X164.194 Y312.921 Z-6.962
N9605 G1 X164.176 Y312.945 Z-6.959
N9610 G1 X164.154 Y312.966 Z-6.957
N9615 G1 X164.13 Y312.985 Z-6.955
N9620 G1 X164.104 Y313 Z-6.954
N9625 G1 X164.077 Y313.013 Z-6.953
N9630 G1 X164.048 Y313.022 Z-6.952
N9635 G1 X164.018 Y313.027 Z-6.951
N9640 G1 X163.988 Y313.029
N9645 G1 X161.776
N9650 G1 X161.708 Z-6.959
N9655 G1 X161.644 Z-6.982
N9660 G1 X161.593 Z-7.001
N9665 G1 X161.539 Z-7.011
N9670 G1 X161.485
N9675 G1 X161.312 Z-6.995
N9680 G1 X154.623 Z-6.515
N9685 G1 X148.763 Z-6.062
N9690 G1 X142.057 Z-5.506
N9695 G1 X136.093 Z-4.979
N9700 G1 X129.486 Z-4.358
N9705 G1 X127.545 Z-4.171
N9710 G1 X126.248 Z-4.046
N9715 G1 X126.217 Y313.031 Z-4.044
N9720 G1 X126.186 Y313.036 Z-4.042
N9725 G1 X126.156 Y313.045
N9730 G1 X126.128 Y313.058
N9735 G1 X126.101 Y313.073 Z-4.043
N9740 G1 X126.076 Y313.092 Z-4.046
N9745 G1 X126.054 Y313.113 Z-4.049
N9750 G1 X126.034 Y313.137 Z-4.053
N9755 G1 X126.017 Y313.163 Z-4.058
N9760 G1 X126.004 Y313.19 Z-4.064
N9765 G1 X125.994 Y313.219 Z-4.07
N9770 G1 X125.988 Y313.249 Z-4.077
N9775 G1 X125.985 Y313.279 Z-4.084
N9780 G1 X125.986 Y313.309 Z-4.092
N9785 G1 X125.991 Y313.339 Z-4.1
N9790 G1 X126 Y313.368 Z-4.108
N9795 G1 X126.012 Y313.395 Z-4.116
N9800 G1 X126.027 Y313.421 Z-4.124
N9805 G1 X126.046 Y313.445 Z-4.132
N9810 G1 X126.067 Y313.466 Z-4.139
N9815 G1 X126.091 Y313.485 Z-4.146
N9820 G1 X126.117 Y313.5 Z-4.153
N9825 G1 X126.145 Y313.513 Z-4.158
N9830 G1 X126.174 Y313.522 Z-4.163
N9835 G1 X126.205 Y313.527 Z-4.168
N9840 G1 X126.236 Y313.529 Z-4.171
N9845 G1 X126.679 Z-4.213
N9850 G1 X133.454 Z-4.859
N9855 G1 X140.062 Z-5.451
N9860 G1 X146.322 Z-5.978
N9865 G1 X152.787 Z-6.483
N9870 G1 X159.476 Z-6.971
N9875 G1 X159.528 Z-6.97
N9880 G1 X159.58 Z-6.96
N9885 G1 X159.629 Z-6.941
N9890 G1 X159.694 Z-6.918
N9895 G1 X159.762 Z-6.911
N9900 G1 X159.792 Y313.531 Z-6.91
N9905 G1 X159.821 Y313.536
N9910 G1 X159.85 Y313.545
N9915 G1 X159.878 Y313.558 Z-6.909
N9920 G1 X159.904 Y313.573 Z-6.908
N9925 G1 X159.928 Y313.592 Z-6.907
N9930 G1 X159.949 Y313.613 Z-6.906
N9935 G1 X159.968 Y313.637 Z-6.904
N9940 G1 X159.983 Y313.663 Z-6.903
N9945 G1 X159.996 Y313.69 Z-6.901
N9950 G1 X160.005 Y313.719 Z-6.9
N9955 G1 X160.01 Y313.749 Z-6.898
N9960 G1 X160.012 Y313.779 Z-6.896
N9965 G1 X160.01 Y313.809 Z-6.895
N9970 G1 X160.005 Y313.839 Z-6.893
N9975 G1 X159.996 Y313.868 Z-6.891
N9980 G1 X159.983 Y313.895 Z-6.89
N9985 G1 X159.968 Y313.921 Z-6.888
N9990 G1 X159.949 Y313.945 Z-6.887
N9995 G1 X159.928 Y313.966 Z-6.886
N10000 G1 X159.904 Y313.985 Z-6.885
N10005 G1 X159.878 Y314 Z-6.884
N10010 G1 X159.85 Y314.013 Z-6.883
N10015 G1 X159.821 Y314.022
N10020 G1 X159.792 Y314.027 Z-6.882
N10025 G1 X159.762 Y314.029
N10030 G1 X157.905
N10035 G1 X157.838 Z-6.89
N10040 G1 X157.773 Z-6.913
N10045 G1 X157.724 Z-6.932
N10050 G1 X157.672 Z-6.942
N10055 G1 X157.619 Z-6.943
N10060 G1 X151.001 Z-6.455
N10065 G1 X144.284 Z-5.923
N10070 G1 X138.147 Z-5.402
N10075 G1 X131.312 Z-4.783
N10080 G1 X124.926 Z-4.171
N10085 G1 X123.632 Z-4.047
N10090 G1 X123.602 Y314.031 Z-4.045
N10095 G1 X123.571 Y314.036 Z-4.043
N10100 G1 X123.541 Y314.045 Z-4.042
N10105 G1 X123.513 Y314.058 Z-4.043
N10110 G1 X123.486 Y314.073 Z-4.044
N10115 G1 X123.461 Y314.092 Z-4.046
N10120 G1 X123.439 Y314.113 Z-4.049
N10125 G1 X123.419 Y314.137 Z-4.054
N10130 G1 X123.402 Y314.163 Z-4.058
N10135 G1 X123.389 Y314.19 Z-4.064
N10140 G1 X123.379 Y314.219 Z-4.07
N10145 G1 X123.373 Y314.249 Z-4.077
N10150 G1 X123.37 Y314.279 Z-4.084
N10155 G1 X123.371 Y314.309 Z-4.092
N10160 G1 X123.376 Y314.339 Z-4.1
N10165 G1 X123.385 Y314.368 Z-4.108
N10170 G1 X123.397 Y314.395 Z-4.116
N10175 G1 X123.412 Y314.421 Z-4.124
N10180 G1 X123.431 Y314.445 Z-4.132
N10185 G1 X123.452 Y314.466 Z-4.139
N10190 G1 X123.476 Y314.485 Z-4.146
N10195 G1 X123.502 Y314.5 Z-4.153
N10200 G1 X123.53 Y314.513 Z-4.158
N10205 G1 X123.559 Y314.522 Z-4.163
N10210 G1 X123.59 Y314.527 Z-4.168
N10215 G1 X123.621 Y314.529 Z-4.171
N10220 G1 X129.827 Z-4.767
N10225 G1 X136.423 Z-5.368
N10230 G1 X142.371 Z-5.877
N10235 G1 X149.285 Z-6.43
N10240 G1 X155.872 Z-6.921
N10245 G1 X155.925 Z-6.92
N10250 G1 X155.977 Z-6.91
N10255 G1 X156.027 Z-6.891
N10260 G1 X156.063 Z-6.873
N10265 G1 X156.127 Z-6.851
N10270 G1 X156.195 Z-6.843
N10275 G17 G3 Y315.029 I0 J0.25
N10280 G1 X154.497
N10285 G1 X154.429 Z-6.851
N10290 G1 X154.365 Z-6.873
N10295 G1 X154.315 Z-6.892
N10300 G1 X154.263 Z-6.902
N10305 G1 X154.21 Z-6.903
N10310 G1 X147.577 Z-6.406
N10315 G1 X140.726 Z-5.853
N10320 G1 X134.367 Z-5.305
N10325 G1 X127.942 Z-4.713
N10330 G1 X122.319 Z-4.171
N10335 G1 X121.03 Z-4.047
N10340 G1 X120.999 Y315.031 Z-4.044
N10345 G1 X120.969 Y315.036 Z-4.042
N10350 G1 X120.939 Y315.045
N10355 G1 X120.91 Y315.058
N10360 G1 X120.884 Y315.073 Z-4.044
N10365 G1 X120.859 Y315.092 Z-4.046
N10370 G1 X120.836 Y315.113 Z-4.049
N10375 G1 X120.817 Y315.137 Z-4.053
N10380 G1 X120.8 Y315.163 Z-4.058
N10385 G1 X120.787 Y315.19 Z-4.064
N10390 G1 X120.777 Y315.219 Z-4.07
N10395 G1 X120.77 Y315.249 Z-4.077
N10400 G1 X120.768 Y315.279 Z-4.084
N10405 G1 X120.769 Y315.309 Z-4.092
N10410 G1 X120.774 Y315.339 Z-4.1
N10415 G1 X120.782 Y315.368 Z-4.108
N10420 G1 X120.794 Y315.395 Z-4.116
N10425 G1 X120.81 Y315.421 Z-4.124
N10430 G1 X120.828 Y315.445 Z-4.132
N10435 G1 X120.85 Y315.466 Z-4.139
N10440 G1 X120.874 Y315.485 Z-4.146
N10445 G1 X120.9 Y315.5 Z-4.153
N10450 G1 X120.928 Y315.513 Z-4.158
N10455 G1 X120.957 Y315.522 Z-4.163
N10460 G1 X120.987 Y315.527 Z-4.168
N10465 G1 X121.018 Y315.529 Z-4.171
N10470 G1 X126.469 Z-4.698
N10475 G1 X133.181 Z-5.317
N10480 G1 X139.344 Z-5.85
N10485 G1 X146.168 Z-6.403
N10490 G1 X152.616 Z-6.89
N10495 G1 X152.669 Z-6.889
N10500 G1 X152.721 Z-6.879
N10505 G1 X152.77 Z-6.86
N10510 G1 X152.791 Z-6.85
N10515 G1 X152.855 Z-6.827
N10520 G1 X152.923 Z-6.819
N10525 G3 Y316.029 I0 J0.25
N10530 G1 X151.364
N10535 G1 X151.296 Z-6.827
N10540 G1 X151.232 Z-6.85
N10545 G1 X151.182 Z-6.869
N10550 G1 X151.13 Z-6.879
N10555 G1 X151.077 Z-6.88
N10560 G1 X144.373 Z-6.37
N10565 G1 X137.82 Z-5.835
N10570 G1 X131.317 Z-5.269
N10575 G1 X124.375 Z-4.623
N10580 G1 X119.724 Z-4.171
N10585 G1 X118.442 Z-4.046
N10590 G1 X118.411 Y316.031 Z-4.044
N10595 G1 X118.381 Y316.036 Z-4.042
N10600 G1 X118.351 Y316.045
N10605 G1 X118.322 Y316.057
N10610 G1 X118.295 Y316.073 Z-4.043
N10615 G1 X118.271 Y316.092 Z-4.046
N10620 G1 X118.248 Y316.113 Z-4.049
N10625 G1 X118.229 Y316.137 Z-4.053
N10630 G1 X118.212 Y316.163 Z-4.058
N10635 G1 X118.198 Y316.19 Z-4.063
N10640 G1 X118.189 Y316.219 Z-4.07
N10645 G1 X118.182 Y316.249 Z-4.076
N10650 G1 X118.18 Y316.279 Z-4.084
N10655 G1 X118.181 Y316.309 Z-4.092
N10660 G1 X118.186 Y316.339 Z-4.099
N10665 G1 X118.194 Y316.367 Z-4.108
N10670 G1 X118.206 Y316.395 Z-4.116
N10675 G1 X118.222 Y316.421 Z-4.124
N10680 G1 X118.24 Y316.445 Z-4.131
N10685 G1 X118.262 Y316.466 Z-4.139
N10690 G1 X118.285 Y316.485 Z-4.146
N10695 G1 X118.312 Y316.5 Z-4.152
N10700 G1 X118.34 Y316.513 Z-4.158
N10705 G1 X118.369 Y316.522 Z-4.163
N10710 G1 X118.399 Y316.527 Z-4.168
N10715 G1 X118.43 Y316.529 Z-4.171
N10720 G1 X123.139 Z-4.629
N10725 G1 X129.231 Z-5.198
N10730 G1 X135.82 Z-5.778
N10735 G1 X142.364 Z-6.319
N10740 G1 X149.58 Z-6.873
N10745 G1 X149.633 Z-6.872
N10750 G1 X149.686 Z-6.862
N10755 G1 X149.735 Z-6.843
N10760 G1 X149.748 Z-6.836
N10765 G1 X149.813 Z-6.814
N10770 G1 X149.88 Z-6.806
N10775 G3 Y317.029 I0 J0.25
N10780 G1 X148.403
N10785 G1 X148.336 Z-6.814
N10790 G1 X148.271 Z-6.836
N10795 G1 X148.222 Z-6.856
N10800 G1 X148.169 Z-6.866
N10805 G1 X148.116
N10810 G1 X141.214 Z-6.335
N10815 G1 X134.845 Z-5.809
N10820 G1 X128.503 Z-5.252
N10825 G1 X122.71 Z-4.712
N10830 G1 X117.137 Z-4.171
N10835 G1 X115.863 Z-4.046
N10840 G1 X115.832 Y317.031 Z-4.043
N10845 G1 X115.801 Y317.036 Z-4.042
N10850 G1 X115.771 Y317.045 Z-4.041
N10855 G1 X115.743 Y317.057
N10860 G1 X115.716 Y317.073 Z-4.043
N10865 G1 X115.691 Y317.092 Z-4.045
N10870 G1 X115.669 Y317.113 Z-4.048
N10875 G1 X115.649 Y317.137 Z-4.052
N10880 G1 X115.632 Y317.163 Z-4.057
N10885 G1 X115.619 Y317.19 Z-4.063
N10890 G1 X115.609 Y317.219 Z-4.069
N10895 G1 X115.603 Y317.249 Z-4.076
N10900 G1 X115.6 Y317.279 Z-4.083
N10905 G1 X115.601 Y317.309 Z-4.091
N10910 G1 X115.606 Y317.339 Z-4.099
N10915 G1 X115.615 Y317.367 Z-4.107
N10920 G1 X115.627 Y317.395 Z-4.115
N10925 G1 X115.642 Y317.421 Z-4.123
N10930 G1 X115.661 Y317.444 Z-4.131
N10935 G1 X115.682 Y317.466 Z-4.139
N10940 G1 X115.706 Y317.484 Z-4.146
N10945 G1 X115.732 Y317.5 Z-4.152
N10950 G1 X115.76 Y317.512 Z-4.158
N10955 G1 X115.789 Y317.521 Z-4.163
N10960 G1 X115.82 Y317.527 Z-4.168
N10965 G1 X115.851 Y317.529 Z-4.171
N10970 G1 X118.776 Z-4.459
N10975 G1 X125.582 Z-5.104
N10980 G1 X132.692 Z-5.738
N10985 G1 X139.322 Z-6.291
N10990 G1 X146.682 Z-6.862
N10995 G1 X146.735
N11000 G1 X146.787 Z-6.852
N11005 G1 X146.837 Z-6.833
N11010 G1 X146.901 Z-6.81
N11015 G1 X146.969 Z-6.802
N11020 G3 Y318.029 I0 J0.25
N11025 G1 X145.608
N11030 G1 X145.54 Z-6.81
N11035 G1 X145.476 Z-6.833
N11040 G1 X145.475
N11045 G1 X145.426 Z-6.852
N11050 G1 X145.373 Z-6.862
N11055 G1 X145.32
N11060 G1 X145.266 Z-6.858
N11065 G1 X138.251 Z-6.313
N11070 G1 X131.208 Z-5.724
N11075 G1 X124.261 Z-5.103
N11080 G1 X117.225 Z-4.433
N11085 G1 X114.565 Z-4.171
N11090 G1 X113.291 Z-4.046
N11095 G1 X113.26 Y318.03 Z-4.043
N11100 G1 X113.229 Y318.036 Z-4.042
N11105 G1 X113.199 Y318.045 Z-4.041
N11110 G1 X113.171 Y318.057
N11115 G1 X113.144 Y318.073 Z-4.042
N11120 G1 X113.119 Y318.092 Z-4.045
N11125 G1 X113.097 Y318.113 Z-4.048
N11130 G1 X113.077 Y318.137 Z-4.052
N11135 G1 X113.06 Y318.162 Z-4.057
N11140 G1 X113.047 Y318.19 Z-4.063
N11145 G1 X113.037 Y318.219 Z-4.069
N11150 G1 X113.031 Y318.249 Z-4.076
N11155 G1 X113.028 Y318.279 Z-4.083
N11160 G1 X113.029 Y318.309 Z-4.091
N11165 G1 X113.034 Y318.338 Z-4.099
N11170 G1 X113.042 Y318.367 Z-4.107
N11175 G1 X113.055 Y318.395 Z-4.115
N11180 G1 X113.07 Y318.421 Z-4.123
N11185 G1 X113.088 Y318.444 Z-4.131
N11190 G1 X113.11 Y318.466 Z-4.139
N11195 G1 X113.134 Y318.484 Z-4.146
N11200 G1 X113.16 Y318.5 Z-4.152
N11205 G1 X113.188 Y318.512 Z-4.158
N11210 G1 X113.217 Y318.521 Z-4.163
N11215 G1 X113.248 Y318.527 Z-4.168
N11220 G1 X113.278 Y318.529 Z-4.171
N11225 G1 X116.664 Z-4.504
N11230 G1 X123.322 Z-5.136
N11235 G1 X129.845 Z-5.72
N11240 G1 X136.608 Z-6.288
N11245 G1 X143.866 Z-6.856
N11250 G1 X143.919 Z-6.855
N11255 G1 X143.972 Z-6.845
N11260 G1 X144.021 Z-6.826
N11265 G1 X144.086 Z-6.803
N11270 G1 X144.153 Z-6.795
N11275 G3 Y319.029 I0 J0.25
N11280 G1 X142.801
N11285 G1 X142.733 Z-6.803
N11290 G1 X142.669 Z-6.826
N11295 G1 X142.619 Z-6.845
N11300 G1 X142.566 Z-6.855
N11305 G1 X142.513 Z-6.856
N11310 G1 X142.475 Z-6.853
N11315 G1 X135.494 Z-6.305
N11320 G1 X129.252 Z-5.781
N11325 G1 X122.473 Z-5.177
N11330 G1 X116.355 Z-4.599
N11335 G1 X111.999 Z-4.171
N11340 G1 X110.731 Z-4.047
N11345 G1 X110.7 Y319.03 Z-4.044
N11350 G1 X110.67 Y319.036 Z-4.042
N11355 G1 X110.64 Y319.045
N11360 G1 X110.611 Y319.057
N11365 G1 X110.584 Y319.073 Z-4.043
N11370 G1 X110.56 Y319.091 Z-4.046
N11375 G1 X110.537 Y319.113 Z-4.049
N11380 G1 X110.517 Y319.137 Z-4.053
N11385 G1 X110.501 Y319.162 Z-4.058
N11390 G1 X110.487 Y319.19 Z-4.063
N11395 G1 X110.478 Y319.219 Z-4.07
N11400 G1 X110.471 Y319.248 Z-4.076
N11405 G1 X110.469 Y319.279 Z-4.084
N11410 G1 X110.47 Y319.309 Z-4.091
N11415 G1 X110.475 Y319.338 Z-4.099
N11420 G1 X110.483 Y319.367 Z-4.107
N11425 G1 X110.495 Y319.395 Z-4.115
N11430 G1 X110.511 Y319.421 Z-4.123
N11435 G1 X110.529 Y319.444 Z-4.131
N11440 G1 X110.55 Y319.466 Z-4.139
N11445 G1 X110.574 Y319.484 Z-4.146
N11450 G1 X110.6 Y319.5 Z-4.152
N11455 G1 X110.628 Y319.512 Z-4.158
N11460 G1 X110.658 Y319.521 Z-4.163
N11465 G1 X110.688 Y319.527 Z-4.168
N11470 G1 X110.719 Y319.529 Z-4.171
N11475 G1 X115.834 Z-4.673
N11480 G1 X121.462 Z-5.204
N11485 G1 X128.01 Z-5.787
N11490 G1 X134.102 Z-6.3
N11495 G1 X141.09 Z-6.85
N11500 G1 X141.144 Z-6.849
N11505 G1 X141.196 Z-6.839
N11510 G1 X141.246 Z-6.82
N11515 G1 X141.31 Z-6.797
N11520 G1 X141.378 Z-6.79
N11525 G3 Y320.029 I0 J0.25
N11530 G1 X140.034
N11535 G1 X139.966 Z-6.797
N11540 G1 X139.902 Z-6.82
N11545 G1 X139.852 Z-6.839
N11550 G1 X139.799 Z-6.849
N11555 G1 X139.746 Z-6.85
N11560 G1 X139.706 Z-6.847
N11565 G1 X132.701 Z-6.293
N11570 G1 X126.178 Z-5.742
N11575 G1 X119.108 Z-5.106
N11580 G1 X112.3 Z-4.454
N11585 G1 X109.44 Z-4.171
N11590 G1 X108.175 Z-4.046
N11595 G1 X108.144 Y320.03 Z-4.043
N11600 G1 X108.113 Y320.036 Z-4.042
N11605 G1 X108.084 Y320.045 Z-4.041
N11610 G1 X108.055 Y320.057
N11615 G1 X108.028 Y320.073 Z-4.043
N11620 G1 X108.003 Y320.091 Z-4.045
N11625 G1 X107.981 Y320.113 Z-4.048
N11630 G1 X107.961 Y320.136 Z-4.052
N11635 G1 X107.945 Y320.162 Z-4.057
N11640 G1 X107.931 Y320.19 Z-4.063
N11645 G1 X107.921 Y320.219 Z-4.069
N11650 G1 X107.915 Y320.248 Z-4.076
N11655 G1 X107.912 Y320.278 Z-4.083
N11660 G1 X107.913 Y320.309 Z-4.091
N11665 G1 X107.918 Y320.338 Z-4.099
N11670 G1 X107.927 Y320.367 Z-4.107
N11675 G1 X107.939 Y320.395 Z-4.115
N11680 G1 X107.954 Y320.421 Z-4.123
N11685 G1 X107.973 Y320.444 Z-4.131
N11690 G1 X107.994 Y320.466 Z-4.139
N11695 G1 X108.018 Y320.484 Z-4.146
N11700 G1 X108.044 Y320.5 Z-4.152
N11705 G1 X108.072 Y320.512 Z-4.158
N11710 G1 X108.101 Y320.521 Z-4.163
N11715 G1 X108.132 Y320.527 Z-4.168
N11720 G1 X108.163 Y320.528 Z-4.171
N11725 G1 X110.137 Z-4.366
N11730 G1 X117.157 Z-5.044
N11735 G1 X123.756 Z-5.645
N11740 G1 X130.74 Z-6.24
N11745 G1 X138.317 Z-6.843
N11750 G1 X138.371
N11755 G1 X138.423 Z-6.833
N11760 G1 X138.473 Z-6.813
N11765 G1 X138.483 Z-6.808
N11770 G1 X138.548 Z-6.785
N11775 G1 X138.615 Z-6.778
N11780 G3 Y321.028 I0 J0.25
N11785 G1 X137.207
N11790 G1 X137.139 Z-6.785
N11795 G1 X137.075 Z-6.808
N11800 G1 X137.025 Z-6.828
N11805 G1 X136.973 Z-6.837
N11810 G1 X136.919 Z-6.838
N11815 G1 X129.158 Z-6.217
N11820 G1 X122.739 Z-5.669
N11825 G1 X116.539 Z-5.106
N11830 G1 X109.743 Z-4.454
N11835 G1 X106.89 Z-4.171
N11840 G1 X105.629 Z-4.046
N11845 G1 X105.598 Y321.03 Z-4.043
N11850 G1 X105.568 Y321.036 Z-4.042
N11855 G1 X105.538 Y321.045 Z-4.041
N11860 G1 X105.509 Y321.057
N11865 G1 X105.482 Y321.073 Z-4.043
N11870 G1 X105.458 Y321.091 Z-4.045
N11875 G1 X105.435 Y321.113 Z-4.048
N11880 G1 X105.416 Y321.136 Z-4.052
N11885 G1 X105.399 Y321.162 Z-4.057
N11890 G1 X105.385 Y321.19 Z-4.063
N11895 G1 X105.376 Y321.219 Z-4.069
N11900 G1 X105.369 Y321.248 Z-4.076
N11905 G1 X105.367 Y321.278 Z-4.083
N11910 G1 X105.368 Y321.309 Z-4.091
N11915 G1 X105.373 Y321.338 Z-4.099
N11920 G1 X105.381 Y321.367 Z-4.107
N11925 G1 X105.393 Y321.395 Z-4.115
N11930 G1 X105.408 Y321.42 Z-4.123
N11935 G1 X105.427 Y321.444 Z-4.131
N11940 G1 X105.448 Y321.466 Z-4.138
N11945 G1 X105.472 Y321.484 Z-4.146
N11950 G1 X105.498 Y321.5 Z-4.152
N11955 G1 X105.526 Y321.512 Z-4.158
N11960 G1 X105.556 Y321.521 Z-4.163
N11965 G1 X105.586 Y321.527 Z-4.168
N11970 G1 X105.617 Y321.528 Z-4.171
N11975 G1 X109.171 Z-4.524
N11980 G1 X115.652 Z-5.143
N11985 G1 X122.277 Z-5.742
N11990 G1 X127.975 Z-6.228
N11995 G1 X135.509 Z-6.832
N12000 G1 X135.562 Z-6.831
N12005 G1 X135.615 Z-6.821
N12010 G1 X135.665 Z-6.802
N12015 G1 X135.681 Z-6.794
N12020 G1 X135.746 Z-6.771
N12025 G1 X135.813 Z-6.763
N12030 G3 Y322.028 I0 J0.25
N12035 G1 X134.367
N12040 G1 X134.299 Z-6.771
N12045 G1 X134.235 Z-6.794
N12050 G1 X134.185 Z-6.813
N12055 G1 X134.133 Z-6.823
N12060 G1 X134.079 Z-6.824
N12065 G1 X126.603 Z-6.222
N12070 G1 X120.378 Z-5.689
N12075 G1 X113.71 Z-5.082
N12080 G1 X107.337 Z-4.468
N12085 G1 X104.345 Z-4.171
N12090 G1 X103.086 Z-4.046
N12095 G1 X103.055 Y322.03 Z-4.044
N12100 G1 X103.025 Y322.036 Z-4.042
N12105 G1 X102.995 Y322.045 Z-4.041
N12110 G1 X102.966 Y322.057
N12115 G1 X102.939 Y322.073 Z-4.043
N12120 G1 X102.914 Y322.091 Z-4.045
N12125 G1 X102.892 Y322.113 Z-4.048
N12130 G1 X102.872 Y322.136 Z-4.052
N12135 G1 X102.856 Y322.162 Z-4.057
N12140 G1 X102.842 Y322.19 Z-4.063
N12145 G1 X102.832 Y322.219 Z-4.069
N12150 G1 X102.826 Y322.248 Z-4.076
N12155 G1 X102.823 Y322.278 Z-4.083
N12160 G1 X102.825 Y322.308 Z-4.091
N12165 G1 X102.829 Y322.338 Z-4.099
N12170 G1 X102.838 Y322.367 Z-4.107
N12175 G1 X102.85 Y322.395 Z-4.115
N12180 G1 X102.865 Y322.42 Z-4.123
N12185 G1 X102.884 Y322.444 Z-4.131
N12190 G1 X102.905 Y322.465 Z-4.139
N12195 G1 X102.929 Y322.484 Z-4.146
N12200 G1 X102.955 Y322.5 Z-4.152
N12205 G1 X102.983 Y322.512 Z-4.158
N12210 G1 X103.012 Y322.521 Z-4.163
N12215 G1 X103.043 Y322.526 Z-4.168
N12220 G1 X103.074 Y322.528 Z-4.171
N12225 G1 X103.924 Z-4.255
N12230 G1 X110.936 Z-4.942
N12235 G1 X117.848 Z-5.579
N12240 G1 X124.824 Z-6.183
N12245 G1 X132.623 Z-6.813
N12250 G1 X132.676 Z-6.812
N12255 G1 X132.729 Z-6.802
N12260 G1 X132.779 Z-6.783
N12265 G1 X132.805 Z-6.77
N12270 G1 X132.869 Z-6.747
N12275 G1 X132.937 Z-6.74
N12280 G3 Y323.028 I0 J0.25
N12285 G1 X131.425
N12290 G1 X131.357 Z-6.747
N12295 G1 X131.293 Z-6.77
N12300 G1 X131.243 Z-6.789
N12305 G1 X131.19 Z-6.799
N12310 G1 X131.136 Z-6.8
N12315 G1 X123.533 Z-6.183
N12320 G1 X116.789 Z-5.599
N12325 G1 X110.29 Z-5.001
N12330 G1 X103.396 Z-4.329
N12335 G1 X101.807 Z-4.171
N12340 G1 X100.553 Z-4.046
N12345 G1 X100.522 Y323.03 Z-4.044
N12350 G1 X100.492 Y323.036 Z-4.042
N12355 G1 X100.462 Y323.044 Z-4.041
N12360 G1 X100.434 Y323.057
N12365 G1 X100.407 Y323.073 Z-4.043
N12370 G1 X100.382 Y323.091 Z-4.045
N12375 G1 X100.359 Y323.112 Z-4.048
N12380 G1 X100.34 Y323.136 Z-4.052
N12385 G1 X100.323 Y323.162 Z-4.057
N12390 G1 X100.31 Y323.19 Z-4.063
N12395 G1 X100.3 Y323.218 Z-4.069
N12400 G1 X100.293 Y323.248 Z-4.076
N12405 G1 X100.291 Y323.278 Z-4.083
N12410 G1 X100.292 Y323.308 Z-4.091
N12415 G1 X100.297 Y323.338 Z-4.099
N12420 G1 X100.305 Y323.367 Z-4.107
N12425 G1 X100.317 Y323.394 Z-4.115
N12430 G1 X100.333 Y323.42 Z-4.123
N12435 G1 X100.351 Y323.444 Z-4.131
N12440 G1 X100.372 Y323.465 Z-4.139
N12445 G1 X100.396 Y323.484 Z-4.146
N12450 G1 X100.422 Y323.5 Z-4.152
N12455 G1 X100.45 Y323.512 Z-4.158
N12460 G1 X100.48 Y323.521 Z-4.163
N12465 G1 X100.51 Y323.526 Z-4.168
N12470 G1 X100.541 Y323.528 Z-4.171
N12475 G1 X102.696 Z-4.386
N12480 G1 X109.88 Z-5.082
N12485 G1 X116.215 Z-5.663
N12490 G1 X122.675 Z-6.22
N12495 G1 X129.612 Z-6.784
N12500 G1 X129.666
N12505 G1 X129.719 Z-6.774
N12510 G1 X129.769 Z-6.755
N12515 G1 X129.811 Z-6.734
N12520 G1 X129.875 Z-6.711
N12525 G1 X129.943 Z-6.703
N12530 G3 Y324.028 I0 J0.25
N12535 G1 X128.325
N12540 G1 X128.257 Z-6.711
N12545 G1 X128.193 Z-6.734
N12550 G1 X128.143 Z-6.753
N12555 G1 X128.09 Z-6.763
N12560 G1 X128.036 Z-6.764
N12565 G1 X120.362 Z-6.133
N12570 G1 X113.942 Z-5.574
N12575 G1 X107.877 Z-5.014
N12580 G1 X101.01 Z-4.344
N12585 G1 X99.274 Z-4.171
N12590 G1 X98.02 Z-4.046
N12595 G1 X97.989 Y324.03 Z-4.044
N12600 G1 X97.959 Y324.035 Z-4.042
N12605 G1 X97.929 Y324.044 Z-4.041
N12610 G1 X97.9 Y324.057 Z-4.042
N12615 G1 X97.873 Y324.072 Z-4.043
N12620 G1 X97.849 Y324.091 Z-4.045
N12625 G1 X97.826 Y324.112 Z-4.048
N12630 G1 X97.806 Y324.136 Z-4.052
N12635 G1 X97.79 Y324.162 Z-4.057
N12640 G1 X97.776 Y324.19 Z-4.063
N12645 G1 X97.766 Y324.218 Z-4.069
N12650 G1 X97.76 Y324.248 Z-4.076
N12655 G1 X97.758 Y324.278 Z-4.083
N12660 G1 X97.759 Y324.308 Z-4.091
N12665 G1 X97.764 Y324.338 Z-4.099
N12670 G1 X97.772 Y324.367 Z-4.107
N12675 G1 X97.784 Y324.394 Z-4.115
N12680 G1 X97.799 Y324.42 Z-4.123
N12685 G1 X97.818 Y324.444 Z-4.131
N12690 G1 X97.839 Y324.465 Z-4.139
N12695 G1 X97.863 Y324.484 Z-4.146
N12700 G1 X97.889 Y324.499 Z-4.152
N12705 G1 X97.917 Y324.512 Z-4.158
N12710 G1 X97.947 Y324.521 Z-4.163
N12715 G1 X97.977 Y324.526 Z-4.168
N12720 G1 X98.008 Y324.528 Z-4.171
N12725 G1 X104.523 Z-4.815
N12730 G1 X111.544 Z-5.473
N12735 G1 X118.808 Z-6.111
N12740 G1 X126.395 Z-6.736
N12745 G1 X126.449
N12750 G1 X126.502 Z-6.726
N12755 G1 X126.552 Z-6.706
N12760 G1 X126.616 Z-6.684
N12765 G1 X126.684 Z-6.676
N12770 G1 X126.714 Y324.53
N12775 G1 X126.744 Y324.535 Z-6.675
N12780 G1 X126.773 Y324.544
N12785 G1 X126.8 Y324.557 Z-6.674
N12790 G1 X126.826 Y324.572 Z-6.673
N12795 G1 X126.85 Y324.591 Z-6.672
N12800 G1 X126.871 Y324.612 Z-6.67
N12805 G1 X126.89 Y324.636 Z-6.669
N12810 G1 X126.906 Y324.662 Z-6.667
N12815 G1 X126.918 Y324.689 Z-6.666
N12820 G1 X126.927 Y324.718 Z-6.664
N12825 G1 X126.933 Y324.748 Z-6.662
N12830 G1 X126.934 Y324.778 Z-6.66
N12835 G1 X126.933 Y324.808 Z-6.658
N12840 G1 X126.927 Y324.838 Z-6.656
N12845 G1 X126.918 Y324.867 Z-6.654
N12850 G1 X126.906 Y324.894 Z-6.653
N12855 G1 X126.89 Y324.92 Z-6.651
N12860 G1 X126.871 Y324.944 Z-6.649
N12865 G1 X126.85 Y324.965 Z-6.648
N12870 G1 X126.826 Y324.984 Z-6.647
N12875 G1 X126.8 Y324.999 Z-6.646
N12880 G1 X126.773 Y325.012 Z-6.645
N12885 G1 X126.744 Y325.021
N12890 G1 X126.714 Y325.026 Z-6.644
N12895 G1 X126.684 Y325.028
N12900 G1 X124.97
N12905 G1 X124.903 Z-6.652
N12910 G1 X124.838 Z-6.675
N12915 G1 X124.788 Z-6.694
N12920 G1 X124.734 Z-6.704
N12925 G1 X124.68
N12930 G1 X124.412 Z-6.68
N12935 G1 X117.438 Z-6.104
N12940 G1 X110.447 Z-5.489
N12945 G1 X103.639 Z-4.852
N12950 G1 X96.746 Z-4.171
N12955 G1 X95.497 Z-4.048
N12960 G1 X95.466 Y325.03 Z-4.045
N12965 G1 X95.435 Y325.035 Z-4.043
N12970 G1 X95.405 Y325.044
N12975 G1 X95.377 Y325.057
N12980 G1 X95.35 Y325.072 Z-4.044
N12985 G1 X95.325 Y325.091 Z-4.046
N12990 G1 X95.303 Y325.112 Z-4.049
N12995 G1 X95.283 Y325.136 Z-4.053
N13000 G1 X95.267 Y325.162 Z-4.058
N13005 G1 X95.253 Y325.189 Z-4.064
N13010 G1 X95.243 Y325.218 Z-4.07
N13015 G1 X95.237 Y325.248 Z-4.077
N13020 G1 X95.234 Y325.278 Z-4.084
N13025 G1 X95.235 Y325.308 Z-4.092
N13030 G1 X95.24 Y325.338 Z-4.1
N13035 G1 X95.249 Y325.367 Z-4.108
N13040 G1 X95.261 Y325.394 Z-4.116
N13045 G1 X95.276 Y325.42 Z-4.124
N13050 G1 X95.295 Y325.444 Z-4.131
N13055 G1 X95.316 Y325.465 Z-4.139
N13060 G1 X95.34 Y325.484 Z-4.146
N13065 G1 X95.366 Y325.499 Z-4.152
N13070 G1 X95.394 Y325.512 Z-4.158
N13075 G1 X95.423 Y325.521 Z-4.163
N13080 G1 X95.454 Y325.526 Z-4.168
N13085 G1 X95.485 Y325.528 Z-4.171
N13090 G1 X95.896 Z-4.211
N13095 G1 X103.025 Z-4.916
N13100 G1 X109.803 Z-5.546
N13105 G1 X116.164 Z-6.105
N13110 G1 X122.757 Z-6.652
N13115 G1 X122.863 Z-6.664
N13120 G1 X122.921 Z-6.666
N13125 G1 X122.977 Z-6.656
N13130 G1 X123.031 Z-6.636
N13135 G1 X123.095 Z-6.613
N13140 G1 X123.163 Z-6.605
N13145 G1 X123.194 Y325.53
N13150 G1 X123.223 Y325.535
N13155 G1 X123.252 Y325.544 Z-6.604
N13160 G1 X123.28 Y325.557 Z-6.602
N13165 G1 X123.306 Y325.572 Z-6.601
N13170 G1 X123.33 Y325.591 Z-6.599
N13175 G1 X123.351 Y325.612 Z-6.596
N13180 G1 X123.37 Y325.636 Z-6.594
N13185 G1 X123.386 Y325.662 Z-6.591
N13190 G1 X123.398 Y325.689 Z-6.588
N13195 G1 X123.407 Y325.718 Z-6.585
N13200 G1 X123.413 Y325.748 Z-6.582
N13205 G1 X123.415 Y325.778 Z-6.579
N13210 G1 X123.413 Y325.808 Z-6.575
N13215 G1 X123.407 Y325.838 Z-6.572
N13220 G1 X123.398 Y325.867 Z-6.569
N13225 G1 X123.386 Y325.894 Z-6.566
N13230 G1 X123.37 Y325.92 Z-6.563
N13235 G1 X123.351 Y325.944 Z-6.561
N13240 G1 X123.33 Y325.965 Z-6.558
N13245 G1 X123.306 Y325.984 Z-6.556
N13250 G1 X123.28 Y325.999 Z-6.555
N13255 G1 X123.252 Y326.012 Z-6.553
N13260 G1 X123.223 Y326.021 Z-6.552
N13265 G1 X123.194 Y326.026
N13270 G1 X123.163 Y326.028
N13275 G1 X121.204
N13280 G1 X121.136 Z-6.559
N13285 G1 X121.072 Z-6.582
N13290 G1 X121.02 Z-6.602
N13295 G1 X120.965 Z-6.612
N13300 G1 X120.91 Z-6.611
N13305 G1 X120.667 Z-6.587
N13310 G1 X113.829 Z-6.015
N13315 G1 X107.316 Z-5.435
N13320 G1 X100.627 Z-4.805
N13325 G1 X94.224 Z-4.171
N13330 G1 X92.975 Z-4.046
N13335 G1 X92.944 Y326.03 Z-4.044
N13340 G1 X92.913 Y326.035 Z-4.042
N13345 G1 X92.883 Y326.044 Z-4.041
N13350 G1 X92.855 Y326.057
N13355 G1 X92.828 Y326.072 Z-4.043
N13360 G1 X92.803 Y326.091 Z-4.045
N13365 G1 X92.781 Y326.112 Z-4.048
N13370 G1 X92.761 Y326.136 Z-4.052
N13375 G1 X92.744 Y326.162 Z-4.057
N13380 G1 X92.731 Y326.189 Z-4.063
N13385 G1 X92.721 Y326.218 Z-4.069
N13390 G1 X92.715 Y326.248 Z-4.076
N13395 G1 X92.712 Y326.278 Z-4.083
N13400 G1 X92.713 Y326.308 Z-4.091
N13405 G1 X92.718 Y326.338 Z-4.099
N13410 G1 X92.727 Y326.367 Z-4.107
N13415 G1 X92.739 Y326.394 Z-4.115
N13420 G1 X92.754 Y326.42 Z-4.123
N13425 G1 X92.772 Y326.444 Z-4.131
N13430 G1 X92.794 Y326.465 Z-4.138
N13435 G1 X92.818 Y326.484 Z-4.146
N13440 G1 X92.844 Y326.499 Z-4.152
N13445 G1 X92.872 Y326.512 Z-4.158
N13450 G1 X92.901 Y326.521 Z-4.163
N13455 G1 X92.931 Y326.526 Z-4.168
N13460 G1 X92.962 Y326.528 Z-4.171
N13465 G1 X97.087 Z-4.584
N13470 G1 X104.149 Z-5.262
N13475 G1 X111.13 Z-5.891
N13480 G1 X118.586 Z-6.523
N13485 G1 X118.768 Z-6.545
N13490 G1 X118.825 Z-6.546
N13495 G1 X118.882 Z-6.536
N13500 G1 X118.935 Z-6.516
N13505 G1 X118.999 Z-6.493
N13510 G1 X119.067 Z-6.485
N13515 G1 X119.098 Y326.53
N13520 G1 X119.128 Y326.535 Z-6.484
N13525 G1 X119.157 Y326.544 Z-6.483
N13530 G1 X119.185 Y326.557 Z-6.48
N13535 G1 X119.211 Y326.572 Z-6.478
N13540 G1 X119.236 Y326.591 Z-6.474
N13545 G1 X119.257 Y326.612 Z-6.471
N13550 G1 X119.276 Y326.636 Z-6.467
N13555 G1 X119.292 Y326.662 Z-6.462
N13560 G1 X119.305 Y326.689 Z-6.457
N13565 G1 X119.314 Y326.718 Z-6.452
N13570 G1 X119.319 Y326.748 Z-6.447
N13575 G1 X119.321 Y326.778 Z-6.442
N13580 G1 X119.319 Y326.808 Z-6.436
N13585 G1 X119.314 Y326.838 Z-6.431
N13590 G1 X119.305 Y326.867 Z-6.426
N13595 G1 X119.292 Y326.894 Z-6.421
N13600 G1 X119.276 Y326.92 Z-6.417
N13605 G1 X119.257 Y326.944 Z-6.413
N13610 G1 X119.236 Y326.965 Z-6.409
N13615 G1 X119.211 Y326.984 Z-6.406
N13620 G1 X119.185 Y326.999 Z-6.403
N13625 G1 X119.157 Y327.012 Z-6.401
N13630 G1 X119.128 Y327.021 Z-6.399
N13635 G1 X119.098 Y327.026 Z-6.398
N13640 G1 X119.067 Y327.028
N13645 G1 X116.67
N13650 G1 X116.602 Z-6.406
N13655 G1 X116.538 Z-6.429
N13660 G1 X116.482 Z-6.45
N13665 G1 X116.423 Z-6.459
N13670 G1 X116.363 Z-6.456
N13675 G1 X116.21 Z-6.434
N13680 G1 X108.958 Z-5.813
N13685 G1 X102.247 Z-5.202
N13690 G1 X95.358 Z-4.538
N13695 G1 X91.778 Z-4.18
N13700 G1 X91.657 Z-4.171
N13705 G1 X91.6 Z-4.162
N13710 G1 X91.546 Z-4.141
N13715 G1 X91.482 Z-4.118
N13720 G1 X91.414 Z-4.111
N13725 G1 X90.596
N13730 G1 X90.565 Y327.03
N13735 G1 X90.535 Y327.035 Z-4.112
N13740 G1 X90.505 Y327.044 Z-4.115
N13745 G1 X90.477 Y327.057 Z-4.118
N13750 G1 X90.45 Y327.072 Z-4.121
N13755 G1 X90.426 Y327.091 Z-4.126
N13760 G1 X90.404 Y327.112 Z-4.131
N13765 G1 X90.384 Y327.136 Z-4.137
N13770 G1 X90.368 Y327.162 Z-4.143
N13775 G1 X90.356 Y327.189 Z-4.15
N13780 G1 X90.346 Y327.218 Z-4.157
N13785 G1 X90.341 Y327.248 Z-4.164
N13790 G1 X90.339 Y327.278 Z-4.171
N13795 G1 X90.341 Y327.308 Z-4.179
N13800 G1 X90.346 Y327.338 Z-4.186
N13805 G1 X90.356 Y327.367 Z-4.193
N13810 G1 X90.368 Y327.394 Z-4.2
N13815 G1 X90.384 Y327.42 Z-4.206
N13820 G1 X90.404 Y327.444 Z-4.212
N13825 G1 X90.426 Y327.465 Z-4.217
N13830 G1 X90.45 Y327.484 Z-4.221
N13835 G1 X90.477 Y327.499 Z-4.225
N13840 G1 X90.505 Y327.512 Z-4.228
N13845 G1 X90.535 Y327.521 Z-4.23
N13850 G1 X90.565 Y327.526 Z-4.232
N13855 G1 X90.596 Y327.528
N13860 G1 X90.664 Z-4.24
N13865 G1 X90.728 Z-4.263
N13870 G1 X90.789 Z-4.285
N13875 G1 X90.854 Z-4.293
N13880 G1 X91.55 Z-4.308
N13885 G1 X92.169 Z-4.348
N13890 G1 X98.802 Z-4.996
N13895 G1 X105.57 Z-5.624
N13900 G1 X113.398 Z-6.308
N13905 G1 X113.563 Z-6.334
N13910 G1 X113.624 Z-6.337
N13915 G1 X113.684 Z-6.328
N13920 G1 X113.741 Z-6.306
N13925 G1 X113.805 Z-6.284
N13930 G1 X113.873 Z-6.276
N13935 G1 X113.905 Y327.53 Z-6.275
N13940 G1 X113.936 Y327.535 Z-6.273
N13945 G1 X113.967 Y327.544 Z-6.27
N13950 G1 X113.996 Y327.557 Z-6.266
N13955 G1 X114.023 Y327.572 Z-6.26
N13960 G1 X114.049 Y327.591 Z-6.253
N13965 G1 X114.071 Y327.612 Z-6.246
N13970 G1 X114.091 Y327.636 Z-6.237
N13975 G1 X114.108 Y327.662 Z-6.228
N13980 G1 X114.121 Y327.689 Z-6.218
N13985 G1 X114.13 Y327.718 Z-6.208
N13990 G1 X114.136 Y327.748 Z-6.197
N13995 G1 X114.138 Y327.778 Z-6.186
N14000 G1 X114.136 Y327.808 Z-6.175
N14005 G1 X114.13 Y327.838 Z-6.165
N14010 G1 X114.121 Y327.866 Z-6.154
N14015 G1 X114.108 Y327.894 Z-6.145
N14020 G1 X114.091 Y327.92 Z-6.135
N14025 G1 X114.071 Y327.944 Z-6.127
N14030 G1 X114.049 Y327.965 Z-6.119
N14035 G1 X114.023 Y327.984 Z-6.113
N14040 G1 X113.996 Y327.999 Z-6.107
N14045 G1 X113.967 Y328.012 Z-6.102
N14050 G1 X113.936 Y328.021 Z-6.099
N14055 G1 X113.905 Y328.026 Z-6.097
N14060 G1 X113.873 Y328.028
N14065 G1 X110.42
N14070 G1 X110.353 Z-6.104
N14075 G1 X110.288 Z-6.127
N14080 G1 X110.231 Z-6.148
N14085 G1 X110.171 Z-6.158
N14090 G1 X110.11 Z-6.154
N14095 G1 X109.917 Z-6.124
N14100 G1 X108.807 Z-6.023
N14105 G1 X101.683 Z-5.386
N14110 G1 X94.983 Z-4.749
N14115 G1 X93.455 Z-4.604
N14120 G1 X92.667 Z-4.549
N14125 G1 X92.158 Z-4.535
N14130 G1 X91.99 Z-4.533
N14135 G1 X91.949 Z-4.53
N14140 G1 X91.919 Y328.03 Z-4.525
N14145 G1 X91.89 Y328.035 Z-4.521
N14150 G1 X91.861 Y328.044 Z-4.516
N14155 G1 X91.834 Y328.056 Z-4.511
N14160 G1 X91.809 Y328.072 Z-4.505
N14165 G1 X91.785 Y328.091 Z-4.5
N14170 G1 X91.765 Y328.112 Z-4.495
N14175 G1 X91.746 Y328.136 Z-4.491
N14180 G1 X91.731 Y328.162 Z-4.486
N14185 G1 X91.719 Y328.189 Z-4.482
N14190 G1 X91.711 Y328.218 Z-4.478
N14195 G1 X91.706 Y328.248 Z-4.475
N14200 G1 X91.704 Y328.278 Z-4.472
N14205 G1 X91.706 Y328.308 Z-4.47
N14210 G1 X91.712 Y328.338 Z-4.468
N14215 G1 X91.721 Y328.366 Z-4.467
N14220 G1 X91.734 Y328.394
N14225 G1 X91.75 Y328.42
N14230 G1 X91.769 Y328.444
N14235 G1 X91.79 Y328.465 Z-4.469
N14240 G1 X91.814 Y328.484 Z-4.47
N14245 G1 X91.84 Y328.499 Z-4.473
N14250 G1 X91.867 Y328.512 Z-4.476
N14255 G1 X91.896 Y328.521 Z-4.479
N14260 G1 X91.926 Y328.526 Z-4.483
N14265 G1 X91.956 Y328.528 Z-4.487
N14270 G1 X94.97 Z-4.93
N14275 G1 X95 Z-4.933
N14280 G1 X95.515 Z-4.956
N14285 G1 X96.542 Z-5.032
N14290 G1 X101.25 Z-5.463
N14295 G1 X104.552 Z-5.771
N14300 G1 X105.049 Z-5.832
N14305 G18 G2 X105.723 Z-5.237 I0.074 K0.595 F1000
N14310 G0 Z5
N14315 G0 X197.978 Y310.529
N14320 G0 Z-6.322
N14325 G1 Z-7.782 F1000
N14330 G2 X198.646 Z-8.378 I0.6 K0
N14335 G1 X198.672 Z-8.376 F420
N14340 G1 X200.976 Z-8.404
N14345 G1 X204.196 Z-8.421
N14350 G1 X208.253 Z-8.399
N14355 G1 X212.302 Z-8.341
N14360 G1 X216.866 Z-8.236
N14365 G1 X221.512 Z-8.089
N14370 G1 X226.513 Z-7.886
N14375 G1 X231.247 Z-7.654
N14380 G1 X235.504 Z-7.413
N14385 G1 X239.758 Z-7.142
N14390 G1 X244.164 Z-6.83
N14395 G1 X248.507 Z-6.491
N14400 G1 X252.803 Z-6.125
N14405 G1 X257.277 Z-5.712
N14410 G1 X262.309 Z-5.207
N14415 G1 X266.724 Z-4.728
N14420 G1 X271.534 Z-4.171
N14425 G1 X272.552 Z-4.053
N14430 G1 X272.583 Y310.531 Z-4.05
N14435 G1 X272.613 Y310.537 Z-4.047
N14440 G1 X272.643 Y310.546 Z-4.046
N14445 G1 X272.671 Y310.558
N14450 G1 X272.698 Y310.574
N14455 G1 X272.723 Y310.592 Z-4.048
N14460 G1 X272.745 Y310.614 Z-4.05
N14465 G1 X272.765 Y310.637 Z-4.054
N14470 G1 X272.782 Y310.663 Z-4.058
N14475 G1 X272.795 Y310.691 Z-4.063
N14480 G1 X272.805 Y310.719 Z-4.069
N14485 G1 X272.811 Y310.749 Z-4.075
N14490 G1 X272.814 Y310.779 Z-4.082
N14495 G1 X272.813 Y310.809 Z-4.09
N14500 G1 X272.808 Y310.839 Z-4.097
N14505 G1 X272.8 Y310.868 Z-4.105
N14510 G1 X272.788 Y310.895 Z-4.113
N14515 G1 X272.773 Y310.921 Z-4.121
N14520 G1 X272.754 Y310.945 Z-4.129
N14525 G1 X272.733 Y310.966 Z-4.137
N14530 G1 X272.709 Y310.985 Z-4.144
N14535 G1 X272.683 Y311.001 Z-4.151
N14540 G1 X272.656 Y311.013 Z-4.157
N14545 G1 X272.626 Y311.022 Z-4.162
N14550 G1 X272.596 Y311.027 Z-4.167
N14555 G1 X272.566 Y311.029 Z-4.171
N14560 G1 X267.613 Z-4.748
N14565 G1 X262.698 Z-5.283
N14570 G1 X257.736 Z-5.78
N14575 G1 X253.531 Z-6.169
N14580 G1 X249.047 Z-6.553
N14585 G1 X243.969 Z-6.948
N14590 G1 X238.727 Z-7.31
N14595 G1 X233.795 Z-7.61
N14600 G1 X228.829 Z-7.872
N14605 G1 X223.702 Z-8.098
N14610 G1 X218.846 Z-8.269
N14615 G1 X214.49 Z-8.386
N14620 G1 X210.163 Z-8.464
N14625 G1 X205.904 Z-8.506
N14630 G1 X203.793 Z-8.514
N14635 G3 X203.19 Z-7.914 I-0.002 K0.6 F1000
N14640 G0 Z5
N14645 G0 X206.493 Y311.529
N14650 G0 Z-6.56
N14655 G1 Z-8.33 F1000
N14660 G2 X207.636 Z-8.587 I0.6 K0
N14665 G1 X207.637 Z-8.584 F420
N14670 G1 X211.662 Z-8.529
N14675 G1 X216.192 Z-8.433
N14680 G1 X220.357 Z-8.31
N14685 G1 X225.35 Z-8.122
N14690 G1 X230.406 Z-7.887
N14695 G1 X235.447 Z-7.61
N14700 G1 X240.577 Z-7.286
N14705 G1 X245.838 Z-6.909
N14710 G1 X250.568 Z-6.532
N14715 G1 X254.804 Z-6.163
N14720 G1 X259.105 Z-5.759
N14725 G1 X264.106 Z-5.25
N14730 G1 X268.648 Z-4.751
N14735 G1 X273.588 Z-4.171
N14740 G1 X274.586 Z-4.053
N14745 G1 X274.617 Y311.531 Z-4.05
N14750 G1 X274.647 Y311.536 Z-4.048
N14755 G1 X274.677 Y311.545 Z-4.046
N14760 G1 X274.705 Y311.558
N14765 G1 X274.732 Y311.573 Z-4.047
N14770 G1 X274.757 Y311.592 Z-4.048
N14775 G1 X274.779 Y311.613 Z-4.05
N14780 G1 X274.799 Y311.637 Z-4.054
N14785 G1 X274.816 Y311.663 Z-4.058
N14790 G1 X274.829 Y311.691 Z-4.063
N14795 G1 X274.839 Y311.719 Z-4.069
N14800 G1 X274.845 Y311.749 Z-4.075
N14805 G1 X274.848 Y311.779 Z-4.082
N14810 G1 X274.847 Y311.809 Z-4.089
N14815 G1 X274.842 Y311.839 Z-4.097
N14820 G1 X274.834 Y311.868 Z-4.105
N14825 G1 X274.822 Y311.895 Z-4.113
N14830 G1 X274.807 Y311.921 Z-4.121
N14835 G1 X274.789 Y311.945 Z-4.129
N14840 G1 X274.767 Y311.966 Z-4.136
N14845 G1 X274.744 Y311.985 Z-4.144
N14850 G1 X274.718 Y312.001 Z-4.15
N14855 G1 X274.69 Y312.013 Z-4.157
N14860 G1 X274.661 Y312.022 Z-4.162
N14865 G1 X274.631 Y312.027 Z-4.167
N14870 G1 X274.6 Y312.029 Z-4.171
N14875 G1 X269.77 Z-4.742
N14880 G1 X264.996 Z-5.272
N14885 G1 X260.177 Z-5.765
N14890 G1 X255.856 Z-6.175
N14895 G1 X251.321 Z-6.574
N14900 G1 X246.082 Z-6.992
N14905 G1 X241.092 Z-7.349
N14910 G1 X236.48 Z-7.643
N14915 G1 X231.782 Z-7.908
N14920 G1 X226.806 Z-8.149
N14925 G1 X221.652 Z-8.355
N14930 G1 X216.801 Z-8.504
N14935 G1 X212.284 Z-8.607
N14940 G1 X210.826 Z-8.632
N14945 G3 X210.216 Z-8.032 I-0.01 K0.6 F1000
N14950 G0 Z5
N14955 G0 X212.42 Y312.529
N14960 G0 Z-6.661
N14965 G1 Z-8.587 F1000
N14970 G2 X213.611 Z-8.688 I0.6 K0
N14975 G1 X213.615 Z-8.668 F420
N14980 G1 X213.928 Z-8.66
N14985 G1 X218.306 Z-8.549
N14990 G1 X223.312 Z-8.382
N14995 G1 X228.383 Z-8.167
N15000 G1 X233.219 Z-7.923
N15005 G1 X237.686 Z-7.664
N15010 G1 X242.167 Z-7.373
N15015 G1 X246.577 Z-7.054
N15020 G1 X251.655 Z-6.651
N15025 G1 X256.74 Z-6.202
N15030 G1 X261.001 Z-5.795
N15035 G1 X265.825 Z-5.298
N15040 G1 X270.655 Z-4.76
N15045 G1 X275.604 Z-4.171
N15050 G1 X276.587 Z-4.053
N15055 G1 X276.617 Y312.531 Z-4.05
N15060 G1 X276.648 Y312.536 Z-4.048
N15065 G1 X276.678 Y312.545 Z-4.046
N15070 G1 X276.706 Y312.558
N15075 G1 X276.733 Y312.573
N15080 G1 X276.758 Y312.592 Z-4.048
N15085 G1 X276.78 Y312.613 Z-4.05
N15090 G1 X276.8 Y312.637 Z-4.054
N15095 G1 X276.816 Y312.663 Z-4.058
N15100 G1 X276.83 Y312.69 Z-4.063
N15105 G1 X276.84 Y312.719 Z-4.069
N15110 G1 X276.846 Y312.749 Z-4.075
N15115 G1 X276.849 Y312.779 Z-4.082
N15120 G1 X276.848 Y312.809 Z-4.089
N15125 G1 X276.843 Y312.839 Z-4.097
N15130 G1 X276.835 Y312.868 Z-4.105
N15135 G1 X276.823 Y312.895 Z-4.113
N15140 G1 X276.808 Y312.921 Z-4.121
N15145 G1 X276.789 Y312.945 Z-4.128
N15150 G1 X276.768 Y312.966 Z-4.136
N15155 G1 X276.744 Y312.985 Z-4.143
N15160 G1 X276.719 Y313 Z-4.15
N15165 G1 X276.691 Y313.013 Z-4.156
N15170 G1 X276.662 Y313.022 Z-4.162
N15175 G1 X276.632 Y313.027 Z-4.167
N15180 G1 X276.601 Y313.029 Z-4.171
N15185 G1 X271.786 Z-4.748
N15190 G1 X267.057 Z-5.281
N15195 G1 X262.229 Z-5.783
N15200 G1 X257.96 Z-6.196
N15205 G1 X253.014 Z-6.639
N15210 G1 X247.92 Z-7.052
N15215 G1 X243.432 Z-7.382
N15220 G1 X239.001 Z-7.676
N15225 G1 X234.603 Z-7.938
N15230 G1 X229.937 Z-8.182
N15235 G1 X224.994 Z-8.403
N15240 G1 X219.864 Z-8.588
N15245 G1 X216.11 Z-8.695
N15250 G1 X216.062 Z-8.692
N15255 G1 X216.014 Z-8.682
N15260 G1 X215.969 Z-8.664
N15265 G1 X215.905 Z-8.642
N15270 G1 X215.837 Z-8.634
N15275 G17 G2 Y313.529 I0 J0.25
N15280 G1 X218.052
N15285 G1 X218.12 Z-8.642
N15290 G1 X218.184 Z-8.664
N15295 G1 X218.231 Z-8.688
N15300 G1 X218.277 Z-8.705
N15305 G1 X218.324 Z-8.716
N15310 G1 X218.373 Z-8.718
N15315 G1 X221.37 Z-8.623
N15320 G1 X226.555 Z-8.424
N15325 G1 X231.238 Z-8.206
N15330 G1 X235.624 Z-7.971
N15335 G1 X240.045 Z-7.703
N15340 G1 X244.41 Z-7.409
N15345 G1 X248.773 Z-7.085
N15350 G1 X253.553 Z-6.695
N15355 G1 X258.722 Z-6.232
N15360 G1 X263.149 Z-5.801
N15365 G1 X267.674 Z-5.328
N15370 G1 X272.63 Z-4.769
N15375 G1 X277.59 Z-4.171
N15380 G1 X278.557 Z-4.054
N15385 G1 X278.588 Y313.531 Z-4.051
N15390 G1 X278.618 Y313.536 Z-4.048
N15395 G1 X278.648 Y313.545 Z-4.047
N15400 G1 X278.676 Y313.558 Z-4.046
N15405 G1 X278.703 Y313.573 Z-4.047
N15410 G1 X278.728 Y313.592 Z-4.048
N15415 G1 X278.75 Y313.613 Z-4.05
N15420 G1 X278.77 Y313.637 Z-4.054
N15425 G1 X278.787 Y313.663 Z-4.058
N15430 G1 X278.8 Y313.69 Z-4.063
N15435 G1 X278.81 Y313.719 Z-4.068
N15440 G1 X278.817 Y313.749 Z-4.075
N15445 G1 X278.819 Y313.779 Z-4.082
N15450 G1 X278.818 Y313.809 Z-4.089
N15455 G1 X278.814 Y313.839 Z-4.096
N15460 G1 X278.805 Y313.868 Z-4.104
N15465 G1 X278.793 Y313.895 Z-4.112
N15470 G1 X278.778 Y313.921 Z-4.12
N15475 G1 X278.76 Y313.945 Z-4.128
N15480 G1 X278.739 Y313.966 Z-4.136
N15485 G1 X278.715 Y313.985 Z-4.143
N15490 G1 X278.689 Y314 Z-4.15
N15495 G1 X278.661 Y314.013 Z-4.156
N15500 G1 X278.632 Y314.022 Z-4.162
N15505 G1 X278.602 Y314.027 Z-4.167
N15510 G1 X278.571 Y314.029 Z-4.171
N15515 G1 X273.667 Z-4.766
N15520 G1 X268.912 Z-5.307
N15525 G1 X264.208 Z-5.804
N15530 G1 X259.792 Z-6.238
N15535 G1 X254.639 Z-6.704
N15540 G1 X249.956 Z-7.091
N15545 G1 X245.583 Z-7.421
N15550 G1 X241.114 Z-7.727
N15555 G1 X236.52 Z-8.01
N15560 G1 X232.031 Z-8.254
N15565 G1 X227.764 Z-8.457
N15570 G1 X222.888 Z-8.654
N15575 G1 X220.444 Z-8.738
N15580 G18 G3 X220.133 Z-8.438 I-0.01 K0.3 F1000
N15585 G1 X220.141 Y314.031 Z-8.324 F420
N15590 G1 X220.163 Y314.038 Z-8.211
N15595 G1 X220.2 Y314.05 Z-8.103
N15600 G1 X220.25 Y314.065 Z-8.001
N15605 G1 X220.314 Y314.085 Z-7.907
N15610 G1 X220.389 Y314.108 Z-7.823
N15615 G1 X220.474 Y314.135 Z-7.75
N15620 G1 X220.568 Y314.164 Z-7.69
N15625 G1 X220.668 Y314.195 Z-7.644
N15630 G1 X220.774 Y314.228 Z-7.613
N15635 G1 X220.883 Y314.262 Z-7.598
N15640 G1 X220.993 Y314.296
N15645 G1 X221.102 Y314.33 Z-7.613
N15650 G1 X221.207 Y314.363 Z-7.644
N15655 G1 X221.308 Y314.394 Z-7.69
N15660 G1 X221.402 Y314.423 Z-7.75
N15665 G1 X221.487 Y314.45 Z-7.823
N15670 G1 X221.562 Y314.473 Z-7.907
N15675 G1 X221.625 Y314.493 Z-8.001
N15680 G1 X221.676 Y314.508 Z-8.103
N15685 G1 X221.713 Y314.52 Z-8.211
N15690 G1 X221.735 Y314.527 Z-8.324
N15695 G1 X221.742 Y314.529 Z-8.438
N15700 G1 Z-8.749
N15705 G2 X222.341 Z-8.776 I0.3 K0 F1000
N15710 G1 X222.343 Z-8.757 F420
N15715 G1 X225.602 Z-8.633
N15720 G1 X230.887 Z-8.398
N15725 G1 X236.353 Z-8.11
N15730 G1 X241.859 Z-7.771
N15735 G1 X246.656 Z-7.438
N15740 G1 X251.088 Z-7.099
N15745 G1 X255.577 Z-6.725
N15750 G1 X260.727 Z-6.255
N15755 G1 X265.199 Z-5.812
N15760 G1 X269.627 Z-5.342
N15765 G1 X274.6 Z-4.774
N15770 G1 X279.547 Z-4.171
N15775 G1 X280.499 Z-4.054
N15780 G1 X280.53 Y314.531 Z-4.051
N15785 G1 X280.56 Y314.536 Z-4.049
N15790 G1 X280.59 Y314.545 Z-4.047
N15795 G1 X280.618 Y314.558 Z-4.046
N15800 G1 X280.645 Y314.573 Z-4.047
N15805 G1 X280.67 Y314.592 Z-4.048
N15810 G1 X280.692 Y314.613 Z-4.051
N15815 G1 X280.712 Y314.637 Z-4.054
N15820 G1 X280.728 Y314.663 Z-4.058
N15825 G1 X280.742 Y314.69 Z-4.063
N15830 G1 X280.752 Y314.719 Z-4.068
N15835 G1 X280.758 Y314.749 Z-4.075
N15840 G1 X280.761 Y314.779 Z-4.081
N15845 G1 X280.76 Y314.809 Z-4.089
N15850 G1 X280.755 Y314.839 Z-4.096
N15855 G1 X280.747 Y314.868 Z-4.104
N15860 G1 X280.735 Y314.895 Z-4.112
N15865 G1 X280.72 Y314.921 Z-4.12
N15870 G1 X280.702 Y314.945 Z-4.128
N15875 G1 X280.681 Y314.966 Z-4.136
N15880 G1 X280.657 Y314.985 Z-4.143
N15885 G1 X280.631 Y315 Z-4.15
N15890 G1 X280.603 Y315.013 Z-4.156
N15895 G1 X280.574 Y315.022 Z-4.162
N15900 G1 X280.544 Y315.027 Z-4.167
N15905 G1 X280.513 Y315.029 Z-4.171
N15910 G1 X275.563 Z-4.778
N15915 G1 X270.674 Z-5.34
N15920 G1 X266.196 Z-5.819
N15925 G1 X261.393 Z-6.298
N15930 G1 X256.353 Z-6.758
N15935 G1 X252.072 Z-7.118
N15940 G1 X247.491 Z-7.472
N15945 G1 X242.205 Z-7.84
N15950 G1 X236.866 Z-8.167
N15955 G1 X231.976 Z-8.429
N15960 G1 X226.93 Z-8.661
N15965 G1 X224.094 Z-8.775
N15970 G1 X224.093 Z-8.782
N15975 G3 X223.795 Z-9.053 I-0.299 K0.029
N15980 G1 X223.765 Y315.031
N15985 G1 X223.735 Y315.036
N15990 G1 X223.706 Y315.045 Z-9.054
N15995 G1 X223.678 Y315.058 Z-9.055
N16000 G1 X223.652 Y315.073 Z-9.056
N16005 G1 X223.629 Y315.092 Z-9.057
N16010 G1 X223.607 Y315.113 Z-9.059
N16015 G1 X223.588 Y315.137 Z-9.061
N16020 G1 X223.573 Y315.163 Z-9.062
N16025 G1 X223.56 Y315.19 Z-9.064
N16030 G1 X223.551 Y315.219 Z-9.066
N16035 G1 X223.546 Y315.249 Z-9.068
N16040 G1 X223.544 Y315.279 Z-9.071
N16045 G1 X223.546 Y315.309 Z-9.073
N16050 G1 X223.551 Y315.339 Z-9.075
N16055 G1 X223.56 Y315.368 Z-9.077
N16060 G1 X223.573 Y315.395 Z-9.079
N16065 G1 X223.588 Y315.421 Z-9.08
N16070 G1 X223.607 Y315.445 Z-9.082
N16075 G1 X223.629 Y315.466 Z-9.084
N16080 G1 X223.652 Y315.485 Z-9.085
N16085 G1 X223.678 Y315.5 Z-9.086
N16090 G1 X223.706 Y315.513 Z-9.087
N16095 G1 X223.735 Y315.522 Z-9.088
N16100 G1 X223.765 Y315.527
N16105 G1 X223.795 Y315.529
N16110 G1 X225.425
N16115 G2 X225.725 Z-8.805 I0 K0.3
N16120 G1 Z-8.793
N16125 G1 X228.481 Z-8.676
N16130 G1 X233.29 Z-8.447
N16135 G1 X238.011 Z-8.188
N16140 G1 X243.08 Z-7.873
N16145 G1 X248.483 Z-7.493
N16150 G1 X253.091 Z-7.133
N16155 G1 X257.466 Z-6.761
N16160 G1 X262.55 Z-6.292
N16165 G1 X267.193 Z-5.825
N16170 G1 X271.694 Z-5.34
N16175 G1 X276.651 Z-4.766
N16180 G1 X281.474 Z-4.171
N16185 G1 X282.414 Z-4.055
N16190 G1 X282.445 Y315.531 Z-4.051
N16195 G1 X282.475 Y315.536 Z-4.049
N16200 G1 X282.505 Y315.545 Z-4.047
N16205 G1 X282.533 Y315.558
N16210 G1 X282.56 Y315.573
N16215 G1 X282.585 Y315.592 Z-4.048
N16220 G1 X282.607 Y315.613 Z-4.05
N16225 G1 X282.627 Y315.637 Z-4.054
N16230 G1 X282.643 Y315.663 Z-4.058
N16235 G1 X282.657 Y315.69 Z-4.063
N16240 G1 X282.667 Y315.719 Z-4.068
N16245 G1 X282.673 Y315.749 Z-4.074
N16250 G1 X282.676 Y315.779 Z-4.081
