%
(BottomPocket)
(BottomPocket)
(T1 D=6 CR=0 - ZMIN=-22 - flat end mill)
N10 G90 G94
N15 G17
N20 G21
N25 G28 G91 Z0
N30 G90

(2D Pocket8)
N35 T1 M6
N40 S14000 M3
N45 G54
N50 G0 X249.027 Y207.573
N55 G0 G43 Z15 H1
N60 G0 Z1
N65 G1 Z-0.9 F1000
N70 G1 X249.063 Y207.566 Z-1.107 F333.3
N75 G1 X249.168 Y207.551 Z-1.289
N80 G1 X249.33 Y207.535 Z-1.423
N85 G1 X249.528 Y207.528 Z-1.493
N90 G1 X249.604 Y207.529 Z-1.5
N95 G3 X249.453 Y213.227 Z-1.813 I-0.075 J2.849
N100 G3 X249.604 Y207.529 Z-2.125 I0.075 J-2.849
N105 G3 X249.453 Y213.227 Z-2.438 I-0.075 J2.849
N110 G3 X249.604 Y207.529 Z-2.751 I0.075 J-2.849
N115 G3 X249.453 Y213.227 Z-3.063 I-0.075 J2.849
N120 G3 X249.604 Y207.529 Z-3.376 I0.075 J-2.849
N125 G3 X249.453 Y213.227 Z-3.689 I-0.075 J2.849
N130 G3 X249.604 Y207.529 Z-4.001 I0.075 J-2.849
N135 G3 X249.453 Y213.227 Z-4.314 I-0.075 J2.849
N140 G3 X249.604 Y207.529 Z-4.627 I0.075 J-2.849
N145 G3 X249.453 Y213.227 Z-4.939 I-0.075 J2.849
N150 G3 X249.604 Y207.529 Z-5.252 I0.075 J-2.849
N155 G3 X249.453 Y213.227 Z-5.565 I-0.075 J2.849
N160 G3 X249.604 Y207.529 Z-5.877 I0.075 J-2.849
N165 G3 X249.453 Y213.227 Z-6.19 I-0.075 J2.849
N170 G3 X249.528 Y207.528 Z-6.5 I0.075 J-2.849
N175 G1 X306.596 F420
N180 G3 X306.916 Y207.848 I0 J0.319
N185 G1 Y209.343
N190 G3 X306.596 Y209.662 I-0.319 J0
N195 G1 X248.781
N200 G3 X248.461 Y209.343 I0 J-0.319
N205 G1 Y207.848
N210 G3 X248.781 Y207.528 I0.319 J0
N215 G1 X249.528
N220 G2 X251.16 Y206.44 I0 J-1.768
N225 G3 X252.792 Y205.352 I1.632 J0.68
N230 G1 X308.772
N235 G3 X309.092 Y205.672 I0 J0.319
N240 G1 Y211.519
N245 G3 X308.772 Y211.838 I-0.319 J0
N250 G1 X246.605
N255 G3 X246.285 Y211.519 I0 J-0.319
N260 G1 Y205.672
N265 G3 X246.605 Y205.352 I0.319 J0
N270 G1 X252.792
N275 G2 X256.436 Y202.926 I0 J-3.949
N280 G3 X260.08 Y200.499 I3.641 J1.518
N285 G1 X309.565 Y200.532
N290 G2 X311.629 Y200.382 I0 J-14.317
N295 G2 X313.658 Y199.981 I-2.943 J-20.202
N300 G3 X313.957 Y200.214 I0.059 J0.233
N305 G1 Y216.823
N310 G3 X313.656 Y217.068 I-0.25 J0
N315 G2 X311.926 Y216.772 I-4.614 J21.806
N320 G2 X310.176 Y216.659 I-1.75 J13.408
N325 G1 X241.739 Y216.704
N330 G3 X241.42 Y216.384 I0 J-0.319
N335 G1 Y200.806
N340 G3 X241.739 Y200.487 I0.319 J0
N345 G1 X260.08 Y200.499
N350 G2 X263.474 Y198.239 I0.002 J-3.675
N355 G3 X266.868 Y195.98 I3.392 J1.416
N360 G1 X309.565 Y196.006
N365 G2 X314.259 Y195.053 I0 J-12.04
N370 G2 X318.234 Y192.379 I-4.904 J-11.583
N375 G3 X318.482 Y192.482 I0.103 J0.103
N380 G1 Y224.121
N385 G3 X318.228 Y224.237 I-0.154 J0
N390 G2 X314.478 Y221.983 I-8.287 J9.543
N395 G2 X310.176 Y221.185 I-4.302 J11.187
N400 G1 X237.207 Y221.229
N405 G3 X236.895 Y220.916 I0 J-0.313
N410 G1 Y196.274
N415 G3 X237.207 Y195.962 I0.313 J0
N420 G1 X266.868 Y195.98
N425 G2 X269.699 Y194.094 I0.002 J-3.066
N430 G3 X272.53 Y192.209 I2.829 J1.181
N435 G1 X309.565 Y192.231
N440 G2 X318.116 Y183.68 I0 J-8.551
N445 G2 X318.093 Y181.857 I-73.918 J0
N450 G3 X318.071 Y180.033 I73.896 J-1.824
N455 G3 X318.39 Y179.714 I0.319 J0
N460 G1 X321.938
N465 G3 X322.258 Y180.033 I0 J0.319
N470 G1 Y229.618
N475 G3 X321.938 Y229.937 I-0.319 J0
N480 G1 X318.286
N485 G3 X317.73 Y229.599 I0 J-0.626
N490 G2 X314.603 Y226.22 I-7.693 J3.983
N495 G2 X310.176 Y224.959 I-4.427 J7.137
N500 G1 X233.439 Y225.004
N505 G3 X233.119 Y224.685 I0 J-0.319
N510 G1 Y192.506
N515 G3 X233.439 Y192.186 I0.319 J0
N520 G1 X272.53 Y192.209
N525 G2 X276.679 Y189.445 I0.003 J-4.491
N530 G3 X280.827 Y186.68 I4.148 J1.73
N535 G1 X309.565
N540 G2 X312.565 Y183.68 I0 J-3
N545 G1 Y179.207
N550 G3 X317.565 Y174.207 I5 J0
N555 G1 X322.764
N560 G3 X327.764 Y179.207 I0 J5
N565 G1 Y230.443
N570 G3 X322.764 Y235.443 I-5 J0
N575 G1 X317.565
N580 G3 X312.947 Y232.36 I0 J-5
N585 G2 X310.176 Y230.51 I-2.771 J1.15
N590 G1 X232.613
N595 G3 X227.613 Y225.51 I0 J-5
N600 G1 Y191.68
N605 G3 X232.613 Y186.68 I5 J0
N610 G1 X280.827
N615 G3 X281.074 Y187.152 I0 J0.3
N620 G1 X274.64 Y196.389
N625 G1 X274.605 Y196.43
N630 G1 X274.564 Y196.464
N635 G1 X274.518 Y196.49
N640 G1 X249.868 Y207.726
N645 G1 X249.572 Y207.753
N650 G1 X249.532 Y207.749
N655 G1 X249.496 Y207.731
N660 G1 X249.469 Y207.701
N665 G1 X249.454 Y207.664
N670 G1 X249.453 Y207.624
N675 G1 X249.466 Y207.586
N680 G1 X249.492 Y207.555
N685 G1 X249.526 Y207.535
N690 G1 X249.566 Y207.529
N695 G3 X249.49 Y213.228 Z-6.813 I-0.038 J2.85 F333.3
N700 G3 X249.566 Y207.529 Z-7.125 I0.038 J-2.85
N705 G3 X249.49 Y213.228 Z-7.438 I-0.038 J2.85
N710 G3 X249.566 Y207.529 Z-7.751 I0.038 J-2.85
N715 G3 X249.49 Y213.228 Z-8.063 I-0.038 J2.85
N720 G3 X249.566 Y207.529 Z-8.376 I0.038 J-2.85
N725 G3 X249.49 Y213.228 Z-8.689 I-0.038 J2.85
N730 G3 X249.528 Y207.528 Z-9 I0.038 J-2.85
N735 G1 X306.596 F420
N740 G3 X306.916 Y207.848 I0 J0.319
N745 G1 Y209.343
N750 G3 X306.596 Y209.662 I-0.319 J0
N755 G1 X248.781
N760 G3 X248.461 Y209.343 I0 J-0.319
N765 G1 Y207.848
N770 G3 X248.781 Y207.528 I0.319 J0
N775 G1 X249.528
N780 G2 X251.16 Y206.44 I0 J-1.768
N785 G3 X252.792 Y205.352 I1.632 J0.68
N790 G1 X308.772
N795 G3 X309.092 Y205.672 I0 J0.319
N800 G1 Y211.519
N805 G3 X308.772 Y211.838 I-0.319 J0
N810 G1 X246.605
N815 G3 X246.285 Y211.519 I0 J-0.319
N820 G1 Y205.672
N825 G3 X246.605 Y205.352 I0.319 J0
N830 G1 X252.792
N835 G2 X256.436 Y202.926 I0 J-3.949
N840 G3 X260.08 Y200.499 I3.641 J1.518
N845 G1 X309.565 Y200.532
N850 G2 X311.629 Y200.382 I0 J-14.317
N855 G2 X313.658 Y199.981 I-2.943 J-20.202
N860 G3 X313.957 Y200.214 I0.059 J0.233
N865 G1 Y216.823
N870 G3 X313.656 Y217.068 I-0.25 J0
N875 G2 X311.926 Y216.772 I-4.614 J21.806
N880 G2 X310.176 Y216.659 I-1.75 J13.408
N885 G1 X241.739 Y216.704
N890 G3 X241.42 Y216.384 I0 J-0.319
N895 G1 Y200.806
N900 G3 X241.739 Y200.487 I0.319 J0
N905 G1 X260.08 Y200.499
N910 G2 X263.474 Y198.239 I0.002 J-3.675
N915 G3 X266.868 Y195.98 I3.392 J1.416
N920 G1 X309.565 Y196.006
N925 G2 X314.259 Y195.053 I0 J-12.04
N930 G2 X318.234 Y192.379 I-4.904 J-11.583
N935 G3 X318.482 Y192.482 I0.103 J0.103
N940 G1 Y224.121
N945 G3 X318.228 Y224.237 I-0.154 J0
N950 G2 X314.478 Y221.983 I-8.287 J9.543
N955 G2 X310.176 Y221.185 I-4.302 J11.187
N960 G1 X237.207 Y221.229
N965 G3 X236.895 Y220.916 I0 J-0.313
N970 G1 Y196.274
N975 G3 X237.207 Y195.962 I0.313 J0
N980 G1 X266.868 Y195.98
N985 G2 X269.699 Y194.094 I0.002 J-3.066
N990 G3 X272.53 Y192.209 I2.829 J1.181
N995 G1 X309.565 Y192.231
N1000 G2 X318.116 Y183.68 I0 J-8.551
N1005 G2 X318.093 Y181.857 I-73.918 J0
N1010 G3 X318.071 Y180.033 I73.896 J-1.824
N1015 G3 X318.39 Y179.714 I0.319 J0
N1020 G1 X321.938
N1025 G3 X322.258 Y180.033 I0 J0.319
N1030 G1 Y229.618
N1035 G3 X321.938 Y229.937 I-0.319 J0
N1040 G1 X318.286
N1045 G3 X317.73 Y229.599 I0 J-0.626
N1050 G2 X314.603 Y226.22 I-7.693 J3.983
N1055 G2 X310.176 Y224.959 I-4.427 J7.137
N1060 G1 X233.439 Y225.004
N1065 G3 X233.119 Y224.685 I0 J-0.319
N1070 G1 Y192.506
N1075 G3 X233.439 Y192.186 I0.319 J0
N1080 G1 X272.53 Y192.209
N1085 G2 X276.679 Y189.445 I0.003 J-4.491
N1090 G3 X280.827 Y186.68 I4.148 J1.73
N1095 G1 X309.565
N1100 G2 X312.565 Y183.68 I0 J-3
N1105 G1 Y179.207
N1110 G3 X317.565 Y174.207 I5 J0
N1115 G1 X322.764
N1120 G3 X327.764 Y179.207 I0 J5
N1125 G1 Y230.443
N1130 G3 X322.764 Y235.443 I-5 J0
N1135 G1 X317.565
N1140 G3 X312.947 Y232.36 I0 J-5
N1145 G2 X310.176 Y230.51 I-2.771 J1.15
N1150 G1 X232.613
N1155 G3 X227.613 Y225.51 I0 J-5
N1160 G1 Y191.68
N1165 G3 X232.613 Y186.68 I5 J0
N1170 G1 X280.827
N1175 G3 X281.074 Y187.152 I0 J0.3
N1180 G1 X274.64 Y196.389
N1185 G1 X274.605 Y196.43
N1190 G1 X274.564 Y196.464
N1195 G1 X274.518 Y196.49
N1200 G1 X249.868 Y207.726
N1205 G1 X249.572 Y207.753
N1210 G1 X249.532 Y207.749
N1215 G1 X249.496 Y207.731
N1220 G1 X249.469 Y207.701
N1225 G1 X249.454 Y207.664
N1230 G1 X249.453 Y207.624
N1235 G1 X249.466 Y207.586
N1240 G1 X249.492 Y207.555
N1245 G1 X249.526 Y207.535
N1250 G1 X249.566 Y207.529
N1255 G3 X249.49 Y213.228 Z-9.313 I-0.038 J2.85 F333.3
N1260 G3 X249.566 Y207.529 Z-9.625 I0.038 J-2.85
N1265 G3 X249.49 Y213.228 Z-9.938 I-0.038 J2.85
N1270 G3 X249.566 Y207.529 Z-10.251 I0.038 J-2.85
N1275 G3 X249.49 Y213.228 Z-10.563 I-0.038 J2.85
N1280 G3 X249.566 Y207.529 Z-10.876 I0.038 J-2.85
N1285 G3 X249.49 Y213.228 Z-11.189 I-0.038 J2.85
N1290 G3 X249.528 Y207.528 Z-11.5 I0.038 J-2.85
N1295 G1 X306.596 F420
N1300 G3 X306.916 Y207.848 I0 J0.319
N1305 G1 Y209.343
N1310 G3 X306.596 Y209.662 I-0.319 J0
N1315 G1 X248.781
N1320 G3 X248.461 Y209.343 I0 J-0.319
N1325 G1 Y207.848
N1330 G3 X248.781 Y207.528 I0.319 J0
N1335 G1 X249.528
N1340 G2 X251.16 Y206.44 I0 J-1.768
N1345 G3 X252.792 Y205.352 I1.632 J0.68
N1350 G1 X308.772
N1355 G3 X309.092 Y205.672 I0 J0.319
N1360 G1 Y211.519
N1365 G3 X308.772 Y211.838 I-0.319 J0
N1370 G1 X246.605
N1375 G3 X246.285 Y211.519 I0 J-0.319
N1380 G1 Y205.672
N1385 G3 X246.605 Y205.352 I0.319 J0
N1390 G1 X252.792
N1395 G2 X256.436 Y202.926 I0 J-3.949
N1400 G3 X260.08 Y200.499 I3.641 J1.518
N1405 G1 X309.565 Y200.532
N1410 G2 X311.629 Y200.382 I0 J-14.317
N1415 G2 X313.658 Y199.981 I-2.943 J-20.202
N1420 G3 X313.957 Y200.214 I0.059 J0.233
N1425 G1 Y216.823
N1430 G3 X313.656 Y217.068 I-0.25 J0
N1435 G2 X311.926 Y216.772 I-4.614 J21.806
N1440 G2 X310.176 Y216.659 I-1.75 J13.408
N1445 G1 X241.739 Y216.704
N1450 G3 X241.42 Y216.384 I0 J-0.319
N1455 G1 Y200.806
N1460 G3 X241.739 Y200.487 I0.319 J0
N1465 G1 X260.08 Y200.499
N1470 G2 X263.474 Y198.239 I0.002 J-3.675
N1475 G3 X266.868 Y195.98 I3.392 J1.416
N1480 G1 X309.565 Y196.006
N1485 G2 X314.259 Y195.053 I0 J-12.04
N1490 G2 X318.234 Y192.379 I-4.904 J-11.583
N1495 G3 X318.482 Y192.482 I0.103 J0.103
N1500 G1 Y224.121
N1505 G3 X318.228 Y224.237 I-0.154 J0
N1510 G2 X314.478 Y221.983 I-8.287 J9.543
N1515 G2 X310.176 Y221.185 I-4.302 J11.187
N1520 G1 X237.207 Y221.229
N1525 G3 X236.895 Y220.916 I0 J-0.313
N1530 G1 Y196.274
N1535 G3 X237.207 Y195.962 I0.313 J0
N1540 G1 X266.868 Y195.98
N1545 G2 X269.699 Y194.094 I0.002 J-3.066
N1550 G3 X272.53 Y192.209 I2.829 J1.181
N1555 G1 X309.565 Y192.231
N1560 G2 X318.116 Y183.68 I0 J-8.551
N1565 G2 X318.093 Y181.857 I-73.918 J0
N1570 G3 X318.071 Y180.033 I73.896 J-1.824
N1575 G3 X318.39 Y179.714 I0.319 J0
N1580 G1 X321.938
N1585 G3 X322.258 Y180.033 I0 J0.319
N1590 G1 Y229.618
N1595 G3 X321.938 Y229.937 I-0.319 J0
N1600 G1 X318.286
N1605 G3 X317.73 Y229.599 I0 J-0.626
N1610 G2 X314.603 Y226.22 I-7.693 J3.983
N1615 G2 X310.176 Y224.959 I-4.427 J7.137
N1620 G1 X233.439 Y225.004
N1625 G3 X233.119 Y224.685 I0 J-0.319
N1630 G1 Y192.506
N1635 G3 X233.439 Y192.186 I0.319 J0
N1640 G1 X272.53 Y192.209
N1645 G2 X276.679 Y189.445 I0.003 J-4.491
N1650 G3 X280.827 Y186.68 I4.148 J1.73
N1655 G1 X309.565
N1660 G2 X312.565 Y183.68 I0 J-3
N1665 G1 Y179.207
N1670 G3 X317.565 Y174.207 I5 J0
N1675 G1 X322.764
N1680 G3 X327.764 Y179.207 I0 J5
N1685 G1 Y230.443
N1690 G3 X322.764 Y235.443 I-5 J0
N1695 G1 X317.565
N1700 G3 X312.947 Y232.36 I0 J-5
N1705 G2 X310.176 Y230.51 I-2.771 J1.15
N1710 G1 X232.613
N1715 G3 X227.613 Y225.51 I0 J-5
N1720 G1 Y191.68
N1725 G3 X232.613 Y186.68 I5 J0
N1730 G1 X280.827
N1735 G3 X281.074 Y187.152 I0 J0.3
N1740 G1 X274.64 Y196.389
N1745 G1 X274.605 Y196.43
N1750 G1 X274.564 Y196.464
N1755 G1 X274.518 Y196.49
N1760 G1 X249.868 Y207.726
N1765 G1 X249.572 Y207.753
N1770 G1 X249.532 Y207.749
N1775 G1 X249.496 Y207.731
N1780 G1 X249.469 Y207.701
N1785 G1 X249.454 Y207.664
N1790 G1 X249.453 Y207.624
N1795 G1 X249.466 Y207.586
N1800 G1 X249.492 Y207.555
N1805 G1 X249.526 Y207.535
N1810 G1 X249.566 Y207.529
N1815 G3 X249.49 Y213.228 Z-11.813 I-0.038 J2.85 F333.3
N1820 G3 X249.566 Y207.529 Z-12.125 I0.038 J-2.85
N1825 G3 X249.49 Y213.228 Z-12.438 I-0.038 J2.85
N1830 G3 X249.566 Y207.529 Z-12.751 I0.038 J-2.85
N1835 G3 X249.49 Y213.228 Z-13.063 I-0.038 J2.85
N1840 G3 X249.566 Y207.529 Z-13.376 I0.038 J-2.85
N1845 G3 X249.49 Y213.228 Z-13.689 I-0.038 J2.85
N1850 G3 X249.528 Y207.528 Z-14 I0.038 J-2.85
N1855 G1 X306.596 F420
N1860 G3 X306.916 Y207.848 I0 J0.319
N1865 G1 Y209.343
N1870 G3 X306.596 Y209.662 I-0.319 J0
N1875 G1 X248.781
N1880 G3 X248.461 Y209.343 I0 J-0.319
N1885 G1 Y207.848
N1890 G3 X248.781 Y207.528 I0.319 J0
N1895 G1 X249.528
N1900 G2 X251.16 Y206.44 I0 J-1.768
N1905 G3 X252.792 Y205.352 I1.632 J0.68
N1910 G1 X308.772
N1915 G3 X309.092 Y205.672 I0 J0.319
N1920 G1 Y211.519
N1925 G3 X308.772 Y211.838 I-0.319 J0
N1930 G1 X246.605
N1935 G3 X246.285 Y211.519 I0 J-0.319
N1940 G1 Y205.672
N1945 G3 X246.605 Y205.352 I0.319 J0
N1950 G1 X252.792
N1955 G2 X256.436 Y202.926 I0 J-3.949
N1960 G3 X260.08 Y200.499 I3.641 J1.518
N1965 G1 X309.565 Y200.532
N1970 G2 X311.629 Y200.382 I0 J-14.317
N1975 G2 X313.658 Y199.981 I-2.943 J-20.202
N1980 G3 X313.957 Y200.214 I0.059 J0.233
N1985 G1 Y216.823
N1990 G3 X313.656 Y217.068 I-0.25 J0
N1995 G2 X311.926 Y216.772 I-4.614 J21.806
N2000 G2 X310.176 Y216.659 I-1.75 J13.408
N2005 G1 X241.739 Y216.704
N2010 G3 X241.42 Y216.384 I0 J-0.319
N2015 G1 Y200.806
N2020 G3 X241.739 Y200.487 I0.319 J0
N2025 G1 X260.08 Y200.499
N2030 G2 X263.474 Y198.239 I0.002 J-3.675
N2035 G3 X266.868 Y195.98 I3.392 J1.416
N2040 G1 X309.565 Y196.006
N2045 G2 X314.259 Y195.053 I0 J-12.04
N2050 G2 X318.234 Y192.379 I-4.904 J-11.583
N2055 G3 X318.482 Y192.482 I0.103 J0.103
N2060 G1 Y224.121
N2065 G3 X318.228 Y224.237 I-0.154 J0
N2070 G2 X314.478 Y221.983 I-8.287 J9.543
N2075 G2 X310.176 Y221.185 I-4.302 J11.187
N2080 G1 X237.207 Y221.229
N2085 G3 X236.895 Y220.916 I0 J-0.313
N2090 G1 Y196.274
N2095 G3 X237.207 Y195.962 I0.313 J0
N2100 G1 X266.868 Y195.98
N2105 G2 X269.699 Y194.094 I0.002 J-3.066
N2110 G3 X272.53 Y192.209 I2.829 J1.181
N2115 G1 X309.565 Y192.231
N2120 G2 X318.116 Y183.68 I0 J-8.551
N2125 G2 X318.093 Y181.857 I-73.918 J0
N2130 G3 X318.071 Y180.033 I73.896 J-1.824
N2135 G3 X318.39 Y179.714 I0.319 J0
N2140 G1 X321.938
N2145 G3 X322.258 Y180.033 I0 J0.319
N2150 G1 Y229.618
N2155 G3 X321.938 Y229.937 I-0.319 J0
N2160 G1 X318.286
N2165 G3 X317.73 Y229.599 I0 J-0.626
N2170 G2 X314.603 Y226.22 I-7.693 J3.983
N2175 G2 X310.176 Y224.959 I-4.427 J7.137
N2180 G1 X233.439 Y225.004
N2185 G3 X233.119 Y224.685 I0 J-0.319
N2190 G1 Y192.506
N2195 G3 X233.439 Y192.186 I0.319 J0
N2200 G1 X272.53 Y192.209
N2205 G2 X276.679 Y189.445 I0.003 J-4.491
N2210 G3 X280.827 Y186.68 I4.148 J1.73
N2215 G1 X309.565
N2220 G2 X312.565 Y183.68 I0 J-3
N2225 G1 Y179.207
N2230 G3 X317.565 Y174.207 I5 J0
N2235 G1 X322.764
N2240 G3 X327.764 Y179.207 I0 J5
N2245 G1 Y230.443
N2250 G3 X322.764 Y235.443 I-5 J0
N2255 G1 X317.565
N2260 G3 X312.947 Y232.36 I0 J-5
N2265 G2 X310.176 Y230.51 I-2.771 J1.15
N2270 G1 X232.613
N2275 G3 X227.613 Y225.51 I0 J-5
N2280 G1 Y191.68
N2285 G3 X232.613 Y186.68 I5 J0
N2290 G1 X280.827
N2295 G3 X281.074 Y187.152 I0 J0.3
N2300 G1 X274.64 Y196.389
N2305 G1 X274.605 Y196.43
N2310 G1 X274.564 Y196.464
N2315 G1 X274.518 Y196.49
N2320 G1 X249.868 Y207.726
N2325 G1 X249.572 Y207.753
N2330 G1 X249.532 Y207.749
N2335 G1 X249.496 Y207.731
N2340 G1 X249.469 Y207.701
N2345 G1 X249.454 Y207.664
N2350 G1 X249.453 Y207.624
N2355 G1 X249.466 Y207.586
N2360 G1 X249.492 Y207.555
N2365 G1 X249.526 Y207.535
N2370 G1 X249.566 Y207.529
N2375 G3 X249.49 Y213.228 Z-14.313 I-0.038 J2.85 F333.3
N2380 G3 X249.566 Y207.529 Z-14.625 I0.038 J-2.85
N2385 G3 X249.49 Y213.228 Z-14.938 I-0.038 J2.85
N2390 G3 X249.566 Y207.529 Z-15.251 I0.038 J-2.85
N2395 G3 X249.49 Y213.228 Z-15.563 I-0.038 J2.85
N2400 G3 X249.566 Y207.529 Z-15.876 I0.038 J-2.85
N2405 G3 X249.49 Y213.228 Z-16.189 I-0.038 J2.85
N2410 G3 X249.528 Y207.528 Z-16.5 I0.038 J-2.85
N2415 G1 X306.596 F420
N2420 G3 X306.916 Y207.848 I0 J0.319
N2425 G1 Y209.343
N2430 G3 X306.596 Y209.662 I-0.319 J0
N2435 G1 X248.781
N2440 G3 X248.461 Y209.343 I0 J-0.319
N2445 G1 Y207.848
N2450 G3 X248.781 Y207.528 I0.319 J0
N2455 G1 X249.528
N2460 G2 X251.16 Y206.44 I0 J-1.768
N2465 G3 X252.792 Y205.352 I1.632 J0.68
N2470 G1 X308.772
N2475 G3 X309.092 Y205.672 I0 J0.319
N2480 G1 Y211.519
N2485 G3 X308.772 Y211.838 I-0.319 J0
N2490 G1 X246.605
N2495 G3 X246.285 Y211.519 I0 J-0.319
N2500 G1 Y205.672
N2505 G3 X246.605 Y205.352 I0.319 J0
N2510 G1 X252.792
N2515 G2 X256.436 Y202.926 I0 J-3.949
N2520 G3 X260.08 Y200.499 I3.641 J1.518
N2525 G1 X309.565 Y200.532
N2530 G2 X311.629 Y200.382 I0 J-14.317
N2535 G2 X313.658 Y199.981 I-2.943 J-20.202
N2540 G3 X313.957 Y200.214 I0.059 J0.233
N2545 G1 Y216.823
N2550 G3 X313.656 Y217.068 I-0.25 J0
N2555 G2 X311.926 Y216.772 I-4.614 J21.806
N2560 G2 X310.176 Y216.659 I-1.75 J13.408
N2565 G1 X241.739 Y216.704
N2570 G3 X241.42 Y216.384 I0 J-0.319
N2575 G1 Y200.806
N2580 G3 X241.739 Y200.487 I0.319 J0
N2585 G1 X260.08 Y200.499
N2590 G2 X263.474 Y198.239 I0.002 J-3.675
N2595 G3 X266.868 Y195.98 I3.392 J1.416
N2600 G1 X309.565 Y196.006
N2605 G2 X314.259 Y195.053 I0 J-12.04
N2610 G2 X318.234 Y192.379 I-4.904 J-11.583
N2615 G3 X318.482 Y192.482 I0.103 J0.103
N2620 G1 Y224.121
N2625 G3 X318.228 Y224.237 I-0.154 J0
N2630 G2 X314.478 Y221.983 I-8.287 J9.543
N2635 G2 X310.176 Y221.185 I-4.302 J11.187
N2640 G1 X237.207 Y221.229
N2645 G3 X236.895 Y220.916 I0 J-0.313
N2650 G1 Y196.274
N2655 G3 X237.207 Y195.962 I0.313 J0
N2660 G1 X266.868 Y195.98
N2665 G2 X269.699 Y194.094 I0.002 J-3.066
N2670 G3 X272.53 Y192.209 I2.829 J1.181
N2675 G1 X309.565 Y192.231
N2680 G2 X318.116 Y183.68 I0 J-8.551
N2685 G2 X318.093 Y181.857 I-73.918 J0
N2690 G3 X318.071 Y180.033 I73.896 J-1.824
N2695 G3 X318.39 Y179.714 I0.319 J0
N2700 G1 X321.938
N2705 G3 X322.258 Y180.033 I0 J0.319
N2710 G1 Y229.618
N2715 G3 X321.938 Y229.937 I-0.319 J0
N2720 G1 X318.286
N2725 G3 X317.73 Y229.599 I0 J-0.626
N2730 G2 X314.603 Y226.22 I-7.693 J3.983
N2735 G2 X310.176 Y224.959 I-4.427 J7.137
N2740 G1 X233.439 Y225.004
N2745 G3 X233.119 Y224.685 I0 J-0.319
N2750 G1 Y192.506
N2755 G3 X233.439 Y192.186 I0.319 J0
N2760 G1 X272.53 Y192.209
N2765 G2 X276.679 Y189.445 I0.003 J-4.491
N2770 G3 X280.827 Y186.68 I4.148 J1.73
N2775 G1 X309.565
N2780 G2 X312.565 Y183.68 I0 J-3
N2785 G1 Y179.207
N2790 G3 X317.565 Y174.207 I5 J0
N2795 G1 X322.764
N2800 G3 X327.764 Y179.207 I0 J5
N2805 G1 Y230.443
N2810 G3 X322.764 Y235.443 I-5 J0
N2815 G1 X317.565
N2820 G3 X312.947 Y232.36 I0 J-5
N2825 G2 X310.176 Y230.51 I-2.771 J1.15
N2830 G1 X232.613
N2835 G3 X227.613 Y225.51 I0 J-5
N2840 G1 Y191.68
N2845 G3 X232.613 Y186.68 I5 J0
N2850 G1 X280.827
N2855 G3 X281.074 Y187.152 I0 J0.3
N2860 G1 X274.64 Y196.389
N2865 G1 X274.605 Y196.43
N2870 G1 X274.564 Y196.464
N2875 G1 X274.518 Y196.49
N2880 G1 X249.868 Y207.726
N2885 G1 X249.572 Y207.753
N2890 G1 X249.532 Y207.749
N2895 G1 X249.496 Y207.731
N2900 G1 X249.469 Y207.701
N2905 G1 X249.454 Y207.664
N2910 G1 X249.453 Y207.624
N2915 G1 X249.466 Y207.586
N2920 G1 X249.492 Y207.555
N2925 G1 X249.526 Y207.535
N2930 G1 X249.566 Y207.529
N2935 G3 X249.49 Y213.228 Z-16.813 I-0.038 J2.85 F333.3
N2940 G3 X249.566 Y207.529 Z-17.125 I0.038 J-2.85
N2945 G3 X249.49 Y213.228 Z-17.438 I-0.038 J2.85
N2950 G3 X249.566 Y207.529 Z-17.751 I0.038 J-2.85
N2955 G3 X249.49 Y213.228 Z-18.063 I-0.038 J2.85
N2960 G3 X249.566 Y207.529 Z-18.376 I0.038 J-2.85
N2965 G3 X249.49 Y213.228 Z-18.689 I-0.038 J2.85
N2970 G3 X249.528 Y207.528 Z-19 I0.038 J-2.85
N2975 G1 X306.596 F420
N2980 G3 X306.916 Y207.848 I0 J0.319
N2985 G1 Y209.343
N2990 G3 X306.596 Y209.662 I-0.319 J0
N2995 G1 X248.781
N3000 G3 X248.461 Y209.343 I0 J-0.319
N3005 G1 Y207.848
N3010 G3 X248.781 Y207.528 I0.319 J0
N3015 G1 X249.528
N3020 G2 X251.16 Y206.44 I0 J-1.768
N3025 G3 X252.792 Y205.352 I1.632 J0.68
N3030 G1 X308.772
N3035 G3 X309.092 Y205.672 I0 J0.319
N3040 G1 Y211.519
N3045 G3 X308.772 Y211.838 I-0.319 J0
N3050 G1 X246.605
N3055 G3 X246.285 Y211.519 I0 J-0.319
N3060 G1 Y205.672
N3065 G3 X246.605 Y205.352 I0.319 J0
N3070 G1 X252.792
N3075 G2 X256.436 Y202.926 I0 J-3.949
N3080 G3 X260.08 Y200.499 I3.641 J1.518
N3085 G1 X309.565 Y200.532
N3090 G2 X311.629 Y200.382 I0 J-14.317
N3095 G2 X313.658 Y199.981 I-2.943 J-20.202
N3100 G3 X313.957 Y200.214 I0.059 J0.233
N3105 G1 Y216.823
N3110 G3 X313.656 Y217.068 I-0.25 J0
N3115 G2 X311.926 Y216.772 I-4.614 J21.806
N3120 G2 X310.176 Y216.659 I-1.75 J13.408
N3125 G1 X241.739 Y216.704
N3130 G3 X241.42 Y216.384 I0 J-0.319
N3135 G1 Y200.806
N3140 G3 X241.739 Y200.487 I0.319 J0
N3145 G1 X260.08 Y200.499
N3150 G2 X263.474 Y198.239 I0.002 J-3.675
N3155 G3 X266.868 Y195.98 I3.392 J1.416
N3160 G1 X309.565 Y196.006
N3165 G2 X314.259 Y195.053 I0 J-12.04
N3170 G2 X318.234 Y192.379 I-4.904 J-11.583
N3175 G3 X318.482 Y192.482 I0.103 J0.103
N3180 G1 Y224.121
N3185 G3 X318.228 Y224.237 I-0.154 J0
N3190 G2 X314.478 Y221.983 I-8.287 J9.543
N3195 G2 X310.176 Y221.185 I-4.302 J11.187
N3200 G1 X237.207 Y221.229
N3205 G3 X236.895 Y220.916 I0 J-0.313
N3210 G1 Y196.274
N3215 G3 X237.207 Y195.962 I0.313 J0
N3220 G1 X266.868 Y195.98
N3225 G2 X269.699 Y194.094 I0.002 J-3.066
N3230 G3 X272.53 Y192.209 I2.829 J1.181
N3235 G1 X309.565 Y192.231
N3240 G2 X318.116 Y183.68 I0 J-8.551
N3245 G2 X318.093 Y181.857 I-73.918 J0
N3250 G3 X318.071 Y180.033 I73.896 J-1.824
N3255 G3 X318.39 Y179.714 I0.319 J0
N3260 G1 X321.938
N3265 G3 X322.258 Y180.033 I0 J0.319
N3270 G1 Y229.618
N3275 G3 X321.938 Y229.937 I-0.319 J0
N3280 G1 X318.286
N3285 G3 X317.73 Y229.599 I0 J-0.626
N3290 G2 X314.603 Y226.22 I-7.693 J3.983
N3295 G2 X310.176 Y224.959 I-4.427 J7.137
N3300 G1 X233.439 Y225.004
N3305 G3 X233.119 Y224.685 I0 J-0.319
N3310 G1 Y192.506
N3315 G3 X233.439 Y192.186 I0.319 J0
N3320 G1 X272.53 Y192.209
N3325 G2 X276.679 Y189.445 I0.003 J-4.491
N3330 G3 X280.827 Y186.68 I4.148 J1.73
N3335 G1 X309.565
N3340 G2 X312.565 Y183.68 I0 J-3
N3345 G1 Y179.207
N3350 G3 X317.565 Y174.207 I5 J0
N3355 G1 X322.764
N3360 G3 X327.764 Y179.207 I0 J5
N3365 G1 Y230.443
N3370 G3 X322.764 Y235.443 I-5 J0
N3375 G1 X317.565
N3380 G3 X312.947 Y232.36 I0 J-5
N3385 G2 X310.176 Y230.51 I-2.771 J1.15
N3390 G1 X232.613
N3395 G3 X227.613 Y225.51 I0 J-5
N3400 G1 Y191.68
N3405 G3 X232.613 Y186.68 I5 J0
N3410 G1 X280.827
N3415 G3 X281.07 Y187.156 I0 J0.3
N3420 G1 X279.566 Y189.233
N3425 G1 X279.536 Y189.269
N3430 G1 X279.501 Y189.299
N3435 G1 X248.368 Y212.14
N3440 G1 X248.015 Y212.641
N3445 G1 X247.987 Y212.67
N3450 G1 X247.951 Y212.689
N3455 G1 X247.911 Y212.695
N3460 G1 X247.871 Y212.689
N3465 G1 X247.835 Y212.671
N3470 G3 X251.222 Y208.086 Z-19.313 I1.693 J-2.292 F333.3
N3475 G3 X247.835 Y212.671 Z-19.625 I-1.693 J2.292
N3480 G3 X251.222 Y208.086 Z-19.938 I1.693 J-2.292
N3485 G3 X247.835 Y212.671 Z-20.251 I-1.693 J2.292
N3490 G3 X249.528 Y207.528 Z-20.5 I1.693 J-2.292
N3495 G1 X306.596 F420
N3500 G3 X306.916 Y207.848 I0 J0.319
N3505 G1 Y209.343
N3510 G3 X306.596 Y209.662 I-0.319 J0
N3515 G1 X248.781
N3520 G3 X248.461 Y209.343 I0 J-0.319
N3525 G1 Y207.848
N3530 G3 X248.781 Y207.528 I0.319 J0
N3535 G1 X249.528
N3540 G2 X251.16 Y206.44 I0 J-1.768
N3545 G3 X252.792 Y205.352 I1.632 J0.68
N3550 G1 X308.772
N3555 G3 X309.092 Y205.672 I0 J0.319
N3560 G1 Y211.519
N3565 G3 X308.772 Y211.838 I-0.319 J0
N3570 G1 X246.605
N3575 G3 X246.285 Y211.519 I0 J-0.319
N3580 G1 Y205.672
N3585 G3 X246.605 Y205.352 I0.319 J0
N3590 G1 X252.792
N3595 G2 X256.436 Y202.926 I0 J-3.949
N3600 G3 X260.08 Y200.499 I3.641 J1.518
N3605 G1 X309.565 Y200.532
N3610 G2 X311.629 Y200.382 I0 J-14.317
N3615 G2 X313.658 Y199.981 I-2.943 J-20.202
N3620 G3 X313.957 Y200.214 I0.059 J0.233
N3625 G1 Y216.823
N3630 G3 X313.656 Y217.068 I-0.25 J0
N3635 G2 X311.926 Y216.772 I-4.614 J21.806
N3640 G2 X310.176 Y216.659 I-1.75 J13.408
N3645 G1 X241.739 Y216.704
N3650 G3 X241.42 Y216.384 I0 J-0.319
N3655 G1 Y200.806
N3660 G3 X241.739 Y200.487 I0.319 J0
N3665 G1 X260.08 Y200.499
N3670 G2 X263.474 Y198.239 I0.002 J-3.675
N3675 G3 X266.868 Y195.98 I3.392 J1.416
N3680 G1 X309.565 Y196.006
N3685 G2 X314.259 Y195.053 I0 J-12.04
N3690 G2 X318.234 Y192.379 I-4.904 J-11.583
N3695 G3 X318.482 Y192.482 I0.103 J0.103
N3700 G1 Y224.121
N3705 G3 X318.228 Y224.237 I-0.154 J0
N3710 G2 X314.478 Y221.983 I-8.287 J9.543
N3715 G2 X310.176 Y221.185 I-4.302 J11.187
N3720 G1 X237.207 Y221.229
N3725 G3 X236.895 Y220.916 I0 J-0.313
N3730 G1 Y196.274
N3735 G3 X237.207 Y195.962 I0.313 J0
N3740 G1 X266.868 Y195.98
N3745 G2 X269.699 Y194.094 I0.002 J-3.066
N3750 G3 X272.53 Y192.209 I2.829 J1.181
N3755 G1 X309.565 Y192.231
N3760 G2 X318.116 Y183.68 I0 J-8.551
N3765 G2 X318.093 Y181.857 I-73.918 J0
N3770 G3 X318.071 Y180.033 I73.896 J-1.824
N3775 G3 X318.39 Y179.714 I0.319 J0
N3780 G1 X321.938
N3785 G3 X322.258 Y180.033 I0 J0.319
N3790 G1 Y229.618
N3795 G3 X321.938 Y229.937 I-0.319 J0
N3800 G1 X318.286
N3805 G3 X317.73 Y229.599 I0 J-0.626
N3810 G2 X314.603 Y226.22 I-7.693 J3.983
N3815 G2 X310.176 Y224.959 I-4.427 J7.137
N3820 G1 X233.439 Y225.004
N3825 G3 X233.119 Y224.685 I0 J-0.319
N3830 G1 Y192.506
N3835 G3 X233.439 Y192.186 I0.319 J0
N3840 G1 X272.53 Y192.209
N3845 G2 X276.679 Y189.445 I0.003 J-4.491
N3850 G3 X280.827 Y186.68 I4.148 J1.73
N3855 G1 X309.565
N3860 G2 X312.565 Y183.68 I0 J-3
N3865 G1 Y179.207
N3870 G3 X317.565 Y174.207 I5 J0
N3875 G1 X322.764
N3880 G3 X327.764 Y179.207 I0 J5
N3885 G1 Y230.443
N3890 G3 X322.764 Y235.443 I-5 J0
N3895 G1 X317.565
N3900 G3 X312.947 Y232.36 I0 J-5
N3905 G2 X310.176 Y230.51 I-2.771 J1.15
N3910 G1 X232.613
N3915 G3 X227.613 Y225.51 I0 J-5
N3920 G1 Y191.68
N3925 G3 X232.613 Y186.68 I5 J0
N3930 G1 X280.827
N3935 G3 X281.07 Y187.156 I0 J0.3
N3940 G1 X279.566 Y189.233
N3945 G1 X279.536 Y189.269
N3950 G1 X279.501 Y189.299
N3955 G1 X248.368 Y212.14
N3960 G1 X248.015 Y212.641
N3965 G1 X247.987 Y212.67
N3970 G1 X247.951 Y212.689
N3975 G1 X247.911 Y212.695
N3980 G1 X247.871 Y212.689
N3985 G1 X247.835 Y212.671
N3990 G3 X251.222 Y208.086 Z-20.813 I1.693 J-2.292 F333.3
N3995 G3 X247.835 Y212.671 Z-21.125 I-1.693 J2.292
N4000 G3 X251.222 Y208.086 Z-21.438 I1.693 J-2.292
N4005 G3 X247.835 Y212.671 Z-21.751 I-1.693 J2.292
N4010 G3 X249.528 Y207.528 Z-22 I1.693 J-2.292
N4015 G1 X306.596 F420
N4020 G3 X306.916 Y207.848 I0 J0.319
N4025 G1 Y209.343
N4030 G3 X306.596 Y209.662 I-0.319 J0
N4035 G1 X248.781
N4040 G3 X248.461 Y209.343 I0 J-0.319
N4045 G1 Y207.848
N4050 G3 X248.781 Y207.528 I0.319 J0
N4055 G1 X249.528
N4060 G2 X251.16 Y206.44 I0 J-1.768
N4065 G3 X252.792 Y205.352 I1.632 J0.68
N4070 G1 X308.772
N4075 G3 X309.092 Y205.672 I0 J0.319
N4080 G1 Y211.519
N4085 G3 X308.772 Y211.838 I-0.319 J0
N4090 G1 X246.605
N4095 G3 X246.285 Y211.519 I0 J-0.319
N4100 G1 Y205.672
N4105 G3 X246.605 Y205.352 I0.319 J0
N4110 G1 X252.792
N4115 G2 X256.436 Y202.926 I0 J-3.949
N4120 G3 X260.08 Y200.499 I3.641 J1.518
N4125 G1 X309.565 Y200.532
N4130 G2 X311.629 Y200.382 I0 J-14.317
N4135 G2 X313.658 Y199.981 I-2.943 J-20.202
N4140 G3 X313.957 Y200.214 I0.059 J0.233
N4145 G1 Y216.823
N4150 G3 X313.656 Y217.068 I-0.25 J0
N4155 G2 X311.926 Y216.772 I-4.614 J21.806
N4160 G2 X310.176 Y216.659 I-1.75 J13.408
N4165 G1 X241.739 Y216.704
N4170 G3 X241.42 Y216.384 I0 J-0.319
N4175 G1 Y200.806
N4180 G3 X241.739 Y200.487 I0.319 J0
N4185 G1 X260.08 Y200.499
N4190 G2 X263.474 Y198.239 I0.002 J-3.675
N4195 G3 X266.868 Y195.98 I3.392 J1.416
N4200 G1 X309.565 Y196.006
N4205 G2 X314.259 Y195.053 I0 J-12.04
N4210 G2 X318.234 Y192.379 I-4.904 J-11.583
N4215 G3 X318.482 Y192.482 I0.103 J0.103
N4220 G1 Y224.121
N4225 G3 X318.228 Y224.237 I-0.154 J0
N4230 G2 X314.478 Y221.983 I-8.287 J9.543
N4235 G2 X310.176 Y221.185 I-4.302 J11.187
N4240 G1 X237.207 Y221.229
N4245 G3 X236.895 Y220.916 I0 J-0.313
N4250 G1 Y196.274
N4255 G3 X237.207 Y195.962 I0.313 J0
N4260 G1 X266.868 Y195.98
N4265 G2 X269.699 Y194.094 I0.002 J-3.066
N4270 G3 X272.53 Y192.209 I2.829 J1.181
N4275 G1 X309.565 Y192.231
N4280 G2 X318.116 Y183.68 I0 J-8.551
N4285 G2 X318.093 Y181.857 I-73.918 J0
N4290 G3 X318.071 Y180.033 I73.896 J-1.824
N4295 G3 X318.39 Y179.714 I0.319 J0
N4300 G1 X321.938
N4305 G3 X322.258 Y180.033 I0 J0.319
N4310 G1 Y229.618
N4315 G3 X321.938 Y229.937 I-0.319 J0
N4320 G1 X318.286
N4325 G3 X317.73 Y229.599 I0 J-0.626
N4330 G2 X314.603 Y226.22 I-7.693 J3.983
N4335 G2 X310.176 Y224.959 I-4.427 J7.137
N4340 G1 X233.439 Y225.004
N4345 G3 X233.119 Y224.685 I0 J-0.319
N4350 G1 Y192.506
N4355 G3 X233.439 Y192.186 I0.319 J0
N4360 G1 X272.53 Y192.209
N4365 G2 X276.679 Y189.445 I0.003 J-4.491
N4370 G3 X280.827 Y186.68 I4.148 J1.73
N4375 G1 X309.565
N4380 G2 X312.565 Y183.68 I0 J-3
N4385 G1 Y179.207
N4390 G3 X317.565 Y174.207 I5 J0
N4395 G1 X322.764
N4400 G3 X327.764 Y179.207 I0 J5
N4405 G1 Y230.443
N4410 G3 X322.764 Y235.443 I-5 J0
N4415 G1 X317.565
N4420 G3 X312.947 Y232.36 I0 J-5
N4425 G2 X310.176 Y230.51 I-2.771 J1.15
N4430 G1 X232.613
N4435 G3 X227.613 Y225.51 I0 J-5
N4440 G1 Y191.68
N4445 G3 X232.613 Y186.68 I5 J0
N4450 G1 X280.827
N4455 G1 X280.92 Y186.687 Z-21.985 F1000
N4460 G1 X281.01 Y186.709 Z-21.971
N4465 G1 X281.087 Y186.74 Z-21.928
N4470 G1 X281.16 Y186.781 Z-21.885
N4475 G1 X281.213 Y186.821 Z-21.819
N4480 G1 X281.262 Y186.866 Z-21.753
N4485 G1 X281.316 Y186.932 Z-21.585
N4490 G1 X281.332 Y186.956 Z-21.4
N4495 G0 Z15
N4500 G28 G91 Z0
N4505 G90
N4510 G28 G91 X0 Y0
N4515 G90
N4520 M30
%
