%
(BottomSlopePocket)
(BottomSlopePocket)
(T1 D=6 CR=0 - ZMIN=-7.4 - flat end mill)
N10 G90 G94
N15 G17
N20 G21
N25 G28 G91 Z0
N30 G90

(BottomSlopePocket)
N35 T1 M6
N40 S14000 M3
N45 G54
N50 G0 X259.976 Y312.93
N55 G0 G43 Z15 H1
N60 G0 Z-2
N65 G1 Z-2.35 F333.3
N70 G1 X259.98 Y312.949 Z-2.502
N75 G1 X259.994 Y313.005 Z-2.644
N80 G1 X260.012 Y313.094 Z-2.767
N85 G1 X260.032 Y313.212 Z-2.863
N90 G1 X260.049 Y313.351 Z-2.925
N95 G1 X260.06 Y313.502 Z-2.95
N100 G3 X254.366 Y313.757 Z-3.263 I-2.847 J0.128
N105 G3 X260.06 Y313.502 Z-3.575 I2.847 J-0.128
N110 G3 X254.366 Y313.757 Z-3.888 I-2.847 J0.128
N115 G3 X260.06 Y313.502 Z-4.201 I2.847 J-0.128
N120 G3 X256.136 Y316.268 Z-4.4 I-2.847 J0.128
N125 G1 X251.326 Y314.306 F420
N130 G1 X237.082 Y308.137
N135 G2 X232.282 Y306.488 I-24.853 J64.521
N140 G2 X227.421 Y305.031 I-234.25 J772.961
N145 G3 X227.693 Y304.011 I0.15 J-0.506
N150 G3 X249.352 Y310.973 I-33.95 J142.779
N155 G3 X270.09 Y320.327 I-122.85 J300.045
N160 G2 X273.606 Y321.963 I36.934 J-74.772
N165 G3 X277.108 Y323.631 I-24.212 J55.361
N170 G3 X276.671 Y324.645 I-0.254 J0.492
N175 G1 X256.136 Y316.268
N180 G2 X253.868 Y316.719 I-0.793 J1.943
N185 G3 X251.597 Y317.158 I-1.464 J-1.481
N190 G1 X230.714 Y308.377
N195 G2 X208.953 Y303.281 I-33.257 J93.015
N200 G2 X186.638 Y302.018 I-21.651 J184.782
N205 G3 X186.521 Y300.876 I-0.002 J-0.577
N210 G3 X220.405 Y300.492 I17.944 J88.214
N215 G3 X252.955 Y309.912 I-28.98 J161.078
N220 G1 X271.165 Y318.15
N225 G1 X297.655 Y332.224
N230 G3 X297.201 Y333.327 I-0.306 J0.519
N235 G1 X272.682 Y325.561
N240 G1 X255.101 Y318.632
N245 G1 X251.597 Y317.158
N250 G2 X249.161 Y317.616 I-0.871 J2.072
N255 G3 X246.725 Y318.074 I-1.557 J-1.573
N260 G3 X239.299 Y314.782 I184.324 J-425.89
N265 G2 X210.351 Y306.171 I-45.75 J100.828
N270 G1 X195.21 Y304.584
N275 G2 X176.427 Y304.898 I-6.731 J159.488
N280 G2 X157.907 Y308.044 I7.66 J101.174
N285 G1 X138.903 Y314.244
N290 G2 X134.089 Y316.093 I39.407 J109.79
N295 G3 X129.259 Y317.901 I-31.916 J-77.905
N300 G3 X128.901 Y316.91 I-0.17 J-0.499
N305 G1 X165.082 Y304.264
N310 G1 X183.368 Y299.126
N315 G3 X197.907 Y296.773 I25.23 J109.785
N320 G3 X212.635 Y296.681 I7.876 J82.613
N325 G3 X244.783 Y303.86 I-9.954 J120.143
N330 G3 X274.952 Y317.083 I-102.198 J274.211
N335 G1 X290.906 Y325.602
N340 G1 X312.007 Y337.756
N345 G3 X311.57 Y338.951 I-0.341 J0.552
N350 G3 X298.113 Y336.166 I18.288 J-122.297
N355 G3 X284.897 Y332.403 I99.218 J-373.542
N360 G1 X267.193 Y326.36
N365 G3 X246.725 Y318.074 I163.856 J-434.176
N370 G2 X244.532 Y318.455 I-0.806 J1.862
N375 G3 X242.339 Y318.837 I-1.383 J-1.459
N380 G1 X239.683 Y317.667
N385 G1 X239.661 Y317.658
N390 G1 X236.331 Y316.245
N395 G1 X236.304 Y316.233
N400 G1 X234.306 Y315.425
N405 G1 X234.279 Y315.414
N410 G1 X231.615 Y314.388
N415 G1 X231.575 Y314.374
N420 G1 X228.911 Y313.421
N425 G1 X228.864 Y313.405
N430 G1 X226.2 Y312.536
N435 G1 X226.155 Y312.522
N440 G1 X224.157 Y311.931
N445 G1 X224.151 Y311.929
N450 G1 X223.485 Y311.734
N455 G1 X223.438 Y311.721
N460 G1 X220.774 Y311.021
N465 G1 X220.725 Y311.009
N470 G1 X217.395 Y310.237
N475 G1 X217.346 Y310.226
N480 G1 X214.016 Y309.554
N485 G1 X213.977 Y309.547
N490 G1 X211.313 Y309.072
N495 G1 X211.283 Y309.067
N500 G1 X209.951 Y308.854
N505 G1 X209.939 Y308.852
N510 G1 X207.941 Y308.545
N515 G1 X207.906 Y308.54
N520 G1 X205.908 Y308.275
N525 G1 X205.898 Y308.274
N530 G1 X204.179 Y308.055
N535 G1 X204.142 Y308.051
N540 G1 X201.199 Y307.741
N545 G1 X201.165 Y307.738
N550 G1 X198.501 Y307.511
N555 G1 X198.463 Y307.508
N560 G1 X195.133 Y307.296
N565 G1 X195.096 Y307.294
N570 G1 X192.432 Y307.182
N575 G1 X192.397 Y307.181
N580 G1 X190.399 Y307.136
N585 G1 X190.393
N590 G1 X189.061 Y307.111
N595 G1 X189.022 Y307.11
N600 G1 X185.692 Y307.122
N605 G1 X185.647 Y307.123
N610 G1 X182.317 Y307.22
N615 G1 X182.279 Y307.221
N620 G1 X180.281 Y307.323
N625 G1 X180.251 Y307.325
N630 G1 X177.587 Y307.507
N635 G1 X177.546 Y307.51
N640 G1 X174.882 Y307.755
N645 G1 X174.843 Y307.759
N650 G1 X172.179 Y308.065
N655 G1 X172.161 Y308.067
N660 G1 X171.495 Y308.15
N665 G1 X171.464 Y308.155
N670 G1 X168.8 Y308.537
N675 G1 X168.755 Y308.544
N680 G1 X166.091 Y308.997
N685 G1 X166.046 Y309.005
N690 G1 X163.382 Y309.531
N695 G1 X163.358 Y309.536
N700 G1 X162.692 Y309.677
N705 G1 X162.656 Y309.685
N710 G1 X159.992 Y310.308
N715 G1 X159.953 Y310.317
N720 G1 X158.621 Y310.661
N725 G1 X158.607 Y310.665
N730 G1 X156.609 Y311.198
N735 G1 X156.569 Y311.21
N740 G1 X153.579 Y312.086
N745 G1 X153.541 Y312.097
N750 G1 X150.537 Y313.052
N755 G1 X150.509 Y313.061
N760 G1 X148.511 Y313.733
N765 G1 X148.503 Y313.736
N770 G1 X145.839 Y314.647
N775 G1 X145.816 Y314.654
N780 G1 X139.822 Y316.797
N785 G1 X136.255 Y318.077
N790 G1 X133.178 Y319.164
N795 G1 X129.872 Y320.287
N800 G1 X127.237 Y321.132
N805 G1 X124.604 Y321.927
N810 G1 X122.632 Y322.48
N815 G1 X121.932 Y322.668
N820 G1 X120.011 Y323.155
N825 G1 X119.334 Y323.318
N830 G1 X116.739 Y323.893
N835 G1 X116.105 Y324.021
N840 G1 X113.482 Y324.499
N845 G1 X110.867 Y324.899
N850 G1 X108.242 Y325.223
N855 G1 X107.603 Y325.293
N860 G1 X105.64 Y325.472
N865 G1 X104.334 Y325.561
N870 G1 X103.021 Y325.642
N875 G1 X102.388 Y325.671
N880 G1 X100.422 Y325.718
N885 G1 X99.783 Y325.724
N890 G1 X99.456 Y325.722
N895 G1 X100.465 Y325.331
N900 G1 X100.472 Y325.328
N905 G1 X112.41 Y320.638
N910 G1 X119.729 Y317.797
N915 G1 X128.38 Y314.479
N920 G1 X133.035 Y312.716
N925 G1 X137.024 Y311.227
N930 G1 X143.675 Y308.773
N935 G1 X147.658 Y307.336
N940 G1 X154.816 Y304.823
N945 G1 X158.282 Y303.642
N950 G1 X164.254 Y301.681
N955 G1 X168.228 Y300.44
N960 G1 X172.201 Y299.252
N965 G1 X174.843 Y298.505
N970 G1 X177.487 Y297.789
N975 G1 X180.125 Y297.111
N980 G1 X182.76 Y296.482
N985 G1 X185.395 Y295.9
N990 G1 X187.365 Y295.5
N995 G1 X189.34 Y295.132
N1000 G1 X190.316 Y294.961
N1005 G1 X192.608 Y294.597
N1010 G1 X195.889 Y294.17
N1015 G1 X197.838 Y293.972
N1020 G1 X200.466 Y293.779
N1025 G1 X201.105 Y293.741
N1030 G1 X202.403 Y293.685
N1035 G1 X204.374 Y293.646
N1040 G1 X205.667 Y293.631
N1045 G1 X207.631 Y293.678
N1050 G1 X208.936 Y293.714
N1055 G1 X210.888 Y293.821
N1060 G1 X212.859 Y293.978
N1065 G1 X214.16 Y294.09
N1070 G1 X217.444 Y294.469
N1075 G1 X219.405 Y294.743
N1080 G1 X222.033 Y295.16
N1085 G1 X224.524 Y295.615
N1090 G1 X227.301 Y296.184
N1095 G1 X227.94 Y296.317
N1100 G1 X231.895 Y297.257
N1105 G1 X233.861 Y297.769
N1110 G1 X235.839 Y298.319
N1115 G1 X237.821 Y298.886
N1120 G1 X241.114 Y299.907
N1125 G1 X242.429 Y300.33
N1130 G1 X243.995 Y300.851
N1135 G1 X248.367 Y302.398
N1140 G1 X251.237 Y303.477
N1145 G1 X254.969 Y304.948
N1150 G1 X258.939 Y306.606
N1155 G1 X260.832 Y307.422
N1160 G1 X262.903 Y308.332
N1165 G1 X267.539 Y310.454
N1170 G1 X271.515 Y312.357
N1175 G1 X273.538 Y313.347
N1180 G1 X276.179 Y314.663
N1185 G1 X282.118 Y317.729
N1190 G1 X286.245 Y319.94
N1195 G1 X288.75 Y321.309
N1200 G1 X292.235 Y323.238
N1205 G1 X299.175 Y327.199
N1210 G1 X305.347 Y330.838
N1215 G1 X308.002 Y332.434
N1220 G1 X311.351 Y334.463
N1225 G1 X317.97 Y338.553
N1230 G1 X321.294 Y340.645
N1235 G1 X323.034 Y341.736
N1240 G1 X324.179 Y342.459
N1245 G1 X323.546 Y342.469
N1250 G1 X322.918 Y342.468
N1255 G1 X320.973 Y342.412
N1260 G1 X319.025 Y342.293
N1265 G1 X317.72 Y342.181
N1270 G1 X316.416 Y342.06
N1275 G1 X314.443 Y341.827
N1280 G1 X313.138 Y341.668
N1285 G1 X309.851 Y341.177
N1290 G1 X306.563 Y340.603
N1295 G1 X302.853 Y339.867
N1300 G1 X300.633 Y339.384
N1305 G1 X297.068 Y338.555
N1310 G1 X292.704 Y337.446
N1315 G1 X288.739 Y336.359
N1320 G1 X284.108 Y334.999
N1325 G1 X279.477 Y333.542
N1330 G1 X274.788 Y331.977
N1335 G1 X270.871 Y330.603
N1340 G1 X266.235 Y328.898
N1345 G1 X260.932 Y326.845
N1350 G1 X258.291 Y325.78
N1355 G1 X252.988 Y323.554
N1360 G1 X248.167 Y321.437
N1365 G1 X243.021 Y319.137
N1370 G1 X243.012 Y319.133
N1375 G1 X242.339 Y318.837
N1380 G3 X242.292 Y318.313 I0.121 J-0.275
N1385 G1 X247.356 Y314.903
N1390 G1 X247.413 Y314.873
N1395 G1 X247.475 Y314.855
N1400 G1 X255.361 Y313.562
N1405 G1 X255.399 Y313.548
N1410 G1 X255.431 Y313.523
N1415 G1 X255.451 Y313.488
N1420 G1 X255.547 Y313.236
N1425 G1 X255.566 Y313.203
N1430 G1 X255.595 Y313.177
N1435 G1 X255.63 Y313.163
N1440 G3 X256.874 Y318.726 Z-4.713 I0.622 J2.781 F333.3
N1445 G3 X255.63 Y313.163 Z-5.025 I-0.622 J-2.781
N1450 G3 X256.874 Y318.726 Z-5.338 I0.622 J2.781
N1455 G3 X255.134 Y318.566 Z-5.4 I-0.622 J-2.781
N1460 G1 X233.392 Y309.292 F420
N1465 G2 X222.835 Y306.144 I-34.602 J96.776
N1470 G2 X212.034 Y303.982 I-33.429 J138.915
N1475 G3 X212.161 Y302.919 I0.085 J-0.529
N1480 G3 X223.691 Y304.707 I-6.083 J77.278
N1485 G3 X234.977 Y307.669 I-48.405 J207.47
N1490 G3 X258.781 Y316.403 I-52.524 J179.953
N1495 G3 X281.524 Y327.613 I-133.754 J300.037
N1500 G3 X281.081 Y328.658 I-0.272 J0.501
N1505 G1 X260.345 Y320.789
N1510 G1 X255.134 Y318.566
N1515 G2 X252.945 Y318.975 I-0.788 J1.847
N1520 G3 X250.755 Y319.384 I-1.401 J-1.437
N1525 G1 X232.559 Y311.62
N1530 G2 X207.498 Y305.585 I-40.603 J113.56
N1535 G2 X181.74 Y304.577 I-18.454 J142.005
N1540 G3 X181.579 Y303.449 I-0.029 J-0.571
N1545 G3 X197.29 Y300.811 I27.684 J116.739
N1550 G3 X213.221 Y300.78 I8.121 J80.971
N1555 G3 X232.246 Y304.348 I-10.417 J108.045
N1560 G3 X250.6 Y310.495 I-54.152 J192.163
N1565 G1 X264.959 Y316.709
N1570 G1 X286.669 Y327.881
N1575 G1 X300.061 Y335.287
N1580 G3 X299.612 Y336.407 I-0.311 J0.525
N1585 G1 X275.735 Y329.21
N1590 G1 X259.404 Y323.075
N1595 G1 X250.755 Y319.384
N1600 G2 X248.182 Y319.849 I-0.933 J2.187
N1605 G3 X245.606 Y320.292 I-1.619 J-1.7
N1610 G1 X243.021 Y319.137
N1615 G1 X243.012 Y319.133
N1620 G1 X239.683 Y317.667
N1625 G1 X239.661 Y317.658
N1630 G1 X236.331 Y316.245
N1635 G1 X236.304 Y316.233
N1640 G1 X234.306 Y315.425
N1645 G1 X234.279 Y315.414
N1650 G1 X231.615 Y314.388
N1655 G1 X231.575 Y314.374
N1660 G1 X228.911 Y313.421
N1665 G1 X228.864 Y313.405
N1670 G1 X226.2 Y312.536
N1675 G1 X226.155 Y312.522
N1680 G1 X224.157 Y311.931
N1685 G1 X224.151 Y311.929
N1690 G1 X223.485 Y311.734
N1695 G1 X223.438 Y311.721
N1700 G1 X220.774 Y311.021
N1705 G1 X220.725 Y311.009
N1710 G1 X217.395 Y310.237
N1715 G1 X217.346 Y310.226
N1720 G1 X214.016 Y309.554
N1725 G1 X213.977 Y309.547
N1730 G1 X211.313 Y309.072
N1735 G1 X211.283 Y309.067
N1740 G1 X209.951 Y308.854
N1745 G1 X209.939 Y308.852
N1750 G1 X207.941 Y308.545
N1755 G1 X207.906 Y308.54
N1760 G1 X205.908 Y308.275
N1765 G1 X205.898 Y308.274
N1770 G1 X204.179 Y308.055
N1775 G1 X204.142 Y308.051
N1780 G1 X201.199 Y307.741
N1785 G1 X201.165 Y307.738
N1790 G1 X198.501 Y307.511
N1795 G1 X198.463 Y307.508
N1800 G1 X195.133 Y307.296
N1805 G1 X195.096 Y307.294
N1810 G1 X192.432 Y307.182
N1815 G1 X192.397 Y307.181
N1820 G1 X190.399 Y307.136
N1825 G1 X190.393
N1830 G1 X189.061 Y307.111
N1835 G1 X189.022 Y307.11
N1840 G1 X185.692 Y307.122
N1845 G1 X185.647 Y307.123
N1850 G1 X182.317 Y307.22
N1855 G1 X182.279 Y307.221
N1860 G1 X180.281 Y307.323
N1865 G1 X180.251 Y307.325
N1870 G1 X177.587 Y307.507
N1875 G1 X177.546 Y307.51
N1880 G1 X174.882 Y307.755
N1885 G1 X174.843 Y307.759
N1890 G1 X172.179 Y308.065
N1895 G1 X172.161 Y308.067
N1900 G1 X171.495 Y308.15
N1905 G1 X171.464 Y308.155
N1910 G1 X168.8 Y308.537
N1915 G1 X168.755 Y308.544
N1920 G1 X166.091 Y308.997
N1925 G1 X166.046 Y309.005
N1930 G1 X163.382 Y309.531
N1935 G1 X163.358 Y309.536
N1940 G1 X162.692 Y309.677
N1945 G1 X162.656 Y309.685
N1950 G1 X159.992 Y310.308
N1955 G1 X159.953 Y310.317
N1960 G1 X158.621 Y310.661
N1965 G1 X158.607 Y310.665
N1970 G1 X156.609 Y311.198
N1975 G1 X156.569 Y311.21
N1980 G1 X153.579 Y312.086
N1985 G1 X153.541 Y312.097
N1990 G1 X150.537 Y313.052
N1995 G1 X150.509 Y313.061
N2000 G1 X148.511 Y313.733
N2005 G1 X148.503 Y313.736
N2010 G1 X145.839 Y314.647
N2015 G1 X145.816 Y314.654
N2020 G1 X139.822 Y316.797
N2025 G1 X136.255 Y318.077
N2030 G1 X133.178 Y319.164
N2035 G1 X129.872 Y320.287
N2040 G1 X127.237 Y321.132
N2045 G1 X124.604 Y321.927
N2050 G1 X122.632 Y322.48
N2055 G1 X121.932 Y322.668
N2060 G1 X120.011 Y323.155
N2065 G1 X119.334 Y323.318
N2070 G1 X116.739 Y323.893
N2075 G1 X116.105 Y324.021
N2080 G1 X113.482 Y324.499
N2085 G1 X112.817 Y324.6
N2090 G1 X113.74 Y324.239
N2095 G1 X118.397 Y322.435
N2100 G1 X133.702 Y316.567
N2105 G1 X146.999 Y311.652
N2110 G1 X157.625 Y307.914
N2115 G1 X166.249 Y305.072
N2120 G1 X169.158 Y304.181
N2125 G1 X173.536 Y302.861
N2130 G1 X174.848 Y302.488
N2135 G1 X178.253 Y301.548
N2140 G1 X180.791 Y300.894
N2145 G1 X184.752 Y299.955
N2150 G1 X186.715 Y299.533
N2155 G1 X188.694 Y299.148
N2160 G1 X190.005 Y298.897
N2165 G1 X191.968 Y298.563
N2170 G1 X193.264 Y298.37
N2175 G1 X197.203 Y297.87
N2180 G1 X198.489 Y297.762
N2185 G1 X201.129 Y297.568
N2190 G1 X201.754 Y297.533
N2195 G1 X203.052 Y297.498
N2200 G1 X205.672 Y297.452
N2205 G1 X206.96 Y297.483
N2210 G1 X209.583 Y297.57
N2215 G1 X210.875 Y297.662
N2220 G1 X213.502 Y297.868
N2225 G1 X215.465 Y298.093
N2230 G1 X217.437 Y298.327
N2235 G1 X218.734 Y298.515
N2240 G1 X222.021 Y299.041
N2245 G1 X224.813 Y299.588
N2250 G1 X226.62 Y299.947
N2255 G1 X228.584 Y300.406
N2260 G1 X231.233 Y301.042
N2265 G1 X231.869 Y301.203
N2270 G1 X235.844 Y302.307
N2275 G1 X236.489 Y302.488
N2280 G1 X237.792 Y302.884
N2285 G1 X241.834 Y304.169
N2290 G1 X243.064 Y304.589
N2295 G1 X247.692 Y306.231
N2300 G1 X251.662 Y307.77
N2305 G1 X253.636 Y308.543
N2310 G1 X259.588 Y311.057
N2315 G1 X262.896 Y312.554
N2320 G1 X266.204 Y314.062
N2325 G1 X272.915 Y317.318
N2330 G1 X276.139 Y318.967
N2335 G1 X280.782 Y321.365
N2340 G1 X288.082 Y325.32
N2345 G1 X290.064 Y326.432
N2350 G1 X297.231 Y330.51
N2355 G1 X306.153 Y335.794
N2360 G1 X315.976 Y341.831
N2365 G1 X316.324 Y342.05
N2370 G1 X314.443 Y341.827
N2375 G1 X313.138 Y341.668
N2380 G1 X309.851 Y341.177
N2385 G1 X306.563 Y340.603
N2390 G1 X302.853 Y339.867
N2395 G1 X300.633 Y339.384
N2400 G1 X297.068 Y338.555
N2405 G1 X292.704 Y337.446
N2410 G1 X288.739 Y336.359
N2415 G1 X284.108 Y334.999
N2420 G1 X279.477 Y333.542
N2425 G1 X274.788 Y331.977
N2430 G1 X270.871 Y330.603
N2435 G1 X266.235 Y328.898
N2440 G1 X260.932 Y326.845
N2445 G1 X258.291 Y325.78
N2450 G1 X252.988 Y323.554
N2455 G1 X248.167 Y321.437
N2460 G1 X245.606 Y320.292
N2465 G3 X245.55 Y319.777 I0.122 J-0.274
N2470 G1 X247.729 Y318.17
N2475 G1 X247.788 Y318.136
N2480 G1 X253.806 Y315.532
N2485 G1 X253.835 Y315.514
N2490 G1 X253.858 Y315.489
N2495 G1 X253.872 Y315.457
N2500 G1 X253.963 Y315.136
N2505 G1 X253.981 Y315.099
N2510 G1 X254.011 Y315.071
N2515 G1 X254.049 Y315.055
N2520 G3 X255.302 Y320.615 Z-5.713 I0.626 J2.78 F333.3
N2525 G3 X254.049 Y315.055 Z-6.025 I-0.626 J-2.78
N2530 G3 X255.302 Y320.615 Z-6.338 I0.626 J2.78
N2535 G3 X253.562 Y320.459 Z-6.4 I-0.626 J-2.78
N2540 G1 X240.776 Y315.031 F420
N2545 G2 X225.852 Y309.596 I-59.531 J140.25
N2550 G2 X210.369 Y306.057 I-32.146 J104.987
N2555 G2 X206.693 Y305.645 I-6.89 J44.876
N2560 G3 X203.008 Y305.32 I7.674 J-108.13
N2565 G3 X203.045 Y304.213 I0.058 J-0.552
N2570 G3 X214.94 Y304.906 I2.414 J61.064
N2575 G3 X226.644 Y307.14 I-28.126 J179.083
N2580 G3 X247.908 Y313.759 I-30.536 J135.583
N2585 G3 X268.242 Y322.844 I-108.518 J270.169
N2590 G1 X284.952 Y331.343
N2595 G3 X284.495 Y332.398 I-0.283 J0.504
N2600 G3 X263.226 Y324.561 I70.316 J-223.605
N2605 G1 X253.562 Y320.459
N2610 G2 X250.861 Y320.958 I-0.973 J2.293
N2615 G3 X248.155 Y321.431 I-1.704 J-1.769
N2620 G1 X243.021 Y319.137
N2625 G1 X243.012 Y319.133
N2630 G1 X239.683 Y317.667
N2635 G1 X239.661 Y317.658
N2640 G1 X236.331 Y316.245
N2645 G1 X236.304 Y316.233
N2650 G1 X234.306 Y315.425
N2655 G1 X234.279 Y315.414
N2660 G1 X231.615 Y314.388
N2665 G1 X231.575 Y314.374
N2670 G1 X228.911 Y313.421
N2675 G1 X228.864 Y313.405
N2680 G1 X226.2 Y312.536
N2685 G1 X226.155 Y312.522
N2690 G1 X224.157 Y311.931
N2695 G1 X224.151 Y311.929
N2700 G1 X223.485 Y311.734
N2705 G1 X223.438 Y311.721
N2710 G1 X220.774 Y311.021
N2715 G1 X220.725 Y311.009
N2720 G1 X217.395 Y310.237
N2725 G1 X217.346 Y310.226
N2730 G1 X214.016 Y309.554
N2735 G1 X213.977 Y309.547
N2740 G1 X211.313 Y309.072
N2745 G1 X211.283 Y309.067
N2750 G1 X209.951 Y308.854
N2755 G1 X209.939 Y308.852
N2760 G1 X207.941 Y308.545
N2765 G1 X207.906 Y308.54
N2770 G1 X205.908 Y308.275
N2775 G1 X205.898 Y308.274
N2780 G1 X204.179 Y308.055
N2785 G1 X204.142 Y308.051
N2790 G1 X201.199 Y307.741
N2795 G1 X201.165 Y307.738
N2800 G1 X198.501 Y307.511
N2805 G1 X198.463 Y307.508
N2810 G1 X195.133 Y307.296
N2815 G1 X195.096 Y307.294
N2820 G1 X192.432 Y307.182
N2825 G1 X192.397 Y307.181
N2830 G1 X190.399 Y307.136
N2835 G1 X190.393
N2840 G1 X189.061 Y307.111
N2845 G1 X189.022 Y307.11
N2850 G1 X185.692 Y307.122
N2855 G1 X185.647 Y307.123
N2860 G1 X182.317 Y307.22
N2865 G1 X182.279 Y307.221
N2870 G1 X180.281 Y307.323
N2875 G1 X180.251 Y307.325
N2880 G1 X177.587 Y307.507
N2885 G1 X177.546 Y307.51
N2890 G1 X174.882 Y307.755
N2895 G1 X174.843 Y307.759
N2900 G1 X172.179 Y308.065
N2905 G1 X172.161 Y308.067
N2910 G1 X171.495 Y308.15
N2915 G1 X171.464 Y308.155
N2920 G1 X169.51 Y308.435
N2925 G1 X171.562 Y307.797
N2930 G1 X173.537 Y307.194
N2935 G1 X178.175 Y305.89
N2940 G1 X180.147 Y305.348
N2945 G1 X183.446 Y304.53
N2950 G1 X186.076 Y303.908
N2955 G1 X189.368 Y303.232
N2960 G1 X191.327 Y302.858
N2965 G1 X193.949 Y302.443
N2970 G1 X195.902 Y302.167
N2975 G1 X198.522 Y301.891
N2980 G1 X199.812 Y301.775
N2985 G1 X201.766 Y301.665
N2990 G1 X203.715 Y301.588
N2995 G1 X205.665 Y301.586
N3000 G1 X207.617 Y301.616
N3005 G1 X209.57 Y301.718
N3010 G1 X211.529 Y301.849
N3015 G1 X214.155 Y302.104
N3020 G1 X215.536 Y302.257
N3025 G1 X218.085 Y302.607
N3030 G1 X219.384 Y302.798
N3035 G1 X222.014 Y303.263
N3040 G1 X223.976 Y303.631
N3045 G1 X227.271 Y304.356
N3050 G1 X228.58 Y304.658
N3055 G1 X229.41 Y304.864
N3060 G1 X232.532 Y305.688
N3065 G1 X233.834 Y306.041
N3070 G1 X237.134 Y307.035
N3075 G1 X239.102 Y307.645
N3080 G1 X243.07 Y308.998
N3085 G1 X244.377 Y309.452
N3090 G1 X247.682 Y310.69
N3095 G1 X250.319 Y311.699
N3100 G1 X254.956 Y313.612
N3105 G1 X256.266 Y314.16
N3110 G1 X260.906 Y316.224
N3115 G1 X262.882 Y317.114
N3120 G1 X268.19 Y319.651
N3125 G1 X269.505 Y320.285
N3130 G1 X273.482 Y322.295
N3135 G1 X276.796 Y323.987
N3140 G1 X279.443 Y325.397
N3145 G1 X284.754 Y328.252
N3150 G1 X291.397 Y331.987
N3155 G1 X293.472 Y333.162
N3160 G1 X302.017 Y338.188
N3165 G1 X303.338 Y338.984
N3170 G1 X305.727 Y340.437
N3175 G1 X302.853 Y339.867
N3180 G1 X300.633 Y339.384
N3185 G1 X297.068 Y338.555
N3190 G1 X292.704 Y337.446
N3195 G1 X288.739 Y336.359
N3200 G1 X284.108 Y334.999
N3205 G1 X279.477 Y333.542
N3210 G1 X274.788 Y331.977
N3215 G1 X270.871 Y330.603
N3220 G1 X266.235 Y328.898
N3225 G1 X260.932 Y326.845
N3230 G1 X258.291 Y325.78
N3235 G1 X252.988 Y323.554
N3240 G1 X248.167 Y321.437
N3245 G1 X248.155 Y321.431
N3250 G1 X248.095 Y321.401 Z-6.392 F1000
N3255 G1 X248.04 Y321.364 Z-6.385
N3260 G1 X247.991 Y321.323 Z-6.363
N3265 G1 X247.947 Y321.277 Z-6.341
N3270 G1 X247.912 Y321.233 Z-6.305
N3275 G1 X247.881 Y321.185 Z-6.269
N3280 G1 X247.84 Y321.1 Z-6.174
N3285 G1 X247.818 Y321.032 Z-6.06
N3290 G1 X247.809 Y320.988 Z-5.934
N3295 G1 X247.806 Y320.973 Z-5.8
N3300 G0 Z5
N3305 G0 X260.375 Y326.62
N3310 G1 Z-4.75 F333.3
N3315 G1 X260.368 Y326.617 Z-4.844
N3320 G1 X260.348 Y326.609 Z-4.935
N3325 G1 X260.315 Y326.596 Z-5.022
N3330 G1 X260.269 Y326.578 Z-5.102
N3335 G1 X260.213 Y326.555 Z-5.173
N3340 G1 X260.147 Y326.528 Z-5.234
N3345 G1 X260.073 Y326.498 Z-5.284
N3350 G1 X259.993 Y326.466 Z-5.32
N3355 G1 X259.908 Y326.432 Z-5.342
N3360 G1 X259.821 Y326.397 Z-5.35
N3365 G1 X258.291 Y325.78 Z-5.358
N3370 G1 X252.988 Y323.554 Z-5.386
N3375 G1 X248.167 Y321.437 Z-5.412
N3380 G1 X243.021 Y319.137 Z-5.439
N3385 G1 X243.012 Y319.133
N3390 G1 X239.683 Y317.667 Z-5.457
N3395 G1 X239.661 Y317.658
N3400 G1 X236.331 Y316.245 Z-5.475
N3405 G1 X236.304 Y316.233
N3410 G1 X234.306 Y315.425 Z-5.485
N3415 G1 X234.279 Y315.414
N3420 G1 X231.615 Y314.388 Z-5.499
N3425 G1 X231.575 Y314.374 Z-5.5
N3430 G1 X228.911 Y313.421 Z-5.513
N3435 G1 X228.864 Y313.405 Z-5.514
N3440 G1 X226.2 Y312.536 Z-5.527
N3445 G1 X226.155 Y312.522
N3450 G1 X224.157 Y311.931 Z-5.538
N3455 G1 X224.151 Y311.929
N3460 G1 X223.485 Y311.734 Z-5.541
N3465 G1 X223.438 Y311.721
N3470 G1 X220.774 Y311.021 Z-5.555
N3475 G1 X220.725 Y311.009
N3480 G1 X217.395 Y310.237 Z-5.572
N3485 G1 X217.346 Y310.226
N3490 G1 X214.016 Y309.554 Z-5.588
N3495 G1 X213.977 Y309.547 Z-5.589
N3500 G1 X211.313 Y309.072 Z-5.602
N3505 G1 X211.283 Y309.067
N3510 G1 X209.951 Y308.854 Z-5.608
N3515 G1 X209.939 Y308.852
N3520 G1 X207.941 Y308.545 Z-5.618
N3525 G1 X207.906 Y308.54
N3530 G1 X205.908 Y308.275 Z-5.628
N3535 G1 X205.898 Y308.274
N3540 G1 X204.179 Y308.055 Z-5.637
N3545 G1 X204.142 Y308.051
N3550 G1 X201.199 Y307.741 Z-5.651
N3555 G1 X201.165 Y307.738 Z-5.652
N3560 G1 X198.501 Y307.511 Z-5.665
N3565 G1 X198.463 Y307.508
N3570 G1 X195.133 Y307.296 Z-5.681
N3575 G1 X195.096 Y307.294
N3580 G1 X193.327 Y307.22 Z-5.69
N3585 G1 X194.618 Y306.994 Z-5.696
N3590 G1 X197.897 Y306.574 Z-5.712
N3595 G1 X198.516 Y306.503 Z-5.715
N3600 G1 X201.778 Y306.262 Z-5.731
N3605 G1 X202.395 Y306.24 Z-5.734
N3610 G1 X205.028 Y306.195 Z-5.747
N3615 G1 X205.647 Y306.194 Z-5.75
N3620 G1 X208.918 Y306.315 Z-5.766
N3625 G1 X209.544 Y306.357 Z-5.769
N3630 G1 X212.828 Y306.625 Z-5.785
N3635 G1 X215.05 Y306.893 Z-5.796
N3640 G1 X216.752 Y307.103 Z-5.804
N3645 G1 X218.713 Y307.422 Z-5.814
N3650 G1 X221.338 Y307.86 Z-5.827
N3655 G1 X226.047 Y308.848 Z-5.85
N3660 G1 X230.542 Y309.978 Z-5.873
N3665 G1 X231.178 Y310.151 Z-5.876
N3670 G1 X235.793 Y311.502 Z-5.9
N3675 G1 X239.093 Y312.592 Z-5.917
N3680 G1 X241.067 Y313.247 Z-5.927
N3685 G1 X242.371 Y313.72 Z-5.934
N3690 G1 X247.002 Y315.437 Z-5.958
N3695 G1 X252.948 Y317.848 Z-5.989
N3700 G1 X259.33 Y320.656 Z-6.023
N3705 G1 X265.529 Y323.58 Z-6.056
N3710 G1 X266.28 Y323.944 Z-6.06
N3715 G1 X272.844 Y327.243 Z-6.096
N3720 G1 X274.126 Y327.912 Z-6.103
N3725 G1 X280.765 Y331.443 Z-6.14
N3730 G1 X283.412 Y332.914 Z-6.154
N3735 G1 X289.777 Y336.477 Z-6.19
N3740 G1 X290.317 Y336.792 Z-6.193
N3745 G1 X288.739 Y336.359 Z-6.201
N3750 G1 X284.108 Y334.999 Z-6.224
N3755 G1 X279.477 Y333.542 Z-6.248
N3760 G1 X274.788 Y331.977 Z-6.272
N3765 G1 X270.871 Y330.603 Z-6.292
N3770 G1 X266.235 Y328.898 Z-6.316
N3775 G1 X260.932 Y326.845 Z-6.344
N3780 G1 X258.291 Y325.78 Z-6.358
N3785 G1 X252.988 Y323.554 Z-6.386
N3790 G1 X248.167 Y321.437 Z-6.412
N3795 G1 X243.021 Y319.137 Z-6.439
N3800 G1 X243.012 Y319.133
N3805 G1 X239.683 Y317.667 Z-6.457
N3810 G1 X239.661 Y317.658
N3815 G1 X236.331 Y316.245 Z-6.475
N3820 G1 X236.304 Y316.233
N3825 G1 X234.306 Y315.425 Z-6.485
N3830 G1 X234.279 Y315.414
N3835 G1 X231.615 Y314.388 Z-6.499
N3840 G1 X231.575 Y314.374 Z-6.5
N3845 G1 X228.911 Y313.421 Z-6.513
N3850 G1 X228.864 Y313.405 Z-6.514
N3855 G1 X226.2 Y312.536 Z-6.527
N3860 G1 X226.155 Y312.522
N3865 G1 X224.157 Y311.931 Z-6.538
N3870 G1 X224.151 Y311.929
N3875 G1 X223.485 Y311.734 Z-6.541
N3880 G1 X223.438 Y311.721
N3885 G1 X220.774 Y311.021 Z-6.555
N3890 G1 X220.725 Y311.009
N3895 G1 X217.395 Y310.237 Z-6.572
N3900 G1 X217.346 Y310.226
N3905 G1 X214.016 Y309.554 Z-6.588
N3910 G1 X213.977 Y309.547 Z-6.589
N3915 G1 X211.313 Y309.072 Z-6.602
N3920 G1 X211.283 Y309.067
N3925 G1 X209.951 Y308.854 Z-6.608
N3930 G1 X209.939 Y308.852
N3935 G1 X207.941 Y308.545 Z-6.618
N3940 G1 X207.906 Y308.54
N3945 G1 X205.908 Y308.275 Z-6.628
N3950 G1 X205.898 Y308.274
N3955 G1 X204.179 Y308.055 Z-6.637
N3960 G1 X204.142 Y308.051
N3965 G1 X201.199 Y307.741 Z-6.651
N3970 G1 X201.165 Y307.738 Z-6.652
N3975 G1 X198.501 Y307.511 Z-6.665
N3980 G1 X198.463 Y307.508
N3985 G1 X195.133 Y307.296 Z-6.681
N3990 G1 X195.096 Y307.294
N3995 G1 X193.327 Y307.22 Z-6.69
N4000 G1 X194.618 Y306.994 Z-6.696
N4005 G1 X197.897 Y306.574 Z-6.712
N4010 G1 X198.516 Y306.503 Z-6.715
N4015 G1 X201.778 Y306.262 Z-6.731
N4020 G1 X202.395 Y306.24 Z-6.734
N4025 G1 X205.028 Y306.195 Z-6.747
N4030 G1 X205.647 Y306.194 Z-6.75
N4035 G1 X208.918 Y306.315 Z-6.766
N4040 G1 X209.544 Y306.357 Z-6.769
N4045 G1 X212.828 Y306.625 Z-6.785
N4050 G1 X215.05 Y306.893 Z-6.796
N4055 G1 X216.752 Y307.103 Z-6.804
N4060 G1 X218.713 Y307.422 Z-6.814
N4065 G1 X221.338 Y307.86 Z-6.827
N4070 G1 X226.047 Y308.848 Z-6.85
N4075 G1 X230.542 Y309.978 Z-6.873
N4080 G1 X231.178 Y310.151 Z-6.876
N4085 G1 X235.793 Y311.502 Z-6.9
N4090 G1 X239.093 Y312.592 Z-6.917
N4095 G1 X241.067 Y313.247 Z-6.927
N4100 G1 X242.371 Y313.72 Z-6.934
N4105 G1 X247.002 Y315.437 Z-6.958
N4110 G1 X252.948 Y317.848 Z-6.989
N4115 G1 X259.33 Y320.656 Z-7.023
N4120 G1 X265.529 Y323.58 Z-7.056
N4125 G1 X266.28 Y323.944 Z-7.06
N4130 G1 X272.844 Y327.243 Z-7.096
N4135 G1 X274.126 Y327.912 Z-7.103
N4140 G1 X280.765 Y331.443 Z-7.14
N4145 G1 X283.412 Y332.914 Z-7.154
N4150 G1 X289.777 Y336.477 Z-7.19
N4155 G1 X290.317 Y336.792 Z-7.193
N4160 G1 X288.739 Y336.359 Z-7.201
N4165 G1 X284.108 Y334.999 Z-7.224
N4170 G1 X279.477 Y333.542 Z-7.248
N4175 G1 X274.788 Y331.977 Z-7.272
N4180 G1 X270.871 Y330.603 Z-7.292
N4185 G1 X266.235 Y328.898 Z-7.316
N4190 G1 X260.932 Y326.845 Z-7.344
N4195 G1 X258.291 Y325.78 Z-7.358
N4200 G1 X252.988 Y323.554 Z-7.386
N4205 G1 X250.365 Y322.402 Z-7.4
N4210 G1 X248.167 Y321.437 F420
N4215 G1 X243.021 Y319.137
N4220 G1 X243.012 Y319.133
N4225 G1 X239.683 Y317.667
N4230 G1 X239.661 Y317.658
N4235 G1 X236.331 Y316.245
N4240 G1 X236.304 Y316.233
N4245 G1 X234.306 Y315.425
N4250 G1 X234.279 Y315.414
N4255 G1 X231.615 Y314.388
N4260 G1 X231.575 Y314.374
N4265 G1 X228.911 Y313.421
N4270 G1 X228.864 Y313.405
N4275 G1 X226.2 Y312.536
N4280 G1 X226.155 Y312.522
N4285 G1 X224.157 Y311.931
N4290 G1 X224.151 Y311.929
N4295 G1 X223.485 Y311.734
N4300 G1 X223.438 Y311.721
N4305 G1 X220.774 Y311.021
N4310 G1 X220.725 Y311.009
N4315 G1 X217.395 Y310.237
N4320 G1 X217.346 Y310.226
N4325 G1 X214.016 Y309.554
N4330 G1 X213.977 Y309.547
N4335 G1 X211.313 Y309.072
N4340 G1 X211.283 Y309.067
N4345 G1 X209.951 Y308.854
N4350 G1 X209.939 Y308.852
N4355 G1 X207.941 Y308.545
N4360 G1 X207.906 Y308.54
N4365 G1 X205.908 Y308.275
N4370 G1 X205.898 Y308.274
N4375 G1 X204.179 Y308.055
N4380 G1 X204.142 Y308.051
N4385 G1 X201.199 Y307.741
N4390 G1 X201.165 Y307.738
N4395 G1 X198.501 Y307.511
N4400 G1 X198.463 Y307.508
N4405 G1 X195.133 Y307.296
N4410 G1 X195.096 Y307.294
N4415 G1 X193.327 Y307.22
N4420 G1 X194.618 Y306.994
N4425 G1 X197.897 Y306.574
N4430 G1 X198.516 Y306.503
N4435 G1 X201.778 Y306.262
N4440 G1 X202.395 Y306.24
N4445 G1 X205.028 Y306.195
N4450 G1 X205.647 Y306.194
N4455 G1 X208.918 Y306.315
N4460 G1 X209.544 Y306.357
N4465 G1 X212.828 Y306.625
N4470 G1 X215.05 Y306.893
N4475 G1 X216.752 Y307.103
N4480 G1 X218.713 Y307.422
N4485 G1 X221.338 Y307.86
N4490 G1 X226.047 Y308.848
N4495 G1 X230.542 Y309.978
N4500 G1 X231.178 Y310.151
N4505 G1 X235.793 Y311.502
N4510 G1 X239.093 Y312.592
N4515 G1 X241.067 Y313.247
N4520 G1 X242.371 Y313.72
N4525 G1 X247.002 Y315.437
N4530 G1 X252.948 Y317.848
N4535 G1 X259.33 Y320.656
N4540 G1 X265.529 Y323.58
N4545 G1 X266.28 Y323.944
N4550 G1 X272.844 Y327.243
N4555 G1 X274.126 Y327.912
N4560 G1 X280.765 Y331.443
N4565 G1 X283.412 Y332.914
N4570 G1 X289.777 Y336.477
N4575 G1 X290.317 Y336.792
N4580 G1 X288.739 Y336.359
N4585 G1 X284.108 Y334.999
N4590 G1 X279.477 Y333.542
N4595 G1 X274.788 Y331.977
N4600 G1 X270.871 Y330.603
N4605 G1 X266.235 Y328.898
N4610 G1 X260.932 Y326.845
N4615 G1 X258.291 Y325.78
N4620 G1 X252.988 Y323.554
N4625 G1 X250.365 Y322.402
N4630 G1 X250.306 Y322.372 Z-7.392 F1000
N4635 G1 X250.25 Y322.335 Z-7.385
N4640 G1 X250.201 Y322.295 Z-7.363
N4645 G1 X250.156 Y322.25 Z-7.341
N4650 G1 X250.121 Y322.205 Z-7.305
N4655 G1 X250.09 Y322.158 Z-7.269
N4660 G1 X250.048 Y322.073 Z-7.174
N4665 G1 X250.026 Y322.005 Z-7.06
N4670 G1 X250.016 Y321.961 Z-6.934
N4675 G1 X250.014 Y321.947 Z-6.8
N4680 G0 Z15
N4685 G28 G91 Z0
N4690 G90
N4695 G28 G91 X0 Y0
N4700 G90
N4705 M30
%
