%
(ChevaletPocket)
(ChevaletPocket)
(T1 D=6 CR=0 - ZMIN=-26.9 - flat end mill)
N10 G90 G94
N15 G17
N20 G21
N25 G28 G91 Z0
N30 G90

(ChevaletPocket)
N35 T1 M6
N40 S14000 M3
N45 G54
N50 G0 X319.106 Y237.156
N55 G0 G43 Z15 H1
N60 G0 Z3
N65 G1 Z1.1 F1000
N70 G1 X319.07 Y237.162 Z0.893 F333.3
N75 G1 X318.965 Y237.178 Z0.711
N80 G1 X318.804 Y237.194 Z0.577
N85 G1 X318.605 Y237.2 Z0.507
N90 G1 X318.53 Y237.199 Z0.5
N95 G3 X318.681 Y231.501 Z0.187 I0.075 J-2.849
N100 G3 X318.53 Y237.199 Z-0.125 I-0.075 J2.849
N105 G3 X318.681 Y231.501 Z-0.438 I0.075 J-2.849
N110 G3 X318.53 Y237.199 Z-0.751 I-0.075 J2.849
N115 G3 X318.681 Y231.501 Z-1.063 I0.075 J-2.849
N120 G3 X318.53 Y237.199 Z-1.376 I-0.075 J2.849
N125 G3 X318.681 Y231.501 Z-1.689 I0.075 J-2.849
N130 G3 X318.53 Y237.199 Z-2.001 I-0.075 J2.849
N135 G3 X318.681 Y231.501 Z-2.314 I0.075 J-2.849
N140 G3 X318.53 Y237.199 Z-2.627 I-0.075 J2.849
N145 G3 X318.681 Y231.501 Z-2.939 I0.075 J-2.849
N150 G3 X318.53 Y237.199 Z-3.252 I-0.075 J2.849
N155 G3 X318.681 Y231.501 Z-3.565 I0.075 J-2.849
N160 G3 X318.53 Y237.199 Z-3.877 I-0.075 J2.849
N165 G3 X318.681 Y231.501 Z-4.19 I0.075 J-2.849
N170 G3 X318.605 Y237.2 Z-4.5 I-0.075 J2.849
N175 G1 X318.599 F420
N180 G1 X318.554 Y237.195
N185 G1 X318.512 Y237.177
N190 G1 X318.475 Y237.149
N195 G1 X318.447 Y237.113
N200 G1 X318.43 Y237.071
N205 G1 X318.424 Y237.025
N210 G1 Y187.859
N215 G1 X318.43 Y187.814
N220 G1 X318.447 Y187.772
N225 G1 X318.475 Y187.735
N230 G1 X318.512 Y187.708
N235 G1 X318.554 Y187.69
N240 G1 X318.599 Y187.684
N245 G1 X318.612
N250 G1 X318.657 Y187.69
N255 G1 X318.699 Y187.708
N260 G1 X318.735 Y187.735
N265 G1 X318.763 Y187.772
N270 G1 X318.781 Y187.814
N275 G1 X318.787 Y187.859
N280 G1 Y237.025
N285 G1 X318.781 Y237.071
N290 G1 X318.763 Y237.113
N295 G1 X318.735 Y237.149
N300 G1 X318.699 Y237.177
N305 G1 X318.657 Y237.195
N310 G1 X318.612 Y237.2
N315 G1 X318.605
N320 G2 X316.026 Y238.8 I0 J2.88
N325 G3 X313.065 Y238.13 I-1.399 J-0.694
N330 G1 X313.064 Y238.06
N335 G1 Y186.824
N340 G3 X317.564 Y182.324 I4.5 J0
N345 G1 X319.646
N350 G3 X324.146 Y186.824 I0 J4.5
N355 G1 Y238.06
N360 G3 X319.646 Y242.56 I-4.5 J0
N365 G1 X317.564
N370 G3 X313.065 Y238.13 I0 J-4.5
N375 G3 X313.363 Y237.826 I0.3 J-0.005
N380 G1 X318.565 Y237.8
N385 G2 X318.568 Y237.2 I-0.001 J-0.3
N390 G3 X318.643 Y231.501 Z-4.813 I0.038 J-2.85 F333.3
N395 G3 X318.568 Y237.2 Z-5.125 I-0.038 J2.85
N400 G3 X318.643 Y231.501 Z-5.438 I0.038 J-2.85
N405 G3 X318.568 Y237.2 Z-5.751 I-0.038 J2.85
N410 G3 X318.643 Y231.501 Z-6.063 I0.038 J-2.85
N415 G3 X318.568 Y237.2 Z-6.376 I-0.038 J2.85
N420 G3 X318.643 Y231.501 Z-6.689 I0.038 J-2.85
N425 G3 X318.605 Y237.2 Z-7 I-0.038 J2.85
N430 G1 X318.599 F420
N435 G1 X318.554 Y237.195
N440 G1 X318.512 Y237.177
N445 G1 X318.475 Y237.149
N450 G1 X318.447 Y237.113
N455 G1 X318.43 Y237.071
N460 G1 X318.424 Y237.025
N465 G1 Y187.859
N470 G1 X318.43 Y187.814
N475 G1 X318.447 Y187.772
N480 G1 X318.475 Y187.735
N485 G1 X318.512 Y187.708
N490 G1 X318.554 Y187.69
N495 G1 X318.599 Y187.684
N500 G1 X318.612
N505 G1 X318.657 Y187.69
N510 G1 X318.699 Y187.708
N515 G1 X318.735 Y187.735
N520 G1 X318.763 Y187.772
N525 G1 X318.781 Y187.814
N530 G1 X318.787 Y187.859
N535 G1 Y237.025
N540 G1 X318.781 Y237.071
N545 G1 X318.763 Y237.113
N550 G1 X318.735 Y237.149
N555 G1 X318.699 Y237.177
N560 G1 X318.657 Y237.195
N565 G1 X318.612 Y237.2
N570 G1 X318.605
N575 G2 X316.026 Y238.8 I0 J2.88
N580 G3 X313.065 Y238.13 I-1.399 J-0.694
N585 G1 X313.064 Y238.06
N590 G1 Y186.824
N595 G3 X317.564 Y182.324 I4.5 J0
N600 G1 X319.646
N605 G3 X324.146 Y186.824 I0 J4.5
N610 G1 Y238.06
N615 G3 X319.646 Y242.56 I-4.5 J0
N620 G1 X317.564
N625 G3 X313.065 Y238.13 I0 J-4.5
N630 G3 X313.363 Y237.826 I0.3 J-0.005
N635 G1 X318.565 Y237.8
N640 G2 X318.568 Y237.2 I-0.001 J-0.3
N645 G3 X318.643 Y231.501 Z-7.313 I0.038 J-2.85 F333.3
N650 G3 X318.568 Y237.2 Z-7.625 I-0.038 J2.85
N655 G3 X318.643 Y231.501 Z-7.938 I0.038 J-2.85
N660 G3 X318.568 Y237.2 Z-8.251 I-0.038 J2.85
N665 G3 X318.643 Y231.501 Z-8.563 I0.038 J-2.85
N670 G3 X318.568 Y237.2 Z-8.876 I-0.038 J2.85
N675 G3 X318.643 Y231.501 Z-9.189 I0.038 J-2.85
N680 G3 X318.605 Y237.2 Z-9.5 I-0.038 J2.85
N685 G1 X318.599 F420
N690 G1 X318.554 Y237.195
N695 G1 X318.512 Y237.177
N700 G1 X318.475 Y237.149
N705 G1 X318.447 Y237.113
N710 G1 X318.43 Y237.071
N715 G1 X318.424 Y237.025
N720 G1 Y187.859
N725 G1 X318.43 Y187.814
N730 G1 X318.447 Y187.772
N735 G1 X318.475 Y187.735
N740 G1 X318.512 Y187.708
N745 G1 X318.554 Y187.69
N750 G1 X318.599 Y187.684
N755 G1 X318.612
N760 G1 X318.657 Y187.69
N765 G1 X318.699 Y187.708
N770 G1 X318.735 Y187.735
N775 G1 X318.763 Y187.772
N780 G1 X318.781 Y187.814
N785 G1 X318.787 Y187.859
N790 G1 Y237.025
N795 G1 X318.781 Y237.071
N800 G1 X318.763 Y237.113
N805 G1 X318.735 Y237.149
N810 G1 X318.699 Y237.177
N815 G1 X318.657 Y237.195
N820 G1 X318.612 Y237.2
N825 G1 X318.605
N830 G2 X316.026 Y238.8 I0 J2.88
N835 G3 X313.065 Y238.13 I-1.399 J-0.694
N840 G1 X313.064 Y238.06
N845 G1 Y186.824
N850 G3 X317.564 Y182.324 I4.5 J0
N855 G1 X319.646
N860 G3 X324.146 Y186.824 I0 J4.5
N865 G1 Y238.06
N870 G3 X319.646 Y242.56 I-4.5 J0
N875 G1 X317.564
N880 G3 X313.065 Y238.13 I0 J-4.5
N885 G3 X313.363 Y237.826 I0.3 J-0.005
N890 G1 X318.565 Y237.8
N895 G2 X318.568 Y237.2 I-0.001 J-0.3
N900 G3 X318.643 Y231.501 Z-9.813 I0.038 J-2.85 F333.3
N905 G3 X318.568 Y237.2 Z-10.125 I-0.038 J2.85
N910 G3 X318.643 Y231.501 Z-10.438 I0.038 J-2.85
N915 G3 X318.568 Y237.2 Z-10.751 I-0.038 J2.85
N920 G3 X318.643 Y231.501 Z-11.063 I0.038 J-2.85
N925 G3 X318.568 Y237.2 Z-11.376 I-0.038 J2.85
N930 G3 X318.643 Y231.501 Z-11.689 I0.038 J-2.85
N935 G3 X318.605 Y237.2 Z-12 I-0.038 J2.85
N940 G1 X318.599 F420
N945 G1 X318.554 Y237.195
N950 G1 X318.512 Y237.177
N955 G1 X318.475 Y237.149
N960 G1 X318.447 Y237.113
N965 G1 X318.43 Y237.071
N970 G1 X318.424 Y237.025
N975 G1 Y187.859
N980 G1 X318.43 Y187.814
N985 G1 X318.447 Y187.772
N990 G1 X318.475 Y187.735
N995 G1 X318.512 Y187.708
N1000 G1 X318.554 Y187.69
N1005 G1 X318.599 Y187.684
N1010 G1 X318.612
N1015 G1 X318.657 Y187.69
N1020 G1 X318.699 Y187.708
N1025 G1 X318.735 Y187.735
N1030 G1 X318.763 Y187.772
N1035 G1 X318.781 Y187.814
N1040 G1 X318.787 Y187.859
N1045 G1 Y237.025
N1050 G1 X318.781 Y237.071
N1055 G1 X318.763 Y237.113
N1060 G1 X318.735 Y237.149
N1065 G1 X318.699 Y237.177
N1070 G1 X318.657 Y237.195
N1075 G1 X318.612 Y237.2
N1080 G1 X318.605
N1085 G2 X316.026 Y238.8 I0 J2.88
N1090 G3 X313.065 Y238.13 I-1.399 J-0.694
N1095 G1 X313.064 Y238.06
N1100 G1 Y186.824
N1105 G3 X317.564 Y182.324 I4.5 J0
N1110 G1 X319.646
N1115 G3 X324.146 Y186.824 I0 J4.5
N1120 G1 Y238.06
N1125 G3 X319.646 Y242.56 I-4.5 J0
N1130 G1 X317.564
N1135 G3 X313.065 Y238.13 I0 J-4.5
N1140 G3 X313.363 Y237.826 I0.3 J-0.005
N1145 G1 X318.565 Y237.8
N1150 G2 X318.568 Y237.2 I-0.001 J-0.3
N1155 G3 X318.643 Y231.501 Z-12.313 I0.038 J-2.85 F333.3
N1160 G3 X318.568 Y237.2 Z-12.625 I-0.038 J2.85
N1165 G3 X318.643 Y231.501 Z-12.938 I0.038 J-2.85
N1170 G3 X318.568 Y237.2 Z-13.251 I-0.038 J2.85
N1175 G3 X318.643 Y231.501 Z-13.563 I0.038 J-2.85
N1180 G3 X318.568 Y237.2 Z-13.876 I-0.038 J2.85
N1185 G3 X318.643 Y231.501 Z-14.189 I0.038 J-2.85
N1190 G3 X318.605 Y237.2 Z-14.5 I-0.038 J2.85
N1195 G1 X318.599 F420
N1200 G1 X318.554 Y237.195
N1205 G1 X318.512 Y237.177
N1210 G1 X318.475 Y237.149
N1215 G1 X318.447 Y237.113
N1220 G1 X318.43 Y237.071
N1225 G1 X318.424 Y237.025
N1230 G1 Y187.859
N1235 G1 X318.43 Y187.814
N1240 G1 X318.447 Y187.772
N1245 G1 X318.475 Y187.735
N1250 G1 X318.512 Y187.708
N1255 G1 X318.554 Y187.69
N1260 G1 X318.599 Y187.684
N1265 G1 X318.612
N1270 G1 X318.657 Y187.69
N1275 G1 X318.699 Y187.708
N1280 G1 X318.735 Y187.735
N1285 G1 X318.763 Y187.772
N1290 G1 X318.781 Y187.814
N1295 G1 X318.787 Y187.859
N1300 G1 Y237.025
N1305 G1 X318.781 Y237.071
N1310 G1 X318.763 Y237.113
N1315 G1 X318.735 Y237.149
N1320 G1 X318.699 Y237.177
N1325 G1 X318.657 Y237.195
N1330 G1 X318.612 Y237.2
N1335 G1 X318.605
N1340 G2 X316.026 Y238.8 I0 J2.88
N1345 G3 X313.065 Y238.13 I-1.399 J-0.694
N1350 G1 X313.064 Y238.06
N1355 G1 Y186.824
N1360 G3 X317.564 Y182.324 I4.5 J0
N1365 G1 X319.646
N1370 G3 X324.146 Y186.824 I0 J4.5
N1375 G1 Y238.06
N1380 G3 X319.646 Y242.56 I-4.5 J0
N1385 G1 X317.564
N1390 G3 X313.065 Y238.13 I0 J-4.5
N1395 G3 X313.363 Y237.826 I0.3 J-0.005
N1400 G1 X318.565 Y237.8
N1405 G2 X318.568 Y237.2 I-0.001 J-0.3
N1410 G3 X318.643 Y231.501 Z-14.813 I0.038 J-2.85 F333.3
N1415 G3 X318.568 Y237.2 Z-15.125 I-0.038 J2.85
N1420 G3 X318.643 Y231.501 Z-15.438 I0.038 J-2.85
N1425 G3 X318.568 Y237.2 Z-15.751 I-0.038 J2.85
N1430 G3 X318.643 Y231.501 Z-16.063 I0.038 J-2.85
N1435 G3 X318.568 Y237.2 Z-16.376 I-0.038 J2.85
N1440 G3 X318.643 Y231.501 Z-16.689 I0.038 J-2.85
N1445 G3 X318.605 Y237.2 Z-17 I-0.038 J2.85
N1450 G1 X318.599 F420
N1455 G1 X318.554 Y237.195
N1460 G1 X318.512 Y237.177
N1465 G1 X318.475 Y237.149
N1470 G1 X318.447 Y237.113
N1475 G1 X318.43 Y237.071
N1480 G1 X318.424 Y237.025
N1485 G1 Y187.859
N1490 G1 X318.43 Y187.814
N1495 G1 X318.447 Y187.772
N1500 G1 X318.475 Y187.735
N1505 G1 X318.512 Y187.708
N1510 G1 X318.554 Y187.69
N1515 G1 X318.599 Y187.684
N1520 G1 X318.612
N1525 G1 X318.657 Y187.69
N1530 G1 X318.699 Y187.708
N1535 G1 X318.735 Y187.735
N1540 G1 X318.763 Y187.772
N1545 G1 X318.781 Y187.814
N1550 G1 X318.787 Y187.859
N1555 G1 Y237.025
N1560 G1 X318.781 Y237.071
N1565 G1 X318.763 Y237.113
N1570 G1 X318.735 Y237.149
N1575 G1 X318.699 Y237.177
N1580 G1 X318.657 Y237.195
N1585 G1 X318.612 Y237.2
N1590 G1 X318.605
N1595 G2 X316.026 Y238.8 I0 J2.88
N1600 G3 X313.065 Y238.13 I-1.399 J-0.694
N1605 G1 X313.064 Y238.06
N1610 G1 Y186.824
N1615 G3 X317.564 Y182.324 I4.5 J0
N1620 G1 X319.646
N1625 G3 X324.146 Y186.824 I0 J4.5
N1630 G1 Y238.06
N1635 G3 X319.646 Y242.56 I-4.5 J0
N1640 G1 X317.564
N1645 G3 X313.065 Y238.13 I0 J-4.5
N1650 G3 X313.363 Y237.826 I0.3 J-0.005
N1655 G1 X318.565 Y237.8
N1660 G2 X318.568 Y237.2 I-0.001 J-0.3
N1665 G3 X318.643 Y231.501 Z-17.313 I0.038 J-2.85 F333.3
N1670 G3 X318.568 Y237.2 Z-17.625 I-0.038 J2.85
N1675 G3 X318.643 Y231.501 Z-17.938 I0.038 J-2.85
N1680 G3 X318.568 Y237.2 Z-18.251 I-0.038 J2.85
N1685 G3 X318.643 Y231.501 Z-18.563 I0.038 J-2.85
N1690 G3 X318.568 Y237.2 Z-18.876 I-0.038 J2.85
N1695 G3 X318.643 Y231.501 Z-19.189 I0.038 J-2.85
N1700 G3 X318.605 Y237.2 Z-19.5 I-0.038 J2.85
N1705 G1 X318.599 F420
N1710 G1 X318.554 Y237.195
N1715 G1 X318.512 Y237.177
N1720 G1 X318.475 Y237.149
N1725 G1 X318.447 Y237.113
N1730 G1 X318.43 Y237.071
N1735 G1 X318.424 Y237.025
N1740 G1 Y187.859
N1745 G1 X318.43 Y187.814
N1750 G1 X318.447 Y187.772
N1755 G1 X318.475 Y187.735
N1760 G1 X318.512 Y187.708
N1765 G1 X318.554 Y187.69
N1770 G1 X318.599 Y187.684
N1775 G1 X318.612
N1780 G1 X318.657 Y187.69
N1785 G1 X318.699 Y187.708
N1790 G1 X318.735 Y187.735
N1795 G1 X318.763 Y187.772
N1800 G1 X318.781 Y187.814
N1805 G1 X318.787 Y187.859
N1810 G1 Y237.025
N1815 G1 X318.781 Y237.071
N1820 G1 X318.763 Y237.113
N1825 G1 X318.735 Y237.149
N1830 G1 X318.699 Y237.177
N1835 G1 X318.657 Y237.195
N1840 G1 X318.612 Y237.2
N1845 G1 X318.605
N1850 G2 X316.026 Y238.8 I0 J2.88
N1855 G3 X313.065 Y238.13 I-1.399 J-0.694
N1860 G1 X313.064 Y238.06
N1865 G1 Y186.824
N1870 G3 X317.564 Y182.324 I4.5 J0
N1875 G1 X319.646
N1880 G3 X324.146 Y186.824 I0 J4.5
N1885 G1 Y238.06
N1890 G3 X319.646 Y242.56 I-4.5 J0
N1895 G1 X317.564
N1900 G3 X313.065 Y238.13 I0 J-4.5
N1905 G3 X313.363 Y237.826 I0.3 J-0.005
N1910 G1 X318.565 Y237.8
N1915 G2 X318.568 Y237.2 I-0.001 J-0.3
N1920 G3 X318.643 Y231.501 Z-19.813 I0.038 J-2.85 F333.3
N1925 G3 X318.568 Y237.2 Z-20.125 I-0.038 J2.85
N1930 G3 X318.643 Y231.501 Z-20.438 I0.038 J-2.85
N1935 G3 X318.568 Y237.2 Z-20.751 I-0.038 J2.85
N1940 G3 X318.643 Y231.501 Z-21.063 I0.038 J-2.85
N1945 G3 X318.568 Y237.2 Z-21.376 I-0.038 J2.85
N1950 G3 X318.643 Y231.501 Z-21.689 I0.038 J-2.85
N1955 G3 X318.605 Y237.2 Z-22 I-0.038 J2.85
N1960 G1 X318.599 F420
N1965 G1 X318.554 Y237.195
N1970 G1 X318.512 Y237.177
N1975 G1 X318.475 Y237.149
N1980 G1 X318.447 Y237.113
N1985 G1 X318.43 Y237.071
N1990 G1 X318.424 Y237.025
N1995 G1 Y187.859
N2000 G1 X318.43 Y187.814
N2005 G1 X318.447 Y187.772
N2010 G1 X318.475 Y187.735
N2015 G1 X318.512 Y187.708
N2020 G1 X318.554 Y187.69
N2025 G1 X318.599 Y187.684
N2030 G1 X318.612
N2035 G1 X318.657 Y187.69
N2040 G1 X318.699 Y187.708
N2045 G1 X318.735 Y187.735
N2050 G1 X318.763 Y187.772
N2055 G1 X318.781 Y187.814
N2060 G1 X318.787 Y187.859
N2065 G1 Y237.025
N2070 G1 X318.781 Y237.071
N2075 G1 X318.763 Y237.113
N2080 G1 X318.735 Y237.149
N2085 G1 X318.699 Y237.177
N2090 G1 X318.657 Y237.195
N2095 G1 X318.612 Y237.2
N2100 G1 X318.605
N2105 G2 X316.026 Y238.8 I0 J2.88
N2110 G3 X313.065 Y238.13 I-1.399 J-0.694
N2115 G1 X313.064 Y238.06
N2120 G1 Y186.824
N2125 G3 X317.564 Y182.324 I4.5 J0
N2130 G1 X319.646
N2135 G3 X324.146 Y186.824 I0 J4.5
N2140 G1 Y238.06
N2145 G3 X319.646 Y242.56 I-4.5 J0
N2150 G1 X317.564
N2155 G3 X313.065 Y238.13 I0 J-4.5
N2160 G3 X313.363 Y237.826 I0.3 J-0.005
N2165 G1 X318.565 Y237.8
N2170 G2 X318.568 Y237.2 I-0.001 J-0.3
N2175 G3 X318.643 Y231.501 Z-22.313 I0.038 J-2.85 F333.3
N2180 G3 X318.568 Y237.2 Z-22.625 I-0.038 J2.85
N2185 G3 X318.643 Y231.501 Z-22.938 I0.038 J-2.85
N2190 G3 X318.568 Y237.2 Z-23.251 I-0.038 J2.85
N2195 G3 X318.643 Y231.501 Z-23.563 I0.038 J-2.85
N2200 G3 X318.568 Y237.2 Z-23.876 I-0.038 J2.85
N2205 G3 X318.643 Y231.501 Z-24.189 I0.038 J-2.85
N2210 G3 X318.605 Y237.2 Z-24.5 I-0.038 J2.85
N2215 G1 X318.599 F420
N2220 G1 X318.554 Y237.195
N2225 G1 X318.512 Y237.177
N2230 G1 X318.475 Y237.149
N2235 G1 X318.447 Y237.113
N2240 G1 X318.43 Y237.071
N2245 G1 X318.424 Y237.025
N2250 G1 Y187.859
N2255 G1 X318.43 Y187.814
N2260 G1 X318.447 Y187.772
N2265 G1 X318.475 Y187.735
N2270 G1 X318.512 Y187.708
N2275 G1 X318.554 Y187.69
N2280 G1 X318.599 Y187.684
N2285 G1 X318.612
N2290 G1 X318.657 Y187.69
N2295 G1 X318.699 Y187.708
N2300 G1 X318.735 Y187.735
N2305 G1 X318.763 Y187.772
N2310 G1 X318.781 Y187.814
N2315 G1 X318.787 Y187.859
N2320 G1 Y237.025
N2325 G1 X318.781 Y237.071
N2330 G1 X318.763 Y237.113
N2335 G1 X318.735 Y237.149
N2340 G1 X318.699 Y237.177
N2345 G1 X318.657 Y237.195
N2350 G1 X318.612 Y237.2
N2355 G1 X318.605
N2360 G2 X316.026 Y238.8 I0 J2.88
N2365 G3 X313.065 Y238.13 I-1.399 J-0.694
N2370 G1 X313.064 Y238.06
N2375 G1 Y186.824
N2380 G3 X317.564 Y182.324 I4.5 J0
N2385 G1 X319.646
N2390 G3 X324.146 Y186.824 I0 J4.5
N2395 G1 Y238.06
N2400 G3 X319.646 Y242.56 I-4.5 J0
N2405 G1 X317.564
N2410 G3 X313.065 Y238.13 I0 J-4.5
N2415 G3 X313.218 Y237.864 I0.3 J-0.005
N2420 G1 X316.071 Y236.266
N2425 G2 X316.18 Y235.847 I-0.147 J-0.262
N2430 G3 X321.031 Y232.854 Z-24.813 I2.426 J-1.496 F333.3
N2435 G3 X316.18 Y235.847 Z-25.125 I-2.426 J1.496
N2440 G3 X321.031 Y232.854 Z-25.438 I2.426 J-1.496
N2445 G3 X316.18 Y235.847 Z-25.751 I-2.426 J1.496
N2450 G3 X321.031 Y232.854 Z-26.063 I2.426 J-1.496
N2455 G3 X316.18 Y235.847 Z-26.376 I-2.426 J1.496
N2460 G3 X321.031 Y232.854 Z-26.689 I2.426 J-1.496
N2465 G3 X318.605 Y237.2 Z-26.9 I-2.426 J1.496
N2470 G1 X318.599 F420
N2475 G1 X318.554 Y237.195
N2480 G1 X318.512 Y237.177
N2485 G1 X318.475 Y237.149
N2490 G1 X318.447 Y237.113
N2495 G1 X318.43 Y237.071
N2500 G1 X318.424 Y237.025
N2505 G1 Y187.859
N2510 G1 X318.43 Y187.814
N2515 G1 X318.447 Y187.772
N2520 G1 X318.475 Y187.735
N2525 G1 X318.512 Y187.708
N2530 G1 X318.554 Y187.69
N2535 G1 X318.599 Y187.684
N2540 G1 X318.612
N2545 G1 X318.657 Y187.69
N2550 G1 X318.699 Y187.708
N2555 G1 X318.735 Y187.735
N2560 G1 X318.763 Y187.772
N2565 G1 X318.781 Y187.814
N2570 G1 X318.787 Y187.859
N2575 G1 Y237.025
N2580 G1 X318.781 Y237.071
N2585 G1 X318.763 Y237.113
N2590 G1 X318.735 Y237.149
N2595 G1 X318.699 Y237.177
N2600 G1 X318.657 Y237.195
N2605 G1 X318.612 Y237.2
N2610 G1 X318.605
N2615 G2 X316.026 Y238.8 I0 J2.88
N2620 G3 X313.065 Y238.13 I-1.399 J-0.694
N2625 G1 X313.064 Y238.06
N2630 G1 Y186.824
N2635 G3 X317.564 Y182.324 I4.5 J0
N2640 G1 X319.646
N2645 G3 X324.146 Y186.824 I0 J4.5
N2650 G1 Y238.06
N2655 G3 X319.646 Y242.56 I-4.5 J0
N2660 G1 X317.564
N2665 G3 X313.065 Y238.13 I0 J-4.5
N2670 G1 X313.071 Y238.038 Z-26.885 F1000
N2675 G1 X313.091 Y237.947 Z-26.871
N2680 G1 X313.12 Y237.869 Z-26.828
N2685 G1 X313.16 Y237.796 Z-26.785
N2690 G1 X313.199 Y237.742 Z-26.719
N2695 G1 X313.244 Y237.693 Z-26.653
N2700 G1 X313.309 Y237.638 Z-26.485
N2705 G1 X313.333 Y237.621 Z-26.3
N2710 G0 Z15
N2715 G28 G91 Z0
N2720 G90
N2725 G28 G91 X0 Y0
N2730 G90
N2735 M30
%
