%
(Drill)
(Drill)
(T1 D=6 CR=0 - ZMIN=-35 - flat end mill)
N10 G90 G94
N15 G17
N20 G21
N25 G28 G91 Z0
N30 G90

(Drill)
N35 T1 M6
N40 S14000 M3
N45 G54
N50 G0 X426.624 Y346.134
N55 G0 G43 Z15 H1
N60 G0 Z5
N65 G81 Z-35 R5 F100
N70 X426.624 Y71.134
N75 X41.624
N80 Y346.134
N85 G80
N90 G0 Z15
N95 G28 G91 Z0
N100 G90
N105 G28 G91 X0 Y0
N110 G90
N115 M30
%
