%
(FaceTop)
(FaceTop)
(T1 D=6 CR=0 - ZMIN=-2 - flat end mill)
N10 G90 G94
N15 G17
N20 G21
N25 G28 G91 Z0
N30 G90

(Face1)
N35 T1 M6
N40 S14000 M3
N45 G54
N50 G0 X442.557 Y54.616
N55 G0 G43 Z15 H1
N60 G0 Z5
N65 G1 Z-1.4 F1000
N70 G18 G3 X441.957 Z-2 I-0.6 K0
N75 G1 X438.657
N80 G1 X13.657 F350
N85 G17 G2 Y60.253 I0 J2.819
N90 G1 X438.657
N95 G3 Y65.89 I0 J2.819
N100 G1 X13.657
N105 G2 Y71.527 I0 J2.819
N110 G1 X438.657
N115 G3 Y77.164 I0 J2.819
N120 G1 X13.657
N125 G2 Y82.801 I0 J2.819
N130 G1 X438.657
N135 G3 Y88.438 I0 J2.819
N140 G1 X13.657
N145 G2 Y94.076 I0 J2.819
N150 G1 X438.657
N155 G3 Y99.713 I0 J2.819
N160 G1 X13.657
N165 G2 Y105.35 I0 J2.819
N170 G1 X438.657
N175 G3 Y110.987 I0 J2.819
N180 G1 X13.657
N185 G2 Y116.624 I0 J2.819
N190 G1 X438.657
N195 G3 Y122.261 I0 J2.819
N200 G1 X13.657
N205 G2 Y127.898 I0 J2.819
N210 G1 X438.657
N215 G3 Y133.535 I0 J2.819
N220 G1 X13.657
N225 G2 Y139.172 I0 J2.819
N230 G1 X438.657
N235 G3 Y144.809 I0 J2.819
N240 G1 X13.657
N245 G2 Y150.446 I0 J2.819
N250 G1 X438.657
N255 G3 Y156.083 I0 J2.819
N260 G1 X13.657
N265 G2 Y161.72 I0 J2.818
N270 G1 X438.657
N275 G3 Y167.357 I0 J2.819
N280 G1 X13.657
N285 G2 Y172.994 I0 J2.819
N290 G1 X438.657
N295 G3 Y178.631 I0 J2.818
N300 G1 X13.657
N305 G2 Y184.268 I0 J2.819
N310 G1 X438.657
N315 G3 Y189.905 I0 J2.819
N320 G1 X13.657
N325 G2 Y195.542 I0 J2.819
N330 G1 X438.657
N335 G3 Y201.179 I0 J2.819
N340 G1 X13.657
N345 G2 Y206.816 I0 J2.818
N350 G1 X438.657
N355 G3 Y212.453 I0 J2.819
N360 G1 X13.657
N365 G2 Y218.09 I0 J2.819
N370 G1 X438.657
N375 G3 Y223.727 I0 J2.818
N380 G1 X13.657
N385 G2 Y229.364 I0 J2.819
N390 G1 X438.657
N395 G3 Y235.001 I0 J2.819
N400 G1 X13.657
N405 G2 Y240.638 I0 J2.819
N410 G1 X438.657
N415 G3 Y246.275 I0 J2.819
N420 G1 X13.657
N425 G2 Y251.912 I0 J2.818
N430 G1 X438.657
N435 G3 Y257.549 I0 J2.819
N440 G1 X13.657
N445 G2 Y263.186 I0 J2.819
N450 G1 X438.657
N455 G3 Y268.823 I0 J2.819
N460 G1 X13.657
N465 G2 Y274.46 I0 J2.818
N470 G1 X438.657
N475 G3 Y280.097 I0 J2.819
N480 G1 X13.657
N485 G2 Y285.734 I0 J2.819
N490 G1 X438.657
N495 G3 Y291.371 I0 J2.819
N500 G1 X13.657
N505 G2 Y297.008 I0 J2.819
N510 G1 X438.657
N515 G3 Y302.645 I0 J2.819
N520 G1 X13.657
N525 G2 Y308.282 I0 J2.819
N530 G1 X438.657
N535 G3 Y313.919 I0 J2.819
N540 G1 X13.657
N545 G2 Y319.556 I0 J2.819
N550 G1 X438.657
N555 G3 Y325.193 I0 J2.819
N560 G1 X13.657
N565 G2 Y330.83 I0 J2.819
N570 G1 X438.657
N575 G3 Y336.467 I0 J2.818
N580 G1 X13.657
N585 G2 Y342.104 I0 J2.819
N590 G1 X438.657
N595 G3 Y347.741 I0 J2.819
N600 G1 X13.657
N605 G2 Y353.378 I0 J2.819
N610 G1 X438.657
N615 G3 Y359.015 I0 J2.819
N620 G1 X13.657
N625 G18 G3 X13.057 Z-1.4 I0 K0.6 F1000
N630 G0 Z15
N635 G17
N640 G28 G91 Z0
N645 G90
N650 G28 G91 X0 Y0
N655 G90
N660 M30
%
