%
(FaceBottom)
(FaceBottom)
(T1 D=6 CR=0 - ZMIN=-4 - flat end mill)
N10 G90 G94
N15 G17
N20 G21
N25 G28 G91 Z0
N30 G90

(Face2)
N35 T1 M6
N40 S14000 M3
N45 G54
N50 G0 X382.183 Y56.917
N55 G0 G43 Z15 H1
N60 G0 Z3.5
N65 G1 Z-3.4 F1000
N70 G18 G3 X381.583 Z-4 I-0.6 K0
N75 G1 X380.18
N80 G1 X302.546 F420
N85 G1 X284.996
N90 G17 G2 Y62.588 I0 J2.835
N95 G1 X392.25
N100 G1 X400.576
N105 G3 Y68.258 I0 J2.835
N110 G1 X271.657
N115 G1 X259.821
N120 G2 Y73.928 I0 J2.835
N125 G1 X406.936
N130 G1 X412.022
N135 G3 Y79.598 I0 J2.835
N140 G1 X248.123
N145 G1 X235.144
N150 G2 Y85.268 I0 J2.835
N155 G1 X417.203
N160 G1 X421.748
N165 G3 Y90.939 I0 J2.835
N170 G1 X215.463
N175 G18 G3 X214.863 Z-3.4 I0 K0.6 F1000
N180 G0 Z5
N185 G0 X155.232 Y73.928
N190 G0 Z3.5
N195 G1 Z-3.4 F1000
N200 G3 X154.632 Z-4 I-0.6 K0
N205 G1 X153.117
N210 G1 X101.271 F420
N215 G1 X88.525
N220 G17 G2 Y79.598 I0 J2.835
N225 G1 X169.915
N230 G1 X184.195
N235 G3 Y85.268 I0 J2.835
N240 G1 X81.261
N245 G1 X76.693
N250 G2 Y90.939 I0 J2.835
N255 G1 X202.954
N260 G18 G2 X203.554 Z-3.4 I0 K0.6 F1000
N265 G0 Z5
N270 G0 X70.91 Y96.609
N275 G0 Z3.5
N280 G1 Z-3.4 F1000
N285 G2 X71.51 Z-4 I0.6 K0
N290 G1 X73.84
N295 G1 X425.704 F420
N300 G1 X429.125
N305 G17 G3 Y102.279 I0 J2.835
N310 G1 X72.323
N315 G1 X71.968
N320 G2 Y107.949 I0 J2.835
N325 G1 X432.059
N330 G1 X434.546
N335 G3 Y113.619 I0 J2.835
N340 G1 X71.983
N345 G2 Y119.29 I0 J2.835
N350 G1 X72.777
N355 G1 X436.62
N360 G1 X438.309
N365 G3 Y124.96 I0 J2.835
N370 G1 X74.903
N375 G2 Y130.63 I0 J2.835
N380 G1 X78.778
N385 G1 X439.638
N390 G1 X440.629
N395 G3 Y136.3 I0 J2.835
N400 G1 X85.699
N405 G18 G3 X85.099 Z-3.4 I0 K0.6 F1000
N410 G0 Z5
N415 G0 X107.132 Y141.97
N420 G0 Z3.5
N425 G1 Z-3.4 F1000
N430 G2 X107.732 Z-4 I0.6 K0
N435 G1 X109.26
N440 G1 X441.303 F420
N445 G1 X441.677
N450 G17 G3 Y147.641 I0 J2.835
N455 G1 X121.209
N460 G2 Y153.311 I0 J2.835
N465 G1 X125.133
N470 G1 X441.77
N475 G3 Y158.981 I0 J2.835
N480 G1 X441.768
N485 G1 X125.125
N490 G1 X122.766
N495 G2 Y164.651 I0 J2.835
N500 G1 X441.766
N505 G3 Y170.322 I0 J2.835
N510 G1 X78.604
N515 G1 X72.904
N520 G2 Y175.992 I0 J2.835
N525 G1 X441.766
N530 G3 Y181.662 I0 J2.835
N535 G1 X70.204
N540 G1 X69.311
N545 G2 Y187.332 I0 J2.835
N550 G1 X441.766
N555 G3 Y193.002 I0 J2.835
N560 G1 X69.303
N565 G2 Y198.673 I0 J2.835
N570 G1 X441.766
N575 G3 Y204.343 I0 J2.835
N580 G1 X69.303
N585 G2 Y210.013 I0 J2.835
N590 G1 X441.766
N595 G3 Y215.683 I0 J2.835
N600 G1 X69.303
N605 G2 Y221.353 I0 J2.835
N610 G1 X441.766
N615 G3 Y227.024 I0 J2.835
N620 G1 X69.303
N625 G2 Y232.694 I0 J2.835
N630 G1 X69.546
N635 G1 X441.766
N640 G3 Y238.364 I0 J2.835
N645 G1 X71.256
N650 G2 Y244.034 I0 J2.835
N655 G1 X75.127
N660 G1 X441.766
N665 G3 Y249.704 I0 J2.835
N670 G1 X84.404
N675 G2 Y255.375 I0 J2.835
N680 G1 X84.881
N685 G1 X441.477
N690 G3 Y261.045 I0 J2.835
N695 G1 X440.778
N700 G1 X81.066
N705 G1 X72.27
N710 G2 Y266.715 I0 J2.835
N715 G1 X440.001
N720 G3 Y272.385 I0 J2.835
N725 G1 X439.134
N730 G1 X47.004
N735 G1 X26.401
N740 G2 Y278.055 I0 J2.835
N745 G1 X438.162
N750 G3 Y283.726 I0 J2.835
N755 G1 X437.064
N760 G1 X16.49
N765 G1 X11.399
N770 G2 Y289.396 I0 J2.835
N775 G1 X435.813
N780 G3 Y295.066 I0 J2.835
N785 G1 X434.373
N790 G1 X8.901
N795 G1 X8.233
N800 G2 Y300.736 I0 J2.835
N805 G1 X432.693
N810 G3 Y306.407 I0 J2.835
N815 G1 X430.704
N820 G1 X8.235
N825 G2 Y312.077 I0 J2.835
N830 G1 X9.133
N835 G1 X428.302
N840 G3 Y317.747 I0 J2.835
N845 G1 X425.339
N850 G1 X11.814
N855 G2 Y323.417 I0 J2.835
N860 G1 X16.713
N865 G1 X421.626
N870 G3 Y329.087 I0 J2.835
N875 G1 X417.057
N880 G1 X219.093
N885 G2 Y334.758 I0 J2.835
N890 G1 X234.475
N895 G1 X411.99
N900 G3 Y340.428 I0 J2.835
N905 G1 X406.425
N910 G1 X247.277
N915 G2 Y346.098 I0 J2.835
N920 G1 X261.374
N925 G1 X399.781
N930 G3 Y351.768 I0 J2.835
N935 G1 X390.949
N940 G1 X277.77
N945 G2 Y357.438 I0 J2.835
N950 G1 X298.205
N955 G1 X378.323
N960 G18 G2 X378.923 Z-3.4 I0 K0.6 F1000
N965 G0 Z5
N970 G0 X162.823 Y329.087
N975 G0 Z3.5
N980 G1 Z-3.4 F1000
N985 G3 X162.223 Z-4 I-0.6 K0
N990 G1 X160.71
N995 G1 X24.412 F420
N1000 G17 G2 Y334.758 I0 J2.835
N1005 G1 X35.125
N1010 G1 X143.991
N1015 G3 Y340.428 I0 J2.835
N1020 G1 X127.009
N1025 G1 X49.081
N1030 G18 G3 X48.481 Z-3.4 I0 K0.6 F1000
N1035 G0 Z15
N1040 G17
N1045 G28 G91 Z0
N1050 G90
N1055 G28 G91 X0 Y0
N1060 G90
N1065 M30
%
