%
(JackPocket)
(JackPocket)
(T1 D=6 CR=0 - ZMIN=-30 - flat end mill)
N10 G90 G94
N15 G17
N20 G21
N25 G28 G91 Z0
N30 G90

(2D Pocket1)
N35 T1 M6
N40 S14000 M3
N45 G54
N50 G0 X353.095 Y287.528
N55 G0 G43 Z15 H1
N60 G0 Z5
N65 G1 Z3.1 F1000
N70 G1 X353.122 Y287.553 Z2.893 F333.3
N75 G1 X353.199 Y287.626 Z2.711
N80 G1 X353.31 Y287.745 Z2.577
N85 G1 X353.437 Y287.897 Z2.507
N90 G1 X353.482 Y287.958 Z2.5
N95 G3 X348.878 Y291.319 Z2.187 I-2.302 J1.681
N100 G3 X353.482 Y287.958 Z1.875 I2.302 J-1.681
N105 G3 X348.878 Y291.319 Z1.562 I-2.302 J1.681
N110 G3 X353.482 Y287.958 Z1.249 I2.302 J-1.681
N115 G3 X348.878 Y291.319 Z0.937 I-2.302 J1.681
N120 G3 X353.482 Y287.958 Z0.624 I2.302 J-1.681
N125 G3 X348.878 Y291.319 Z0.311 I-2.302 J1.681
N130 G3 X353.482 Y287.958 Z-0.001 I2.302 J-1.681
N135 G3 X348.878 Y291.319 Z-0.314 I-2.302 J1.681
N140 G3 X353.482 Y287.958 Z-0.627 I2.302 J-1.681
N145 G3 X348.878 Y291.319 Z-0.939 I-2.302 J1.681
N150 G3 X353.482 Y287.958 Z-1.252 I2.302 J-1.681
N155 G3 X348.878 Y291.319 Z-1.565 I-2.302 J1.681
N160 G3 X353.482 Y287.958 Z-1.877 I2.302 J-1.681
N165 G3 X348.878 Y291.319 Z-2.19 I-2.302 J1.681
N170 G3 X353.437 Y287.897 Z-2.5 I2.302 J-1.681
N175 G3 X356.185 Y291.894 I-35.122 J27.096 F420
N180 G1 X356.198 Y291.929
N185 G1 Y291.965
N190 G1 X356.185 Y292
N195 G1 X356.16 Y292.027
N200 G1 X356.127 Y292.044
N205 G1 X356.09 Y292.048
N210 G1 X356.055 Y292.038
N215 G1 X356.025 Y292.016
N220 G3 X352.858 Y288.328 I35.893 J-34.022
N225 G3 X350.092 Y284.33 I34.856 J-27.069
N230 G1 X350.079 Y284.296
N235 G1 Y284.259
N240 G1 X350.092 Y284.224
N245 G1 X350.117 Y284.197
N250 G1 X350.15 Y284.18
N255 G1 X350.186 Y284.176
N260 G1 X350.222 Y284.185
N265 G1 X350.252 Y284.207
N270 G3 X353.437 Y287.897 I-30.889 J29.871
N275 G2 X356.127 Y288.841 I2.068 J-1.589
N280 G3 X358.763 Y289.928 I0.576 J2.344
N285 G3 X359.693 Y291.524 I-38.072 J23.231
N290 G3 X362.532 Y297.607 I-42.159 J23.387
N295 G3 X363.367 Y299.902 I-62.721 J24.119
N300 G3 X364.095 Y302.234 I-41.06 J14.099
N305 G3 X363.878 Y302.412 I-0.148 J0.042
N310 G3 X361.961 Y301.258 I7.096 J-13.951
N315 G3 X360.15 Y299.945 I46.807 J-66.461
N320 G3 X346.406 Y284.432 I30.492 J-40.86
N325 G3 X344.952 Y281.68 I44.735 J-25.405
N330 G3 X343.635 Y278.86 I72.585 J-35.598
N335 G3 X343.509 Y278.449 I1.641 J-0.728
N340 G3 X343.437 Y277.984 I9.891 J-1.774
N345 G2 X343.372 Y277.519 I-30.553 J4.015
N350 G1 X343.241 Y276.629
N355 G3 X343.161 Y275.747 I7.928 J-1.165
N360 G3 X343.448 Y275.523 I0.225 J-0.008
N365 G3 X344.939 Y276.029 I-4.712 J16.311
N370 G3 X346.392 Y276.636 I-13.544 J34.508
N375 G3 X346.766 Y276.858 I-0.726 J1.642
N380 G3 X351.673 Y281.093 I-37.808 J48.774
N385 G3 X356.004 Y285.916 I-30.102 J31.387
N390 G3 X358.763 Y289.928 I-35.313 J27.243
N395 G2 X362.083 Y291.489 I2.843 J-1.735
N400 G3 X365.279 Y293.29 I0.43 J2.975
N405 G1 X366.47 Y296.092
N410 G1 X367.711 Y299.686
N415 G1 X368.285 Y301.722
N420 G1 X368.686 Y303.522
N425 G1 X368.914 Y305.048
N430 G1 X368.984 Y306.276
N435 G1 X368.923 Y307.178
N440 G1 X368.792 Y307.728
N445 G1 X368.681 Y307.956
N450 G1 X368.646 Y307.995
N455 G1 X368.6 Y308.022
N460 G1 X368.351 Y308.088
N465 G1 X367.782 Y308.108
N470 G1 X366.883 Y307.991
N475 G1 X365.688 Y307.682
N480 G1 X364.233 Y307.159
N485 G1 X362.543 Y306.413
N490 G1 X360.762 Y305.507
N495 G1 X357.627 Y303.325
N500 G1 X354.614 Y300.918
N505 G1 X351.813 Y298.347
N510 G1 X349.22 Y295.611
N515 G1 X346.833 Y292.709
N520 G1 X344.688 Y289.695
N525 G1 X342.738 Y286.516
N530 G1 X340.983 Y283.168
N535 G1 X339.53 Y279.893
N540 G1 X339.214 Y278.13
N545 G1 X339.008 Y276.338
N550 G1 X338.954 Y274.814
N555 G1 X339.035 Y273.573
N560 G1 X339.22 Y272.631
N565 G1 X339.462 Y271.987
N570 G1 X339.709 Y271.595
N575 G1 X339.951 Y271.36
N580 G1 X340.258 Y271.185
N585 G1 X340.743 Y271.041
N590 G1 X341.486 Y270.972
N595 G1 X342.506 Y271.038
N600 G1 X343.789 Y271.279
N605 G1 X345.313 Y271.72
N610 G1 X347.06 Y272.37
N615 G1 X348.746 Y273.116
N620 G1 X351.586 Y275.317
N625 G1 X354.402 Y277.836
N630 G1 X356.987 Y280.509
N635 G1 X359.345 Y283.339
N640 G1 X361.478 Y286.329
N645 G1 X363.355 Y289.422
N650 G1 X365.019 Y292.676
N655 G1 X365.279 Y293.29
N660 G3 X364.915 Y293.693 I-0.276 J0.117
N665 G1 X355.185 Y290.679
N670 G1 X355.128 Y290.654
N675 G1 X355.078 Y290.619
N680 G1 X355.035 Y290.574
N685 G1 X353.392 Y288.416
N690 G1 X353.256 Y288.035
N695 G1 X353.249 Y287.994
N700 G1 X353.258 Y287.954
N705 G1 X353.279 Y287.919
N710 G1 X353.312 Y287.894
N715 G1 X353.351 Y287.882
N720 G1 X353.392 Y287.883
N725 G1 X353.429 Y287.899
N730 G1 X353.459 Y287.927
N735 G3 X348.901 Y291.349 Z-2.813 I-2.279 J1.711 F333.3
N740 G3 X353.459 Y287.927 Z-3.125 I2.279 J-1.711
N745 G3 X348.901 Y291.349 Z-3.438 I-2.279 J1.711
N750 G3 X353.459 Y287.927 Z-3.751 I2.279 J-1.711
N755 G3 X348.901 Y291.349 Z-4.063 I-2.279 J1.711
N760 G3 X353.459 Y287.927 Z-4.376 I2.279 J-1.711
N765 G3 X348.901 Y291.349 Z-4.689 I-2.279 J1.711
N770 G3 X353.437 Y287.897 Z-5 I2.279 J-1.711
N775 G3 X356.185 Y291.894 I-35.122 J27.096 F420
N780 G1 X356.198 Y291.929
N785 G1 Y291.965
N790 G1 X356.185 Y292
N795 G1 X356.16 Y292.027
N800 G1 X356.127 Y292.044
N805 G1 X356.09 Y292.048
N810 G1 X356.055 Y292.038
N815 G1 X356.025 Y292.016
N820 G3 X352.858 Y288.328 I35.893 J-34.022
N825 G3 X350.092 Y284.33 I34.856 J-27.069
N830 G1 X350.079 Y284.296
N835 G1 Y284.259
N840 G1 X350.092 Y284.224
N845 G1 X350.117 Y284.197
N850 G1 X350.15 Y284.18
N855 G1 X350.186 Y284.176
N860 G1 X350.222 Y284.185
N865 G1 X350.252 Y284.207
N870 G3 X353.437 Y287.897 I-30.889 J29.871
N875 G2 X356.127 Y288.841 I2.068 J-1.589
N880 G3 X358.763 Y289.928 I0.576 J2.344
N885 G3 X359.693 Y291.524 I-38.072 J23.231
N890 G3 X362.532 Y297.607 I-42.159 J23.387
N895 G3 X363.367 Y299.902 I-62.721 J24.119
N900 G3 X364.095 Y302.234 I-41.06 J14.099
N905 G3 X363.878 Y302.412 I-0.148 J0.042
N910 G3 X361.961 Y301.258 I7.096 J-13.951
N915 G3 X360.15 Y299.945 I46.807 J-66.461
N920 G3 X346.406 Y284.432 I30.492 J-40.86
N925 G3 X344.952 Y281.68 I44.735 J-25.405
N930 G3 X343.635 Y278.86 I72.585 J-35.598
N935 G3 X343.509 Y278.449 I1.641 J-0.728
N940 G3 X343.437 Y277.984 I9.891 J-1.774
N945 G2 X343.372 Y277.519 I-30.553 J4.015
N950 G1 X343.241 Y276.629
N955 G3 X343.161 Y275.747 I7.928 J-1.165
N960 G3 X343.448 Y275.523 I0.225 J-0.008
N965 G3 X344.939 Y276.029 I-4.712 J16.311
N970 G3 X346.392 Y276.636 I-13.544 J34.508
N975 G3 X346.766 Y276.858 I-0.726 J1.642
N980 G3 X351.673 Y281.093 I-37.808 J48.774
N985 G3 X356.004 Y285.916 I-30.102 J31.387
N990 G3 X358.763 Y289.928 I-35.313 J27.243
N995 G2 X362.083 Y291.489 I2.843 J-1.735
N1000 G3 X365.279 Y293.29 I0.43 J2.975
N1005 G1 X366.47 Y296.092
N1010 G1 X367.711 Y299.686
N1015 G1 X368.285 Y301.722
N1020 G1 X368.686 Y303.522
N1025 G1 X368.914 Y305.048
N1030 G1 X368.984 Y306.276
N1035 G1 X368.923 Y307.178
N1040 G1 X368.792 Y307.728
N1045 G1 X368.681 Y307.956
N1050 G1 X368.646 Y307.995
N1055 G1 X368.6 Y308.022
N1060 G1 X368.351 Y308.088
N1065 G1 X367.782 Y308.108
N1070 G1 X366.883 Y307.991
N1075 G1 X365.688 Y307.682
N1080 G1 X364.233 Y307.159
N1085 G1 X362.543 Y306.413
N1090 G1 X360.762 Y305.507
N1095 G1 X357.627 Y303.325
N1100 G1 X354.614 Y300.918
N1105 G1 X351.813 Y298.347
N1110 G1 X349.22 Y295.611
N1115 G1 X346.833 Y292.709
N1120 G1 X344.688 Y289.695
N1125 G1 X342.738 Y286.516
N1130 G1 X340.983 Y283.168
N1135 G1 X339.53 Y279.893
N1140 G1 X339.214 Y278.13
N1145 G1 X339.008 Y276.338
N1150 G1 X338.954 Y274.814
N1155 G1 X339.035 Y273.573
N1160 G1 X339.22 Y272.631
N1165 G1 X339.462 Y271.987
N1170 G1 X339.709 Y271.595
N1175 G1 X339.951 Y271.36
N1180 G1 X340.258 Y271.185
N1185 G1 X340.743 Y271.041
N1190 G1 X341.486 Y270.972
N1195 G1 X342.506 Y271.038
N1200 G1 X343.789 Y271.279
N1205 G1 X345.313 Y271.72
N1210 G1 X347.06 Y272.37
N1215 G1 X348.746 Y273.116
N1220 G1 X351.586 Y275.317
N1225 G1 X354.402 Y277.836
N1230 G1 X356.987 Y280.509
N1235 G1 X359.345 Y283.339
N1240 G1 X361.478 Y286.329
N1245 G1 X363.355 Y289.422
N1250 G1 X365.019 Y292.676
N1255 G1 X365.279 Y293.29
N1260 G3 X364.915 Y293.693 I-0.276 J0.117
N1265 G1 X355.185 Y290.679
N1270 G1 X355.128 Y290.654
N1275 G1 X355.078 Y290.619
N1280 G1 X355.035 Y290.574
N1285 G1 X353.392 Y288.416
N1290 G1 X353.256 Y288.035
N1295 G1 X353.249 Y287.994
N1300 G1 X353.258 Y287.954
N1305 G1 X353.279 Y287.919
N1310 G1 X353.312 Y287.894
N1315 G1 X353.351 Y287.882
N1320 G1 X353.392 Y287.883
N1325 G1 X353.429 Y287.899
N1330 G1 X353.459 Y287.927
N1335 G3 X348.901 Y291.349 Z-5.313 I-2.279 J1.711 F333.3
N1340 G3 X353.459 Y287.927 Z-5.625 I2.279 J-1.711
N1345 G3 X348.901 Y291.349 Z-5.938 I-2.279 J1.711
N1350 G3 X353.459 Y287.927 Z-6.251 I2.279 J-1.711
N1355 G3 X348.901 Y291.349 Z-6.563 I-2.279 J1.711
N1360 G3 X353.459 Y287.927 Z-6.876 I2.279 J-1.711
N1365 G3 X348.901 Y291.349 Z-7.189 I-2.279 J1.711
N1370 G3 X353.437 Y287.897 Z-7.5 I2.279 J-1.711
N1375 G3 X356.185 Y291.894 I-35.122 J27.096 F420
N1380 G1 X356.198 Y291.929
N1385 G1 Y291.965
N1390 G1 X356.185 Y292
N1395 G1 X356.16 Y292.027
N1400 G1 X356.127 Y292.044
N1405 G1 X356.09 Y292.048
N1410 G1 X356.055 Y292.038
N1415 G1 X356.025 Y292.016
N1420 G3 X352.858 Y288.328 I35.893 J-34.022
N1425 G3 X350.092 Y284.33 I34.856 J-27.069
N1430 G1 X350.079 Y284.296
N1435 G1 Y284.259
N1440 G1 X350.092 Y284.224
N1445 G1 X350.117 Y284.197
N1450 G1 X350.15 Y284.18
N1455 G1 X350.186 Y284.176
N1460 G1 X350.222 Y284.185
N1465 G1 X350.252 Y284.207
N1470 G3 X353.437 Y287.897 I-30.889 J29.871
N1475 G2 X356.127 Y288.841 I2.068 J-1.589
N1480 G3 X358.763 Y289.928 I0.576 J2.344
N1485 G3 X359.693 Y291.524 I-38.072 J23.231
N1490 G3 X362.532 Y297.607 I-42.159 J23.387
N1495 G3 X363.367 Y299.902 I-62.721 J24.119
N1500 G3 X364.095 Y302.234 I-41.06 J14.099
N1505 G3 X363.878 Y302.412 I-0.148 J0.042
N1510 G3 X361.961 Y301.258 I7.096 J-13.951
N1515 G3 X360.15 Y299.945 I46.807 J-66.461
N1520 G3 X346.406 Y284.432 I30.492 J-40.86
N1525 G3 X344.952 Y281.68 I44.735 J-25.405
N1530 G3 X343.635 Y278.86 I72.585 J-35.598
N1535 G3 X343.509 Y278.449 I1.641 J-0.728
N1540 G3 X343.437 Y277.984 I9.891 J-1.774
N1545 G2 X343.372 Y277.519 I-30.553 J4.015
N1550 G1 X343.241 Y276.629
N1555 G3 X343.161 Y275.747 I7.928 J-1.165
N1560 G3 X343.448 Y275.523 I0.225 J-0.008
N1565 G3 X344.939 Y276.029 I-4.712 J16.311
N1570 G3 X346.392 Y276.636 I-13.544 J34.508
N1575 G3 X346.766 Y276.858 I-0.726 J1.642
N1580 G3 X351.673 Y281.093 I-37.808 J48.774
N1585 G3 X356.004 Y285.916 I-30.102 J31.387
N1590 G3 X358.763 Y289.928 I-35.313 J27.243
N1595 G2 X362.083 Y291.489 I2.843 J-1.735
N1600 G3 X365.279 Y293.29 I0.43 J2.975
N1605 G1 X366.47 Y296.092
N1610 G1 X367.711 Y299.686
N1615 G1 X368.285 Y301.722
N1620 G1 X368.686 Y303.522
N1625 G1 X368.914 Y305.048
N1630 G1 X368.984 Y306.276
N1635 G1 X368.923 Y307.178
N1640 G1 X368.792 Y307.728
N1645 G1 X368.681 Y307.956
N1650 G1 X368.646 Y307.995
N1655 G1 X368.6 Y308.022
N1660 G1 X368.351 Y308.088
N1665 G1 X367.782 Y308.108
N1670 G1 X366.883 Y307.991
N1675 G1 X365.688 Y307.682
N1680 G1 X364.233 Y307.159
N1685 G1 X362.543 Y306.413
N1690 G1 X360.762 Y305.507
N1695 G1 X357.627 Y303.325
N1700 G1 X354.614 Y300.918
N1705 G1 X351.813 Y298.347
N1710 G1 X349.22 Y295.611
N1715 G1 X346.833 Y292.709
N1720 G1 X344.688 Y289.695
N1725 G1 X342.738 Y286.516
N1730 G1 X340.983 Y283.168
N1735 G1 X339.53 Y279.893
N1740 G1 X339.214 Y278.13
N1745 G1 X339.008 Y276.338
N1750 G1 X338.954 Y274.814
N1755 G1 X339.035 Y273.573
N1760 G1 X339.22 Y272.631
N1765 G1 X339.462 Y271.987
N1770 G1 X339.709 Y271.595
N1775 G1 X339.951 Y271.36
N1780 G1 X340.258 Y271.185
N1785 G1 X340.743 Y271.041
N1790 G1 X341.486 Y270.972
N1795 G1 X342.506 Y271.038
N1800 G1 X343.789 Y271.279
N1805 G1 X345.313 Y271.72
N1810 G1 X347.06 Y272.37
N1815 G1 X348.746 Y273.116
N1820 G1 X351.586 Y275.317
N1825 G1 X354.402 Y277.836
N1830 G1 X356.987 Y280.509
N1835 G1 X359.345 Y283.339
N1840 G1 X361.478 Y286.329
N1845 G1 X363.355 Y289.422
N1850 G1 X365.019 Y292.676
N1855 G1 X365.279 Y293.29
N1860 G3 X364.915 Y293.693 I-0.276 J0.117
N1865 G1 X355.185 Y290.679
N1870 G1 X355.128 Y290.654
N1875 G1 X355.078 Y290.619
N1880 G1 X355.035 Y290.574
N1885 G1 X353.392 Y288.416
N1890 G1 X353.256 Y288.035
N1895 G1 X353.249 Y287.994
N1900 G1 X353.258 Y287.954
N1905 G1 X353.279 Y287.919
N1910 G1 X353.312 Y287.894
N1915 G1 X353.351 Y287.882
N1920 G1 X353.392 Y287.883
N1925 G1 X353.429 Y287.899
N1930 G1 X353.459 Y287.927
N1935 G3 X348.901 Y291.349 Z-7.813 I-2.279 J1.711 F333.3
N1940 G3 X353.459 Y287.927 Z-8.125 I2.279 J-1.711
N1945 G3 X348.901 Y291.349 Z-8.438 I-2.279 J1.711
N1950 G3 X353.459 Y287.927 Z-8.751 I2.279 J-1.711
N1955 G3 X348.901 Y291.349 Z-9.063 I-2.279 J1.711
N1960 G3 X353.459 Y287.927 Z-9.376 I2.279 J-1.711
N1965 G3 X348.901 Y291.349 Z-9.689 I-2.279 J1.711
N1970 G3 X353.437 Y287.897 Z-10 I2.279 J-1.711
N1975 G3 X356.185 Y291.894 I-35.122 J27.096 F420
N1980 G1 X356.198 Y291.929
N1985 G1 Y291.965
N1990 G1 X356.185 Y292
N1995 G1 X356.16 Y292.027
N2000 G1 X356.127 Y292.044
N2005 G1 X356.09 Y292.048
N2010 G1 X356.055 Y292.038
N2015 G1 X356.025 Y292.016
N2020 G3 X352.858 Y288.328 I35.893 J-34.022
N2025 G3 X350.092 Y284.33 I34.856 J-27.069
N2030 G1 X350.079 Y284.296
N2035 G1 Y284.259
N2040 G1 X350.092 Y284.224
N2045 G1 X350.117 Y284.197
N2050 G1 X350.15 Y284.18
N2055 G1 X350.186 Y284.176
N2060 G1 X350.222 Y284.185
N2065 G1 X350.252 Y284.207
N2070 G3 X353.437 Y287.897 I-30.889 J29.871
N2075 G2 X356.127 Y288.841 I2.068 J-1.589
N2080 G3 X358.763 Y289.928 I0.576 J2.344
N2085 G3 X359.693 Y291.524 I-38.072 J23.231
N2090 G3 X362.532 Y297.607 I-42.159 J23.387
N2095 G3 X363.367 Y299.902 I-62.721 J24.119
N2100 G3 X364.095 Y302.234 I-41.06 J14.099
N2105 G3 X363.878 Y302.412 I-0.148 J0.042
N2110 G3 X361.961 Y301.258 I7.096 J-13.951
N2115 G3 X360.15 Y299.945 I46.807 J-66.461
N2120 G3 X346.406 Y284.432 I30.492 J-40.86
N2125 G3 X344.952 Y281.68 I44.735 J-25.405
N2130 G3 X343.635 Y278.86 I72.585 J-35.598
N2135 G3 X343.509 Y278.449 I1.641 J-0.728
N2140 G3 X343.437 Y277.984 I9.891 J-1.774
N2145 G2 X343.372 Y277.519 I-30.553 J4.015
N2150 G1 X343.241 Y276.629
N2155 G3 X343.161 Y275.747 I7.928 J-1.165
N2160 G3 X343.448 Y275.523 I0.225 J-0.008
N2165 G3 X344.939 Y276.029 I-4.712 J16.311
N2170 G3 X346.392 Y276.636 I-13.544 J34.508
N2175 G3 X346.766 Y276.858 I-0.726 J1.642
N2180 G3 X351.673 Y281.093 I-37.808 J48.774
N2185 G3 X356.004 Y285.916 I-30.102 J31.387
N2190 G3 X358.763 Y289.928 I-35.313 J27.243
N2195 G2 X362.083 Y291.489 I2.843 J-1.735
N2200 G3 X365.279 Y293.29 I0.43 J2.975
N2205 G1 X366.47 Y296.092
N2210 G1 X367.711 Y299.686
N2215 G1 X368.285 Y301.722
N2220 G1 X368.686 Y303.522
N2225 G1 X368.914 Y305.048
N2230 G1 X368.984 Y306.276
N2235 G1 X368.923 Y307.178
N2240 G1 X368.792 Y307.728
N2245 G1 X368.681 Y307.956
N2250 G1 X368.646 Y307.995
N2255 G1 X368.6 Y308.022
N2260 G1 X368.351 Y308.088
N2265 G1 X367.782 Y308.108
N2270 G1 X366.883 Y307.991
N2275 G1 X365.688 Y307.682
N2280 G1 X364.233 Y307.159
N2285 G1 X362.543 Y306.413
N2290 G1 X360.762 Y305.507
N2295 G1 X357.627 Y303.325
N2300 G1 X354.614 Y300.918
N2305 G1 X351.813 Y298.347
N2310 G1 X349.22 Y295.611
N2315 G1 X346.833 Y292.709
N2320 G1 X344.688 Y289.695
N2325 G1 X342.738 Y286.516
N2330 G1 X340.983 Y283.168
N2335 G1 X339.53 Y279.893
N2340 G1 X339.214 Y278.13
N2345 G1 X339.008 Y276.338
N2350 G1 X338.954 Y274.814
N2355 G1 X339.035 Y273.573
N2360 G1 X339.22 Y272.631
N2365 G1 X339.462 Y271.987
N2370 G1 X339.709 Y271.595
N2375 G1 X339.951 Y271.36
N2380 G1 X340.258 Y271.185
N2385 G1 X340.743 Y271.041
N2390 G1 X341.486 Y270.972
N2395 G1 X342.506 Y271.038
N2400 G1 X343.789 Y271.279
N2405 G1 X345.313 Y271.72
N2410 G1 X347.06 Y272.37
N2415 G1 X348.746 Y273.116
N2420 G1 X351.586 Y275.317
N2425 G1 X354.402 Y277.836
N2430 G1 X356.987 Y280.509
N2435 G1 X359.345 Y283.339
N2440 G1 X361.478 Y286.329
N2445 G1 X363.355 Y289.422
N2450 G1 X365.019 Y292.676
N2455 G1 X365.279 Y293.29
N2460 G3 X364.915 Y293.693 I-0.276 J0.117
N2465 G1 X355.185 Y290.679
N2470 G1 X355.128 Y290.654
N2475 G1 X355.078 Y290.619
N2480 G1 X355.035 Y290.574
N2485 G1 X353.392 Y288.416
N2490 G1 X353.256 Y288.035
N2495 G1 X353.249 Y287.994
N2500 G1 X353.258 Y287.954
N2505 G1 X353.279 Y287.919
N2510 G1 X353.312 Y287.894
N2515 G1 X353.351 Y287.882
N2520 G1 X353.392 Y287.883
N2525 G1 X353.429 Y287.899
N2530 G1 X353.459 Y287.927
N2535 G3 X348.901 Y291.349 Z-10.313 I-2.279 J1.711 F333.3
N2540 G3 X353.459 Y287.927 Z-10.625 I2.279 J-1.711
N2545 G3 X348.901 Y291.349 Z-10.938 I-2.279 J1.711
N2550 G3 X353.459 Y287.927 Z-11.251 I2.279 J-1.711
N2555 G3 X348.901 Y291.349 Z-11.563 I-2.279 J1.711
N2560 G3 X353.459 Y287.927 Z-11.876 I2.279 J-1.711
N2565 G3 X348.901 Y291.349 Z-12.189 I-2.279 J1.711
N2570 G3 X353.437 Y287.897 Z-12.5 I2.279 J-1.711
N2575 G3 X356.185 Y291.894 I-35.122 J27.096 F420
N2580 G1 X356.198 Y291.929
N2585 G1 Y291.965
N2590 G1 X356.185 Y292
N2595 G1 X356.16 Y292.027
N2600 G1 X356.127 Y292.044
N2605 G1 X356.09 Y292.048
N2610 G1 X356.055 Y292.038
N2615 G1 X356.025 Y292.016
N2620 G3 X352.858 Y288.328 I35.893 J-34.022
N2625 G3 X350.092 Y284.33 I34.856 J-27.069
N2630 G1 X350.079 Y284.296
N2635 G1 Y284.259
N2640 G1 X350.092 Y284.224
N2645 G1 X350.117 Y284.197
N2650 G1 X350.15 Y284.18
N2655 G1 X350.186 Y284.176
N2660 G1 X350.222 Y284.185
N2665 G1 X350.252 Y284.207
N2670 G3 X353.437 Y287.897 I-30.889 J29.871
N2675 G2 X356.127 Y288.841 I2.068 J-1.589
N2680 G3 X358.763 Y289.928 I0.576 J2.344
N2685 G3 X359.693 Y291.524 I-38.072 J23.231
N2690 G3 X362.532 Y297.607 I-42.159 J23.387
N2695 G3 X363.367 Y299.902 I-62.721 J24.119
N2700 G3 X364.095 Y302.234 I-41.06 J14.099
N2705 G3 X363.878 Y302.412 I-0.148 J0.042
N2710 G3 X361.961 Y301.258 I7.096 J-13.951
N2715 G3 X360.15 Y299.945 I46.807 J-66.461
N2720 G3 X346.406 Y284.432 I30.492 J-40.86
N2725 G3 X344.952 Y281.68 I44.735 J-25.405
N2730 G3 X343.635 Y278.86 I72.585 J-35.598
N2735 G3 X343.509 Y278.449 I1.641 J-0.728
N2740 G3 X343.437 Y277.984 I9.891 J-1.774
N2745 G2 X343.372 Y277.519 I-30.553 J4.015
N2750 G1 X343.241 Y276.629
N2755 G3 X343.161 Y275.747 I7.928 J-1.165
N2760 G3 X343.448 Y275.523 I0.225 J-0.008
N2765 G3 X344.939 Y276.029 I-4.712 J16.311
N2770 G3 X346.392 Y276.636 I-13.544 J34.508
N2775 G3 X346.766 Y276.858 I-0.726 J1.642
N2780 G3 X351.673 Y281.093 I-37.808 J48.774
N2785 G3 X356.004 Y285.916 I-30.102 J31.387
N2790 G3 X358.763 Y289.928 I-35.313 J27.243
N2795 G2 X362.083 Y291.489 I2.843 J-1.735
N2800 G3 X365.279 Y293.29 I0.43 J2.975
N2805 G1 X366.47 Y296.092
N2810 G1 X367.711 Y299.686
N2815 G1 X368.285 Y301.722
N2820 G1 X368.686 Y303.522
N2825 G1 X368.914 Y305.048
N2830 G1 X368.984 Y306.276
N2835 G1 X368.923 Y307.178
N2840 G1 X368.792 Y307.728
N2845 G1 X368.681 Y307.956
N2850 G1 X368.646 Y307.995
N2855 G1 X368.6 Y308.022
N2860 G1 X368.351 Y308.088
N2865 G1 X367.782 Y308.108
N2870 G1 X366.883 Y307.991
N2875 G1 X365.688 Y307.682
N2880 G1 X364.233 Y307.159
N2885 G1 X362.543 Y306.413
N2890 G1 X360.762 Y305.507
N2895 G1 X357.627 Y303.325
N2900 G1 X354.614 Y300.918
N2905 G1 X351.813 Y298.347
N2910 G1 X349.22 Y295.611
N2915 G1 X346.833 Y292.709
N2920 G1 X344.688 Y289.695
N2925 G1 X342.738 Y286.516
N2930 G1 X340.983 Y283.168
N2935 G1 X339.53 Y279.893
N2940 G1 X339.214 Y278.13
N2945 G1 X339.008 Y276.338
N2950 G1 X338.954 Y274.814
N2955 G1 X339.035 Y273.573
N2960 G1 X339.22 Y272.631
N2965 G1 X339.462 Y271.987
N2970 G1 X339.709 Y271.595
N2975 G1 X339.951 Y271.36
N2980 G1 X340.258 Y271.185
N2985 G1 X340.743 Y271.041
N2990 G1 X341.486 Y270.972
N2995 G1 X342.506 Y271.038
N3000 G1 X343.789 Y271.279
N3005 G1 X345.313 Y271.72
N3010 G1 X347.06 Y272.37
N3015 G1 X348.746 Y273.116
N3020 G1 X351.586 Y275.317
N3025 G1 X354.402 Y277.836
N3030 G1 X356.987 Y280.509
N3035 G1 X359.345 Y283.339
N3040 G1 X361.478 Y286.329
N3045 G1 X363.355 Y289.422
N3050 G1 X365.019 Y292.676
N3055 G1 X365.279 Y293.29
N3060 G3 X364.915 Y293.693 I-0.276 J0.117
N3065 G1 X355.185 Y290.679
N3070 G1 X355.128 Y290.654
N3075 G1 X355.078 Y290.619
N3080 G1 X355.035 Y290.574
N3085 G1 X353.392 Y288.416
N3090 G1 X353.256 Y288.035
N3095 G1 X353.249 Y287.994
N3100 G1 X353.258 Y287.954
N3105 G1 X353.279 Y287.919
N3110 G1 X353.312 Y287.894
N3115 G1 X353.351 Y287.882
N3120 G1 X353.392 Y287.883
N3125 G1 X353.429 Y287.899
N3130 G1 X353.459 Y287.927
N3135 G3 X348.901 Y291.349 Z-12.813 I-2.279 J1.711 F333.3
N3140 G3 X353.459 Y287.927 Z-13.125 I2.279 J-1.711
N3145 G3 X348.901 Y291.349 Z-13.438 I-2.279 J1.711
N3150 G3 X353.459 Y287.927 Z-13.751 I2.279 J-1.711
N3155 G3 X348.901 Y291.349 Z-14.063 I-2.279 J1.711
N3160 G3 X353.459 Y287.927 Z-14.376 I2.279 J-1.711
N3165 G3 X348.901 Y291.349 Z-14.689 I-2.279 J1.711
N3170 G3 X353.437 Y287.897 Z-15 I2.279 J-1.711
N3175 G3 X356.185 Y291.894 I-35.122 J27.096 F420
N3180 G1 X356.198 Y291.929
N3185 G1 Y291.965
N3190 G1 X356.185 Y292
N3195 G1 X356.16 Y292.027
N3200 G1 X356.127 Y292.044
N3205 G1 X356.09 Y292.048
N3210 G1 X356.055 Y292.038
N3215 G1 X356.025 Y292.016
N3220 G3 X352.858 Y288.328 I35.893 J-34.022
N3225 G3 X350.092 Y284.33 I34.856 J-27.069
N3230 G1 X350.079 Y284.296
N3235 G1 Y284.259
N3240 G1 X350.092 Y284.224
N3245 G1 X350.117 Y284.197
N3250 G1 X350.15 Y284.18
N3255 G1 X350.186 Y284.176
N3260 G1 X350.222 Y284.185
N3265 G1 X350.252 Y284.207
N3270 G3 X353.437 Y287.897 I-30.889 J29.871
N3275 G2 X356.127 Y288.841 I2.068 J-1.589
N3280 G3 X358.763 Y289.928 I0.576 J2.344
N3285 G3 X359.693 Y291.524 I-38.072 J23.231
N3290 G3 X362.532 Y297.607 I-42.159 J23.387
N3295 G3 X363.367 Y299.902 I-62.721 J24.119
N3300 G3 X364.095 Y302.234 I-41.06 J14.099
N3305 G3 X363.878 Y302.412 I-0.148 J0.042
N3310 G3 X361.961 Y301.258 I7.096 J-13.951
N3315 G3 X360.15 Y299.945 I46.807 J-66.461
N3320 G3 X346.406 Y284.432 I30.492 J-40.86
N3325 G3 X344.952 Y281.68 I44.735 J-25.405
N3330 G3 X343.635 Y278.86 I72.585 J-35.598
N3335 G3 X343.509 Y278.449 I1.641 J-0.728
N3340 G3 X343.437 Y277.984 I9.891 J-1.774
N3345 G2 X343.372 Y277.519 I-30.553 J4.015
N3350 G1 X343.241 Y276.629
N3355 G3 X343.161 Y275.747 I7.928 J-1.165
N3360 G3 X343.448 Y275.523 I0.225 J-0.008
N3365 G3 X344.939 Y276.029 I-4.712 J16.311
N3370 G3 X346.392 Y276.636 I-13.544 J34.508
N3375 G3 X346.766 Y276.858 I-0.726 J1.642
N3380 G3 X351.673 Y281.093 I-37.808 J48.774
N3385 G3 X356.004 Y285.916 I-30.102 J31.387
N3390 G3 X358.763 Y289.928 I-35.313 J27.243
N3395 G2 X362.083 Y291.489 I2.843 J-1.735
N3400 G3 X365.279 Y293.29 I0.43 J2.975
N3405 G1 X366.47 Y296.092
N3410 G1 X367.711 Y299.686
N3415 G1 X368.285 Y301.722
N3420 G1 X368.686 Y303.522
N3425 G1 X368.914 Y305.048
N3430 G1 X368.984 Y306.276
N3435 G1 X368.923 Y307.178
N3440 G1 X368.792 Y307.728
N3445 G1 X368.681 Y307.956
N3450 G1 X368.646 Y307.995
N3455 G1 X368.6 Y308.022
N3460 G1 X368.351 Y308.088
N3465 G1 X367.782 Y308.108
N3470 G1 X366.883 Y307.991
N3475 G1 X365.688 Y307.682
N3480 G1 X364.233 Y307.159
N3485 G1 X362.543 Y306.413
N3490 G1 X360.762 Y305.507
N3495 G1 X357.627 Y303.325
N3500 G1 X354.614 Y300.918
N3505 G1 X351.813 Y298.347
N3510 G1 X349.22 Y295.611
N3515 G1 X346.833 Y292.709
N3520 G1 X344.688 Y289.695
N3525 G1 X342.738 Y286.516
N3530 G1 X340.983 Y283.168
N3535 G1 X339.53 Y279.893
N3540 G1 X339.214 Y278.13
N3545 G1 X339.008 Y276.338
N3550 G1 X338.954 Y274.814
N3555 G1 X339.035 Y273.573
N3560 G1 X339.22 Y272.631
N3565 G1 X339.462 Y271.987
N3570 G1 X339.709 Y271.595
N3575 G1 X339.951 Y271.36
N3580 G1 X340.258 Y271.185
N3585 G1 X340.743 Y271.041
N3590 G1 X341.486 Y270.972
N3595 G1 X342.506 Y271.038
N3600 G1 X343.789 Y271.279
N3605 G1 X345.313 Y271.72
N3610 G1 X347.06 Y272.37
N3615 G1 X348.746 Y273.116
N3620 G1 X351.586 Y275.317
N3625 G1 X354.402 Y277.836
N3630 G1 X356.987 Y280.509
N3635 G1 X359.345 Y283.339
N3640 G1 X361.478 Y286.329
N3645 G1 X363.355 Y289.422
N3650 G1 X365.019 Y292.676
N3655 G1 X365.279 Y293.29
N3660 G3 X364.915 Y293.693 I-0.276 J0.117
N3665 G1 X355.185 Y290.679
N3670 G1 X355.128 Y290.654
N3675 G1 X355.078 Y290.619
N3680 G1 X355.035 Y290.574
N3685 G1 X353.392 Y288.416
N3690 G1 X353.256 Y288.035
N3695 G1 X353.249 Y287.994
N3700 G1 X353.258 Y287.954
N3705 G1 X353.279 Y287.919
N3710 G1 X353.312 Y287.894
N3715 G1 X353.351 Y287.882
N3720 G1 X353.392 Y287.883
N3725 G1 X353.429 Y287.899
N3730 G1 X353.459 Y287.927
N3735 G3 X348.901 Y291.349 Z-15.313 I-2.279 J1.711 F333.3
N3740 G3 X353.459 Y287.927 Z-15.625 I2.279 J-1.711
N3745 G3 X348.901 Y291.349 Z-15.938 I-2.279 J1.711
N3750 G3 X353.459 Y287.927 Z-16.251 I2.279 J-1.711
N3755 G3 X348.901 Y291.349 Z-16.563 I-2.279 J1.711
N3760 G3 X353.459 Y287.927 Z-16.876 I2.279 J-1.711
N3765 G3 X348.901 Y291.349 Z-17.189 I-2.279 J1.711
N3770 G3 X353.437 Y287.897 Z-17.5 I2.279 J-1.711
N3775 G3 X356.185 Y291.894 I-35.122 J27.096 F420
N3780 G1 X356.198 Y291.929
N3785 G1 Y291.965
N3790 G1 X356.185 Y292
N3795 G1 X356.16 Y292.027
N3800 G1 X356.127 Y292.044
N3805 G1 X356.09 Y292.048
N3810 G1 X356.055 Y292.038
N3815 G1 X356.025 Y292.016
N3820 G3 X352.858 Y288.328 I35.893 J-34.022
N3825 G3 X350.092 Y284.33 I34.856 J-27.069
N3830 G1 X350.079 Y284.296
N3835 G1 Y284.259
N3840 G1 X350.092 Y284.224
N3845 G1 X350.117 Y284.197
N3850 G1 X350.15 Y284.18
N3855 G1 X350.186 Y284.176
N3860 G1 X350.222 Y284.185
N3865 G1 X350.252 Y284.207
N3870 G3 X353.437 Y287.897 I-30.889 J29.871
N3875 G2 X356.127 Y288.841 I2.068 J-1.589
N3880 G3 X358.763 Y289.928 I0.576 J2.344
N3885 G3 X359.693 Y291.524 I-38.072 J23.231
N3890 G3 X362.532 Y297.607 I-42.159 J23.387
N3895 G3 X363.367 Y299.902 I-62.721 J24.119
N3900 G3 X364.095 Y302.234 I-41.06 J14.099
N3905 G3 X363.878 Y302.412 I-0.148 J0.042
N3910 G3 X361.961 Y301.258 I7.096 J-13.951
N3915 G3 X360.15 Y299.945 I46.807 J-66.461
N3920 G3 X346.406 Y284.432 I30.492 J-40.86
N3925 G3 X344.952 Y281.68 I44.735 J-25.405
N3930 G3 X343.635 Y278.86 I72.585 J-35.598
N3935 G3 X343.509 Y278.449 I1.641 J-0.728
N3940 G3 X343.437 Y277.984 I9.891 J-1.774
N3945 G2 X343.372 Y277.519 I-30.553 J4.015
N3950 G1 X343.241 Y276.629
N3955 G3 X343.161 Y275.747 I7.928 J-1.165
N3960 G3 X343.448 Y275.523 I0.225 J-0.008
N3965 G3 X344.939 Y276.029 I-4.712 J16.311
N3970 G3 X346.392 Y276.636 I-13.544 J34.508
N3975 G3 X346.766 Y276.858 I-0.726 J1.642
N3980 G3 X351.673 Y281.093 I-37.808 J48.774
N3985 G3 X356.004 Y285.916 I-30.102 J31.387
N3990 G3 X358.763 Y289.928 I-35.313 J27.243
N3995 G2 X362.083 Y291.489 I2.843 J-1.735
N4000 G3 X365.279 Y293.29 I0.43 J2.975
N4005 G1 X366.47 Y296.092
N4010 G1 X367.711 Y299.686
N4015 G1 X368.285 Y301.722
N4020 G1 X368.686 Y303.522
N4025 G1 X368.914 Y305.048
N4030 G1 X368.984 Y306.276
N4035 G1 X368.923 Y307.178
N4040 G1 X368.792 Y307.728
N4045 G1 X368.681 Y307.956
N4050 G1 X368.646 Y307.995
N4055 G1 X368.6 Y308.022
N4060 G1 X368.351 Y308.088
N4065 G1 X367.782 Y308.108
N4070 G1 X366.883 Y307.991
N4075 G1 X365.688 Y307.682
N4080 G1 X364.233 Y307.159
N4085 G1 X362.543 Y306.413
N4090 G1 X360.762 Y305.507
N4095 G1 X357.627 Y303.325
N4100 G1 X354.614 Y300.918
N4105 G1 X351.813 Y298.347
N4110 G1 X349.22 Y295.611
N4115 G1 X346.833 Y292.709
N4120 G1 X344.688 Y289.695
N4125 G1 X342.738 Y286.516
N4130 G1 X340.983 Y283.168
N4135 G1 X339.53 Y279.893
N4140 G1 X339.214 Y278.13
N4145 G1 X339.008 Y276.338
N4150 G1 X338.954 Y274.814
N4155 G1 X339.035 Y273.573
N4160 G1 X339.22 Y272.631
N4165 G1 X339.462 Y271.987
N4170 G1 X339.709 Y271.595
N4175 G1 X339.951 Y271.36
N4180 G1 X340.258 Y271.185
N4185 G1 X340.743 Y271.041
N4190 G1 X341.486 Y270.972
N4195 G1 X342.506 Y271.038
N4200 G1 X343.789 Y271.279
N4205 G1 X345.313 Y271.72
N4210 G1 X347.06 Y272.37
N4215 G1 X348.746 Y273.116
N4220 G1 X351.586 Y275.317
N4225 G1 X354.402 Y277.836
N4230 G1 X356.987 Y280.509
N4235 G1 X359.345 Y283.339
N4240 G1 X361.478 Y286.329
N4245 G1 X363.355 Y289.422
N4250 G1 X365.019 Y292.676
N4255 G1 X365.279 Y293.29
N4260 G3 X364.915 Y293.693 I-0.276 J0.117
N4265 G1 X355.185 Y290.679
N4270 G1 X355.128 Y290.654
N4275 G1 X355.078 Y290.619
N4280 G1 X355.035 Y290.574
N4285 G1 X353.392 Y288.416
N4290 G1 X353.256 Y288.035
N4295 G1 X353.249 Y287.994
N4300 G1 X353.258 Y287.954
N4305 G1 X353.279 Y287.919
N4310 G1 X353.312 Y287.894
N4315 G1 X353.351 Y287.882
N4320 G1 X353.392 Y287.883
N4325 G1 X353.429 Y287.899
N4330 G1 X353.459 Y287.927
N4335 G3 X348.901 Y291.349 Z-17.813 I-2.279 J1.711 F333.3
N4340 G3 X353.459 Y287.927 Z-18.125 I2.279 J-1.711
N4345 G3 X348.901 Y291.349 Z-18.438 I-2.279 J1.711
N4350 G3 X353.459 Y287.927 Z-18.751 I2.279 J-1.711
N4355 G3 X348.901 Y291.349 Z-19.063 I-2.279 J1.711
N4360 G3 X353.459 Y287.927 Z-19.376 I2.279 J-1.711
N4365 G3 X348.901 Y291.349 Z-19.689 I-2.279 J1.711
N4370 G3 X353.437 Y287.897 Z-20 I2.279 J-1.711
N4375 G3 X356.185 Y291.894 I-35.122 J27.096 F420
N4380 G1 X356.198 Y291.929
N4385 G1 Y291.965
N4390 G1 X356.185 Y292
N4395 G1 X356.16 Y292.027
N4400 G1 X356.127 Y292.044
N4405 G1 X356.09 Y292.048
N4410 G1 X356.055 Y292.038
N4415 G1 X356.025 Y292.016
N4420 G3 X352.858 Y288.328 I35.893 J-34.022
N4425 G3 X350.092 Y284.33 I34.856 J-27.069
N4430 G1 X350.079 Y284.296
N4435 G1 Y284.259
N4440 G1 X350.092 Y284.224
N4445 G1 X350.117 Y284.197
N4450 G1 X350.15 Y284.18
N4455 G1 X350.186 Y284.176
N4460 G1 X350.222 Y284.185
N4465 G1 X350.252 Y284.207
N4470 G3 X353.437 Y287.897 I-30.889 J29.871
N4475 G2 X356.127 Y288.841 I2.068 J-1.589
N4480 G3 X358.763 Y289.928 I0.576 J2.344
N4485 G3 X359.693 Y291.524 I-38.072 J23.231
N4490 G3 X362.532 Y297.607 I-42.159 J23.387
N4495 G3 X363.367 Y299.902 I-62.721 J24.119
N4500 G3 X364.095 Y302.234 I-41.06 J14.099
N4505 G3 X363.878 Y302.412 I-0.148 J0.042
N4510 G3 X361.961 Y301.258 I7.096 J-13.951
N4515 G3 X360.15 Y299.945 I46.807 J-66.461
N4520 G3 X346.406 Y284.432 I30.492 J-40.86
N4525 G3 X344.952 Y281.68 I44.735 J-25.405
N4530 G3 X343.635 Y278.86 I72.585 J-35.598
N4535 G3 X343.509 Y278.449 I1.641 J-0.728
N4540 G3 X343.437 Y277.984 I9.891 J-1.774
N4545 G2 X343.372 Y277.519 I-30.553 J4.015
N4550 G1 X343.241 Y276.629
N4555 G3 X343.161 Y275.747 I7.928 J-1.165
N4560 G3 X343.448 Y275.523 I0.225 J-0.008
N4565 G3 X344.939 Y276.029 I-4.712 J16.311
N4570 G3 X346.392 Y276.636 I-13.544 J34.508
N4575 G3 X346.766 Y276.858 I-0.726 J1.642
N4580 G3 X351.673 Y281.093 I-37.808 J48.774
N4585 G3 X356.004 Y285.916 I-30.102 J31.387
N4590 G3 X358.763 Y289.928 I-35.313 J27.243
N4595 G2 X362.083 Y291.489 I2.843 J-1.735
N4600 G3 X365.279 Y293.29 I0.43 J2.975
N4605 G1 X366.47 Y296.092
N4610 G1 X367.711 Y299.686
N4615 G1 X368.285 Y301.722
N4620 G1 X368.686 Y303.522
N4625 G1 X368.914 Y305.048
N4630 G1 X368.984 Y306.276
N4635 G1 X368.923 Y307.178
N4640 G1 X368.792 Y307.728
N4645 G1 X368.681 Y307.956
N4650 G1 X368.646 Y307.995
N4655 G1 X368.6 Y308.022
N4660 G1 X368.351 Y308.088
N4665 G1 X367.782 Y308.108
N4670 G1 X366.883 Y307.991
N4675 G1 X365.688 Y307.682
N4680 G1 X364.233 Y307.159
N4685 G1 X362.543 Y306.413
N4690 G1 X360.762 Y305.507
N4695 G1 X357.627 Y303.325
N4700 G1 X354.614 Y300.918
N4705 G1 X351.813 Y298.347
N4710 G1 X349.22 Y295.611
N4715 G1 X346.833 Y292.709
N4720 G1 X344.688 Y289.695
N4725 G1 X342.738 Y286.516
N4730 G1 X340.983 Y283.168
N4735 G1 X339.53 Y279.893
N4740 G1 X339.214 Y278.13
N4745 G1 X339.008 Y276.338
N4750 G1 X338.954 Y274.814
N4755 G1 X339.035 Y273.573
N4760 G1 X339.22 Y272.631
N4765 G1 X339.462 Y271.987
N4770 G1 X339.709 Y271.595
N4775 G1 X339.951 Y271.36
N4780 G1 X340.258 Y271.185
N4785 G1 X340.743 Y271.041
N4790 G1 X341.486 Y270.972
N4795 G1 X342.506 Y271.038
N4800 G1 X343.789 Y271.279
N4805 G1 X345.313 Y271.72
N4810 G1 X347.06 Y272.37
N4815 G1 X348.746 Y273.116
N4820 G1 X351.586 Y275.317
N4825 G1 X354.402 Y277.836
N4830 G1 X356.987 Y280.509
N4835 G1 X359.345 Y283.339
N4840 G1 X361.478 Y286.329
N4845 G1 X363.355 Y289.422
N4850 G1 X365.019 Y292.676
N4855 G1 X365.279 Y293.29
N4860 G3 X364.915 Y293.693 I-0.276 J0.117
N4865 G1 X355.185 Y290.679
N4870 G1 X355.128 Y290.654
N4875 G1 X355.078 Y290.619
N4880 G1 X355.035 Y290.574
N4885 G1 X353.392 Y288.416
N4890 G1 X353.256 Y288.035
N4895 G1 X353.249 Y287.994
N4900 G1 X353.258 Y287.954
N4905 G1 X353.279 Y287.919
N4910 G1 X353.312 Y287.894
N4915 G1 X353.351 Y287.882
N4920 G1 X353.392 Y287.883
N4925 G1 X353.429 Y287.899
N4930 G1 X353.459 Y287.927
N4935 G3 X348.901 Y291.349 Z-20.313 I-2.279 J1.711 F333.3
N4940 G3 X353.459 Y287.927 Z-20.625 I2.279 J-1.711
N4945 G3 X348.901 Y291.349 Z-20.938 I-2.279 J1.711
N4950 G3 X353.459 Y287.927 Z-21.251 I2.279 J-1.711
N4955 G3 X348.901 Y291.349 Z-21.563 I-2.279 J1.711
N4960 G3 X353.459 Y287.927 Z-21.876 I2.279 J-1.711
N4965 G3 X348.901 Y291.349 Z-22.189 I-2.279 J1.711
N4970 G3 X353.437 Y287.897 Z-22.5 I2.279 J-1.711
N4975 G3 X356.185 Y291.894 I-35.122 J27.096 F420
N4980 G1 X356.198 Y291.929
N4985 G1 Y291.965
N4990 G1 X356.185 Y292
N4995 G1 X356.16 Y292.027
N5000 G1 X356.127 Y292.044
N5005 G1 X356.09 Y292.048
N5010 G1 X356.055 Y292.038
N5015 G1 X356.025 Y292.016
N5020 G3 X352.858 Y288.328 I35.893 J-34.022
N5025 G3 X350.092 Y284.33 I34.856 J-27.069
N5030 G1 X350.079 Y284.296
N5035 G1 Y284.259
N5040 G1 X350.092 Y284.224
N5045 G1 X350.117 Y284.197
N5050 G1 X350.15 Y284.18
N5055 G1 X350.186 Y284.176
N5060 G1 X350.222 Y284.185
N5065 G1 X350.252 Y284.207
N5070 G3 X353.437 Y287.897 I-30.889 J29.871
N5075 G2 X356.127 Y288.841 I2.068 J-1.589
N5080 G3 X358.763 Y289.928 I0.576 J2.344
N5085 G3 X359.693 Y291.524 I-38.072 J23.231
N5090 G3 X362.532 Y297.607 I-42.159 J23.387
N5095 G3 X363.367 Y299.902 I-62.721 J24.119
N5100 G3 X364.095 Y302.234 I-41.06 J14.099
N5105 G3 X363.878 Y302.412 I-0.148 J0.042
N5110 G3 X361.961 Y301.258 I7.096 J-13.951
N5115 G3 X360.15 Y299.945 I46.807 J-66.461
N5120 G3 X346.406 Y284.432 I30.492 J-40.86
N5125 G3 X344.952 Y281.68 I44.735 J-25.405
N5130 G3 X343.635 Y278.86 I72.585 J-35.598
N5135 G3 X343.509 Y278.449 I1.641 J-0.728
N5140 G3 X343.437 Y277.984 I9.891 J-1.774
N5145 G2 X343.372 Y277.519 I-30.553 J4.015
N5150 G1 X343.241 Y276.629
N5155 G3 X343.161 Y275.747 I7.928 J-1.165
N5160 G3 X343.448 Y275.523 I0.225 J-0.008
N5165 G3 X344.939 Y276.029 I-4.712 J16.311
N5170 G3 X346.392 Y276.636 I-13.544 J34.508
N5175 G3 X346.766 Y276.858 I-0.726 J1.642
N5180 G3 X351.673 Y281.093 I-37.808 J48.774
N5185 G3 X356.004 Y285.916 I-30.102 J31.387
N5190 G3 X358.763 Y289.928 I-35.313 J27.243
N5195 G2 X362.083 Y291.489 I2.843 J-1.735
N5200 G3 X365.279 Y293.29 I0.43 J2.975
N5205 G1 X366.47 Y296.092
N5210 G1 X367.711 Y299.686
N5215 G1 X368.285 Y301.722
N5220 G1 X368.686 Y303.522
N5225 G1 X368.914 Y305.048
N5230 G1 X368.984 Y306.276
N5235 G1 X368.923 Y307.178
N5240 G1 X368.792 Y307.728
N5245 G1 X368.681 Y307.956
N5250 G1 X368.646 Y307.995
N5255 G1 X368.6 Y308.022
N5260 G1 X368.351 Y308.088
N5265 G1 X367.782 Y308.108
N5270 G1 X366.883 Y307.991
N5275 G1 X365.688 Y307.682
N5280 G1 X364.233 Y307.159
N5285 G1 X362.543 Y306.413
N5290 G1 X360.762 Y305.507
N5295 G1 X357.627 Y303.325
N5300 G1 X354.614 Y300.918
N5305 G1 X351.813 Y298.347
N5310 G1 X349.22 Y295.611
N5315 G1 X346.833 Y292.709
N5320 G1 X344.688 Y289.695
N5325 G1 X342.738 Y286.516
N5330 G1 X340.983 Y283.168
N5335 G1 X339.53 Y279.893
N5340 G1 X339.214 Y278.13
N5345 G1 X339.008 Y276.338
N5350 G1 X338.954 Y274.814
N5355 G1 X339.035 Y273.573
N5360 G1 X339.22 Y272.631
N5365 G1 X339.462 Y271.987
N5370 G1 X339.709 Y271.595
N5375 G1 X339.951 Y271.36
N5380 G1 X340.258 Y271.185
N5385 G1 X340.743 Y271.041
N5390 G1 X341.486 Y270.972
N5395 G1 X342.506 Y271.038
N5400 G1 X343.789 Y271.279
N5405 G1 X345.313 Y271.72
N5410 G1 X347.06 Y272.37
N5415 G1 X348.746 Y273.116
N5420 G1 X351.586 Y275.317
N5425 G1 X354.402 Y277.836
N5430 G1 X356.987 Y280.509
N5435 G1 X359.345 Y283.339
N5440 G1 X361.478 Y286.329
N5445 G1 X363.355 Y289.422
N5450 G1 X365.019 Y292.676
N5455 G1 X365.279 Y293.29
N5460 G3 X364.915 Y293.693 I-0.276 J0.117
N5465 G1 X355.185 Y290.679
N5470 G1 X355.128 Y290.654
N5475 G1 X355.078 Y290.619
N5480 G1 X355.035 Y290.574
N5485 G1 X353.392 Y288.416
N5490 G1 X353.256 Y288.035
N5495 G1 X353.249 Y287.994
N5500 G1 X353.258 Y287.954
N5505 G1 X353.279 Y287.919
N5510 G1 X353.312 Y287.894
N5515 G1 X353.351 Y287.882
N5520 G1 X353.392 Y287.883
N5525 G1 X353.429 Y287.899
N5530 G1 X353.459 Y287.927
N5535 G3 X348.901 Y291.349 Z-22.813 I-2.279 J1.711 F333.3
N5540 G3 X353.459 Y287.927 Z-23.125 I2.279 J-1.711
N5545 G3 X348.901 Y291.349 Z-23.438 I-2.279 J1.711
N5550 G3 X353.459 Y287.927 Z-23.751 I2.279 J-1.711
N5555 G3 X348.901 Y291.349 Z-24.063 I-2.279 J1.711
N5560 G3 X353.459 Y287.927 Z-24.376 I2.279 J-1.711
N5565 G3 X348.901 Y291.349 Z-24.689 I-2.279 J1.711
N5570 G3 X353.437 Y287.897 Z-25 I2.279 J-1.711
N5575 G3 X356.185 Y291.894 I-35.122 J27.096 F420
N5580 G1 X356.198 Y291.929
N5585 G1 Y291.965
N5590 G1 X356.185 Y292
N5595 G1 X356.16 Y292.027
N5600 G1 X356.127 Y292.044
N5605 G1 X356.09 Y292.048
N5610 G1 X356.055 Y292.038
N5615 G1 X356.025 Y292.016
N5620 G3 X352.858 Y288.328 I35.893 J-34.022
N5625 G3 X350.092 Y284.33 I34.856 J-27.069
N5630 G1 X350.079 Y284.296
N5635 G1 Y284.259
N5640 G1 X350.092 Y284.224
N5645 G1 X350.117 Y284.197
N5650 G1 X350.15 Y284.18
N5655 G1 X350.186 Y284.176
N5660 G1 X350.222 Y284.185
N5665 G1 X350.252 Y284.207
N5670 G3 X353.437 Y287.897 I-30.889 J29.871
N5675 G2 X356.127 Y288.841 I2.068 J-1.589
N5680 G3 X358.763 Y289.928 I0.576 J2.344
N5685 G3 X359.693 Y291.524 I-38.072 J23.231
N5690 G3 X362.532 Y297.607 I-42.159 J23.387
N5695 G3 X363.367 Y299.902 I-62.721 J24.119
N5700 G3 X364.095 Y302.234 I-41.06 J14.099
N5705 G3 X363.878 Y302.412 I-0.148 J0.042
N5710 G3 X361.961 Y301.258 I7.096 J-13.951
N5715 G3 X360.15 Y299.945 I46.807 J-66.461
N5720 G3 X346.406 Y284.432 I30.492 J-40.86
N5725 G3 X344.952 Y281.68 I44.735 J-25.405
N5730 G3 X343.635 Y278.86 I72.585 J-35.598
N5735 G3 X343.509 Y278.449 I1.641 J-0.728
N5740 G3 X343.437 Y277.984 I9.891 J-1.774
N5745 G2 X343.372 Y277.519 I-30.553 J4.015
N5750 G1 X343.241 Y276.629
N5755 G3 X343.161 Y275.747 I7.928 J-1.165
N5760 G3 X343.448 Y275.523 I0.225 J-0.008
N5765 G3 X344.939 Y276.029 I-4.712 J16.311
N5770 G3 X346.392 Y276.636 I-13.544 J34.508
N5775 G3 X346.766 Y276.858 I-0.726 J1.642
N5780 G3 X351.673 Y281.093 I-37.808 J48.774
N5785 G3 X356.004 Y285.916 I-30.102 J31.387
N5790 G3 X358.763 Y289.928 I-35.313 J27.243
N5795 G2 X362.083 Y291.489 I2.843 J-1.735
N5800 G3 X365.279 Y293.29 I0.43 J2.975
N5805 G1 X366.47 Y296.092
N5810 G1 X367.711 Y299.686
N5815 G1 X368.285 Y301.722
N5820 G1 X368.686 Y303.522
N5825 G1 X368.914 Y305.048
N5830 G1 X368.984 Y306.276
N5835 G1 X368.923 Y307.178
N5840 G1 X368.792 Y307.728
N5845 G1 X368.681 Y307.956
N5850 G1 X368.646 Y307.995
N5855 G1 X368.6 Y308.022
N5860 G1 X368.351 Y308.088
N5865 G1 X367.782 Y308.108
N5870 G1 X366.883 Y307.991
N5875 G1 X365.688 Y307.682
N5880 G1 X364.233 Y307.159
N5885 G1 X362.543 Y306.413
N5890 G1 X360.762 Y305.507
N5895 G1 X357.627 Y303.325
N5900 G1 X354.614 Y300.918
N5905 G1 X351.813 Y298.347
N5910 G1 X349.22 Y295.611
N5915 G1 X346.833 Y292.709
N5920 G1 X344.688 Y289.695
N5925 G1 X342.738 Y286.516
N5930 G1 X340.983 Y283.168
N5935 G1 X339.53 Y279.893
N5940 G1 X339.214 Y278.13
N5945 G1 X339.008 Y276.338
N5950 G1 X338.954 Y274.814
N5955 G1 X339.035 Y273.573
N5960 G1 X339.22 Y272.631
N5965 G1 X339.462 Y271.987
N5970 G1 X339.709 Y271.595
N5975 G1 X339.951 Y271.36
N5980 G1 X340.258 Y271.185
N5985 G1 X340.743 Y271.041
N5990 G1 X341.486 Y270.972
N5995 G1 X342.506 Y271.038
N6000 G1 X343.789 Y271.279
N6005 G1 X345.313 Y271.72
N6010 G1 X347.06 Y272.37
N6015 G1 X348.746 Y273.116
N6020 G1 X351.586 Y275.317
N6025 G1 X354.402 Y277.836
N6030 G1 X356.987 Y280.509
N6035 G1 X359.345 Y283.339
N6040 G1 X361.478 Y286.329
N6045 G1 X363.355 Y289.422
N6050 G1 X365.019 Y292.676
N6055 G1 X365.279 Y293.29
N6060 G3 X364.915 Y293.693 I-0.276 J0.117
N6065 G1 X355.185 Y290.679
N6070 G1 X355.128 Y290.654
N6075 G1 X355.078 Y290.619
N6080 G1 X355.035 Y290.574
N6085 G1 X353.392 Y288.416
N6090 G1 X353.256 Y288.035
N6095 G1 X353.249 Y287.994
N6100 G1 X353.258 Y287.954
N6105 G1 X353.279 Y287.919
N6110 G1 X353.312 Y287.894
N6115 G1 X353.351 Y287.882
N6120 G1 X353.392 Y287.883
N6125 G1 X353.429 Y287.899
N6130 G1 X353.459 Y287.927
N6135 G3 X348.901 Y291.349 Z-25.313 I-2.279 J1.711 F333.3
N6140 G3 X353.459 Y287.927 Z-25.625 I2.279 J-1.711
N6145 G3 X348.901 Y291.349 Z-25.938 I-2.279 J1.711
N6150 G3 X353.459 Y287.927 Z-26.251 I2.279 J-1.711
N6155 G3 X348.901 Y291.349 Z-26.563 I-2.279 J1.711
N6160 G3 X353.459 Y287.927 Z-26.876 I2.279 J-1.711
N6165 G3 X348.901 Y291.349 Z-27.189 I-2.279 J1.711
N6170 G3 X353.437 Y287.897 Z-27.5 I2.279 J-1.711
N6175 G3 X356.185 Y291.894 I-35.122 J27.096 F420
N6180 G1 X356.198 Y291.929
N6185 G1 Y291.965
N6190 G1 X356.185 Y292
N6195 G1 X356.16 Y292.027
N6200 G1 X356.127 Y292.044
N6205 G1 X356.09 Y292.048
N6210 G1 X356.055 Y292.038
N6215 G1 X356.025 Y292.016
N6220 G3 X352.858 Y288.328 I35.893 J-34.022
N6225 G3 X350.092 Y284.33 I34.856 J-27.069
N6230 G1 X350.079 Y284.296
N6235 G1 Y284.259
N6240 G1 X350.092 Y284.224
N6245 G1 X350.117 Y284.197
N6250 G1 X350.15 Y284.18
N6255 G1 X350.186 Y284.176
N6260 G1 X350.222 Y284.185
N6265 G1 X350.252 Y284.207
N6270 G3 X353.437 Y287.897 I-30.889 J29.871
N6275 G2 X356.127 Y288.841 I2.068 J-1.589
N6280 G3 X358.763 Y289.928 I0.576 J2.344
N6285 G3 X359.693 Y291.524 I-38.072 J23.231
N6290 G3 X362.532 Y297.607 I-42.159 J23.387
N6295 G3 X363.367 Y299.902 I-62.721 J24.119
N6300 G3 X364.095 Y302.234 I-41.06 J14.099
N6305 G3 X363.878 Y302.412 I-0.148 J0.042
N6310 G3 X361.961 Y301.258 I7.096 J-13.951
N6315 G3 X360.15 Y299.945 I46.807 J-66.461
N6320 G3 X346.406 Y284.432 I30.492 J-40.86
N6325 G3 X344.952 Y281.68 I44.735 J-25.405
N6330 G3 X343.635 Y278.86 I72.585 J-35.598
N6335 G3 X343.509 Y278.449 I1.641 J-0.728
N6340 G3 X343.437 Y277.984 I9.891 J-1.774
N6345 G2 X343.372 Y277.519 I-30.553 J4.015
N6350 G1 X343.241 Y276.629
N6355 G3 X343.161 Y275.747 I7.928 J-1.165
N6360 G3 X343.448 Y275.523 I0.225 J-0.008
N6365 G3 X344.939 Y276.029 I-4.712 J16.311
N6370 G3 X346.392 Y276.636 I-13.544 J34.508
N6375 G3 X346.766 Y276.858 I-0.726 J1.642
N6380 G3 X351.673 Y281.093 I-37.808 J48.774
N6385 G3 X356.004 Y285.916 I-30.102 J31.387
N6390 G3 X358.763 Y289.928 I-35.313 J27.243
N6395 G2 X362.083 Y291.489 I2.843 J-1.735
N6400 G3 X365.279 Y293.29 I0.43 J2.975
N6405 G1 X366.47 Y296.092
N6410 G1 X367.711 Y299.686
N6415 G1 X368.285 Y301.722
N6420 G1 X368.686 Y303.522
N6425 G1 X368.914 Y305.048
N6430 G1 X368.984 Y306.276
N6435 G1 X368.923 Y307.178
N6440 G1 X368.792 Y307.728
N6445 G1 X368.681 Y307.956
N6450 G1 X368.646 Y307.995
N6455 G1 X368.6 Y308.022
N6460 G1 X368.351 Y308.088
N6465 G1 X367.782 Y308.108
N6470 G1 X366.883 Y307.991
N6475 G1 X365.688 Y307.682
N6480 G1 X364.233 Y307.159
N6485 G1 X362.543 Y306.413
N6490 G1 X360.762 Y305.507
N6495 G1 X357.627 Y303.325
N6500 G1 X354.614 Y300.918
N6505 G1 X351.813 Y298.347
N6510 G1 X349.22 Y295.611
N6515 G1 X346.833 Y292.709
N6520 G1 X344.688 Y289.695
N6525 G1 X342.738 Y286.516
N6530 G1 X340.983 Y283.168
N6535 G1 X339.53 Y279.893
N6540 G1 X339.214 Y278.13
N6545 G1 X339.008 Y276.338
N6550 G1 X338.954 Y274.814
N6555 G1 X339.035 Y273.573
N6560 G1 X339.22 Y272.631
N6565 G1 X339.462 Y271.987
N6570 G1 X339.709 Y271.595
N6575 G1 X339.951 Y271.36
N6580 G1 X340.258 Y271.185
N6585 G1 X340.743 Y271.041
N6590 G1 X341.486 Y270.972
N6595 G1 X342.506 Y271.038
N6600 G1 X343.789 Y271.279
N6605 G1 X345.313 Y271.72
N6610 G1 X347.06 Y272.37
N6615 G1 X348.746 Y273.116
N6620 G1 X351.586 Y275.317
N6625 G1 X354.402 Y277.836
N6630 G1 X356.987 Y280.509
N6635 G1 X359.345 Y283.339
N6640 G1 X361.478 Y286.329
N6645 G1 X363.355 Y289.422
N6650 G1 X365.019 Y292.676
N6655 G1 X365.279 Y293.29
N6660 G3 X364.915 Y293.693 I-0.276 J0.117
N6665 G1 X355.185 Y290.679
N6670 G1 X355.128 Y290.654
N6675 G1 X355.078 Y290.619
N6680 G1 X355.035 Y290.574
N6685 G1 X353.392 Y288.416
N6690 G1 X353.256 Y288.035
N6695 G1 X353.249 Y287.994
N6700 G1 X353.258 Y287.954
N6705 G1 X353.279 Y287.919
N6710 G1 X353.312 Y287.894
N6715 G1 X353.351 Y287.882
N6720 G1 X353.392 Y287.883
N6725 G1 X353.429 Y287.899
N6730 G1 X353.459 Y287.927
N6735 G3 X348.901 Y291.349 Z-27.813 I-2.279 J1.711 F333.3
N6740 G3 X353.459 Y287.927 Z-28.125 I2.279 J-1.711
N6745 G3 X348.901 Y291.349 Z-28.438 I-2.279 J1.711
N6750 G3 X353.459 Y287.927 Z-28.751 I2.279 J-1.711
N6755 G3 X348.901 Y291.349 Z-29.063 I-2.279 J1.711
N6760 G3 X353.459 Y287.927 Z-29.376 I2.279 J-1.711
N6765 G3 X348.901 Y291.349 Z-29.689 I-2.279 J1.711
N6770 G3 X353.437 Y287.897 Z-30 I2.279 J-1.711
N6775 G3 X356.185 Y291.894 I-35.122 J27.096 F420
N6780 G1 X356.198 Y291.929
N6785 G1 Y291.965
N6790 G1 X356.185 Y292
N6795 G1 X356.16 Y292.027
N6800 G1 X356.127 Y292.044
N6805 G1 X356.09 Y292.048
N6810 G1 X356.055 Y292.038
N6815 G1 X356.025 Y292.016
N6820 G3 X352.858 Y288.328 I35.893 J-34.022
N6825 G3 X350.092 Y284.33 I34.856 J-27.069
N6830 G1 X350.079 Y284.296
N6835 G1 Y284.259
N6840 G1 X350.092 Y284.224
N6845 G1 X350.117 Y284.197
N6850 G1 X350.15 Y284.18
N6855 G1 X350.186 Y284.176
N6860 G1 X350.222 Y284.185
N6865 G1 X350.252 Y284.207
N6870 G3 X353.437 Y287.897 I-30.889 J29.871
N6875 G2 X356.127 Y288.841 I2.068 J-1.589
N6880 G3 X358.763 Y289.928 I0.576 J2.344
N6885 G3 X359.693 Y291.524 I-38.072 J23.231
N6890 G3 X362.532 Y297.607 I-42.159 J23.387
N6895 G3 X363.367 Y299.902 I-62.721 J24.119
N6900 G3 X364.095 Y302.234 I-41.06 J14.099
N6905 G3 X363.878 Y302.412 I-0.148 J0.042
N6910 G3 X361.961 Y301.258 I7.096 J-13.951
N6915 G3 X360.15 Y299.945 I46.807 J-66.461
N6920 G3 X346.406 Y284.432 I30.492 J-40.86
N6925 G3 X344.952 Y281.68 I44.735 J-25.405
N6930 G3 X343.635 Y278.86 I72.585 J-35.598
N6935 G3 X343.509 Y278.449 I1.641 J-0.728
N6940 G3 X343.437 Y277.984 I9.891 J-1.774
N6945 G2 X343.372 Y277.519 I-30.553 J4.015
N6950 G1 X343.241 Y276.629
N6955 G3 X343.161 Y275.747 I7.928 J-1.165
N6960 G3 X343.448 Y275.523 I0.225 J-0.008
N6965 G3 X344.939 Y276.029 I-4.712 J16.311
N6970 G3 X346.392 Y276.636 I-13.544 J34.508
N6975 G3 X346.766 Y276.858 I-0.726 J1.642
N6980 G3 X351.673 Y281.093 I-37.808 J48.774
N6985 G3 X356.004 Y285.916 I-30.102 J31.387
N6990 G3 X358.763 Y289.928 I-35.313 J27.243
N6995 G2 X362.083 Y291.489 I2.843 J-1.735
N7000 G3 X365.279 Y293.29 I0.43 J2.975
N7005 G1 X366.47 Y296.092
N7010 G1 X367.711 Y299.686
N7015 G1 X368.285 Y301.722
N7020 G1 X368.686 Y303.522
N7025 G1 X368.914 Y305.048
N7030 G1 X368.984 Y306.276
N7035 G1 X368.923 Y307.178
N7040 G1 X368.792 Y307.728
N7045 G1 X368.681 Y307.956
N7050 G1 X368.646 Y307.995
N7055 G1 X368.6 Y308.022
N7060 G1 X368.351 Y308.088
N7065 G1 X367.782 Y308.108
N7070 G1 X366.883 Y307.991
N7075 G1 X365.688 Y307.682
N7080 G1 X364.233 Y307.159
N7085 G1 X362.543 Y306.413
N7090 G1 X360.762 Y305.507
N7095 G1 X357.627 Y303.325
N7100 G1 X354.614 Y300.918
N7105 G1 X351.813 Y298.347
N7110 G1 X349.22 Y295.611
N7115 G1 X346.833 Y292.709
N7120 G1 X344.688 Y289.695
N7125 G1 X342.738 Y286.516
N7130 G1 X340.983 Y283.168
N7135 G1 X339.53 Y279.893
N7140 G1 X339.214 Y278.13
N7145 G1 X339.008 Y276.338
N7150 G1 X338.954 Y274.814
N7155 G1 X339.035 Y273.573
N7160 G1 X339.22 Y272.631
N7165 G1 X339.462 Y271.987
N7170 G1 X339.709 Y271.595
N7175 G1 X339.951 Y271.36
N7180 G1 X340.258 Y271.185
N7185 G1 X340.743 Y271.041
N7190 G1 X341.486 Y270.972
N7195 G1 X342.506 Y271.038
N7200 G1 X343.789 Y271.279
N7205 G1 X345.313 Y271.72
N7210 G1 X347.06 Y272.37
N7215 G1 X348.746 Y273.116
N7220 G1 X351.586 Y275.317
N7225 G1 X354.402 Y277.836
N7230 G1 X356.987 Y280.509
N7235 G1 X359.345 Y283.339
N7240 G1 X361.478 Y286.329
N7245 G1 X363.355 Y289.422
N7250 G1 X365.019 Y292.676
N7255 G1 X365.279 Y293.29
N7260 G1 X365.309 Y293.377 Z-29.985 F1000
N7265 G1 X365.325 Y293.469 Z-29.971
N7270 G1 X365.327 Y293.552 Z-29.928
N7275 G1 X365.317 Y293.635 Z-29.885
N7280 G1 X365.301 Y293.7 Z-29.819
N7285 G1 X365.278 Y293.762 Z-29.753
N7290 G1 X365.239 Y293.837 Z-29.585
N7295 G1 X365.223 Y293.862 Z-29.4
N7300 G0 Z15
N7305 G28 G91 Z0
N7310 G90
N7315 G28 G91 X0 Y0
N7320 G90
N7325 M30
%
