%
(NeckPocket)
(NeckPocket)
(T1 D=6 CR=0 - ZMIN=-19 - flat end mill)
N10 G90 G94
N15 G17
N20 G21
N25 G28 G91 Z0
N30 G90

(NeckPocket)
N35 T1 M6
N40 S14000 M3
N45 G54
N50 G0 X111.129 Y207.713
N55 G0 G43 Z15 H1
N60 G0 Z5
N65 G1 Z3.1 F1000
N70 G1 X111.126 Y207.74 Z2.918 F333.3
N75 G1 X111.113 Y207.821 Z2.754
N80 G1 X111.088 Y207.946 Z2.622
N85 G1 X111.049 Y208.103 Z2.534
N90 G1 X110.995 Y208.275 Z2.5
N95 G3 X105.614 Y206.394 Z2.187 I-2.69 J-0.941
N100 G3 X110.995 Y208.275 Z1.875 I2.69 J0.941
N105 G3 X105.614 Y206.394 Z1.562 I-2.69 J-0.941
N110 G3 X110.995 Y208.275 Z1.249 I2.69 J0.941
N115 G3 X105.614 Y206.394 Z0.937 I-2.69 J-0.941
N120 G3 X110.995 Y208.275 Z0.624 I2.69 J0.941
N125 G3 X105.614 Y206.394 Z0.311 I-2.69 J-0.941
N130 G3 X110.995 Y208.275 Z-0.001 I2.69 J0.941
N135 G3 X105.614 Y206.394 Z-0.314 I-2.69 J-0.941
N140 G3 X110.995 Y208.275 Z-0.627 I2.69 J0.941
N145 G3 X105.614 Y206.394 Z-0.939 I-2.69 J-0.941
N150 G3 X110.995 Y208.275 Z-1.252 I2.69 J0.941
N155 G3 X105.614 Y206.394 Z-1.565 I-2.69 J-0.941
N160 G3 X110.995 Y208.275 Z-1.877 I2.69 J0.941
N165 G3 X108.309 Y210.184 Z-2 I-2.69 J-0.941
N170 G3 X106.925 Y210.185 I-1.384 J-841.927 F420
N175 G3 X106.606 Y209.866 I0 J-0.319
N180 G1 Y207.103
N185 G3 X106.925 Y206.784 I0.319 J0
N190 G1 X126.309
N195 G3 X126.628 Y207.103 I0 J0.319
N200 G1 Y209.884
N205 G3 X126.311 Y210.193 I-0.309 J0
N210 G2 X116.618 Y210.13 I-6.606 J268.1
N215 G3 X108.309 Y210.184 I-9.693 J-841.872
N220 G2 X105.129 Y211.734 I0.007 J4.05
N225 G3 X101.786 Y210.579 I-1.472 J-1.155
N230 G1 Y202.284
N235 G3 X102.105 Y201.964 I0.319 J0
N240 G1 X131.128
N245 G3 X131.448 Y202.284 I0 J0.319
N250 G1 Y215.424
N255 G3 X131.148 Y215.66 I-0.243 J0
N260 G2 X128.417 Y215.148 I-6.463 J26.907
N265 G2 X125.645 Y214.96 I-2.772 J20.367
N270 G1 X102.105 Y215.005
N275 G3 X101.786 Y214.686 I0 J-0.319
N280 G1 Y210.579
N285 G2 X99.444 Y207.065 I-3.807 J0
N290 G3 X97.101 Y203.551 I1.464 J-3.514
N295 G1 Y197.599
N300 G3 X97.42 Y197.279 I0.319 J0
N305 G1 X135.813
N310 G3 X136.133 Y197.599 I0 J0.319
N315 G1 Y220.463
N320 G3 X135.813 Y220.782 I-0.319 J0
N325 G1 X132.352
N330 G3 X131.591 Y220.658 I0 J-2.395
N335 G2 X128.659 Y219.911 I-6.508 J19.407
N340 G2 X125.645 Y219.645 I-3.014 J16.986
N345 G1 X97.42 Y219.69
N350 G3 X97.101 Y219.371 I0 J-0.319
N355 G1 Y203.551
N360 G2 X94.654 Y199.882 I-3.976 J0
N365 G3 X92.208 Y196.212 I1.529 J-3.67
N370 G1 Y192.705
N375 G3 X92.527 Y192.386 I0.319 J0
N380 G1 X140.707
N385 G3 X141.026 Y192.705 I0 J0.319
N390 G1 Y225.356
N395 G3 X140.707 Y225.675 I-0.319 J0
N400 G1 X132.095
N405 G3 X130.202 Y225.354 I0 J-5.74
N410 G2 X127.958 Y224.755 I-5.118 J14.651
N415 G2 X125.645 Y224.539 I-2.313 J12.276
N420 G1 X92.527 Y224.584
N425 G3 X92.208 Y224.264 I0 J-0.319
N430 G1 Y196.212
N435 G2 X89.463 Y192.941 I-3.321 J0
N440 G3 X87.878 Y188.977 I0.436 J-2.473
N445 G3 X89.263 Y187.949 I2.374 J1.751
N450 G1 X90.239 Y187.598
N455 G1 X90.284 Y187.581
N460 G1 X90.552 Y187.48
N465 G1 X142.582
N470 G3 X145.932 Y190.83 I0 J3.35
N475 G1 Y227.231
N480 G3 X142.582 Y230.581 I-3.35 J0
N485 G1 X129.929
N490 G2 X125.645 Y229.489 I-4.284 J7.858
N495 G1 X90.252
N500 G3 X87.302 Y226.539 I0 J-2.95
N505 G1 Y190.728
N510 G3 X87.878 Y188.977 I2.95 J0
N515 G1 X87.906 Y188.949
N520 G1 X87.941 Y188.931
N525 G1 X87.98 Y188.924
N530 G1 X88.019 Y188.928
N535 G1 X88.055 Y188.945
N540 G1 X88.085 Y188.971
N545 G1 X88.495 Y189.465
N550 G1 X109.94 Y207.638
N555 G1 X109.972 Y207.66
N560 G1 X110.007 Y207.676
N565 G1 X110.878 Y207.977
N570 G3 X111.007 Y208.239 I-0.068 J0.196
N575 G3 X105.602 Y206.429 Z-2.313 I-2.703 J-0.905 F333.3
N580 G3 X111.007 Y208.239 Z-2.625 I2.703 J0.905
N585 G3 X105.602 Y206.429 Z-2.938 I-2.703 J-0.905
N590 G3 X111.007 Y208.239 Z-3.251 I2.703 J0.905
N595 G3 X105.602 Y206.429 Z-3.563 I-2.703 J-0.905
N600 G3 X111.007 Y208.239 Z-3.876 I2.703 J0.905
N605 G3 X108.309 Y210.184 Z-4 I-2.703 J-0.905
N610 G3 X106.925 Y210.185 I-1.384 J-841.927 F420
N615 G3 X106.606 Y209.866 I0 J-0.319
N620 G1 Y207.103
N625 G3 X106.925 Y206.784 I0.319 J0
N630 G1 X126.309
N635 G3 X126.628 Y207.103 I0 J0.319
N640 G1 Y209.884
N645 G3 X126.311 Y210.193 I-0.309 J0
N650 G2 X116.618 Y210.13 I-6.606 J268.1
N655 G3 X108.309 Y210.184 I-9.693 J-841.872
N660 G2 X105.129 Y211.734 I0.007 J4.05
N665 G3 X101.786 Y210.579 I-1.472 J-1.155
N670 G1 Y202.284
N675 G3 X102.105 Y201.964 I0.319 J0
N680 G1 X131.128
N685 G3 X131.448 Y202.284 I0 J0.319
N690 G1 Y215.424
N695 G3 X131.148 Y215.66 I-0.243 J0
N700 G2 X128.417 Y215.148 I-6.463 J26.907
N705 G2 X125.645 Y214.96 I-2.772 J20.367
N710 G1 X102.105 Y215.005
N715 G3 X101.786 Y214.686 I0 J-0.319
N720 G1 Y210.579
N725 G2 X99.444 Y207.065 I-3.807 J0
N730 G3 X97.101 Y203.551 I1.464 J-3.514
N735 G1 Y197.599
N740 G3 X97.42 Y197.279 I0.319 J0
N745 G1 X135.813
N750 G3 X136.133 Y197.599 I0 J0.319
N755 G1 Y220.463
N760 G3 X135.813 Y220.782 I-0.319 J0
N765 G1 X132.352
N770 G3 X131.591 Y220.658 I0 J-2.395
N775 G2 X128.659 Y219.911 I-6.508 J19.407
N780 G2 X125.645 Y219.645 I-3.014 J16.986
N785 G1 X97.42 Y219.69
N790 G3 X97.101 Y219.371 I0 J-0.319
N795 G1 Y203.551
N800 G2 X94.654 Y199.882 I-3.976 J0
N805 G3 X92.208 Y196.212 I1.529 J-3.67
N810 G1 Y192.705
N815 G3 X92.527 Y192.386 I0.319 J0
N820 G1 X140.707
N825 G3 X141.026 Y192.705 I0 J0.319
N830 G1 Y225.356
N835 G3 X140.707 Y225.675 I-0.319 J0
N840 G1 X132.095
N845 G3 X130.202 Y225.354 I0 J-5.74
N850 G2 X127.958 Y224.755 I-5.118 J14.651
N855 G2 X125.645 Y224.539 I-2.313 J12.276
N860 G1 X92.527 Y224.584
N865 G3 X92.208 Y224.264 I0 J-0.319
N870 G1 Y196.212
N875 G2 X89.463 Y192.941 I-3.321 J0
N880 G3 X87.878 Y188.977 I0.436 J-2.473
N885 G3 X89.263 Y187.949 I2.374 J1.751
N890 G1 X90.239 Y187.598
N895 G1 X90.284 Y187.581
N900 G1 X90.552 Y187.48
N905 G1 X142.582
N910 G3 X145.932 Y190.83 I0 J3.35
N915 G1 Y227.231
N920 G3 X142.582 Y230.581 I-3.35 J0
N925 G1 X129.929
N930 G2 X125.645 Y229.489 I-4.284 J7.858
N935 G1 X90.252
N940 G3 X87.302 Y226.539 I0 J-2.95
N945 G1 Y190.728
N950 G3 X87.878 Y188.977 I2.95 J0
N955 G1 X87.906 Y188.949
N960 G1 X87.941 Y188.931
N965 G1 X87.98 Y188.924
N970 G1 X88.019 Y188.928
N975 G1 X88.055 Y188.945
N980 G1 X88.085 Y188.971
N985 G1 X88.495 Y189.465
N990 G1 X109.94 Y207.638
N995 G1 X109.972 Y207.66
N1000 G1 X110.007 Y207.676
N1005 G1 X110.878 Y207.977
N1010 G3 X111.007 Y208.239 I-0.068 J0.196
N1015 G3 X105.602 Y206.429 Z-4.313 I-2.703 J-0.905 F333.3
N1020 G3 X111.007 Y208.239 Z-4.625 I2.703 J0.905
N1025 G3 X105.602 Y206.429 Z-4.938 I-2.703 J-0.905
N1030 G3 X111.007 Y208.239 Z-5.251 I2.703 J0.905
N1035 G3 X105.602 Y206.429 Z-5.563 I-2.703 J-0.905
N1040 G3 X111.007 Y208.239 Z-5.876 I2.703 J0.905
N1045 G3 X108.309 Y210.184 Z-6 I-2.703 J-0.905
N1050 G3 X106.925 Y210.185 I-1.384 J-841.927 F420
N1055 G3 X106.606 Y209.866 I0 J-0.319
N1060 G1 Y207.103
N1065 G3 X106.925 Y206.784 I0.319 J0
N1070 G1 X126.309
N1075 G3 X126.628 Y207.103 I0 J0.319
N1080 G1 Y209.884
N1085 G3 X126.311 Y210.193 I-0.309 J0
N1090 G2 X116.618 Y210.13 I-6.606 J268.1
N1095 G3 X108.309 Y210.184 I-9.693 J-841.872
N1100 G2 X105.129 Y211.734 I0.007 J4.05
N1105 G3 X101.786 Y210.579 I-1.472 J-1.155
N1110 G1 Y202.284
N1115 G3 X102.105 Y201.964 I0.319 J0
N1120 G1 X131.128
N1125 G3 X131.448 Y202.284 I0 J0.319
N1130 G1 Y215.424
N1135 G3 X131.148 Y215.66 I-0.243 J0
N1140 G2 X128.417 Y215.148 I-6.463 J26.907
N1145 G2 X125.645 Y214.96 I-2.772 J20.367
N1150 G1 X102.105 Y215.005
N1155 G3 X101.786 Y214.686 I0 J-0.319
N1160 G1 Y210.579
N1165 G2 X99.444 Y207.065 I-3.807 J0
N1170 G3 X97.101 Y203.551 I1.464 J-3.514
N1175 G1 Y197.599
N1180 G3 X97.42 Y197.279 I0.319 J0
N1185 G1 X135.813
N1190 G3 X136.133 Y197.599 I0 J0.319
N1195 G1 Y220.463
N1200 G3 X135.813 Y220.782 I-0.319 J0
N1205 G1 X132.352
N1210 G3 X131.591 Y220.658 I0 J-2.395
N1215 G2 X128.659 Y219.911 I-6.508 J19.407
N1220 G2 X125.645 Y219.645 I-3.014 J16.986
N1225 G1 X97.42 Y219.69
N1230 G3 X97.101 Y219.371 I0 J-0.319
N1235 G1 Y203.551
N1240 G2 X94.654 Y199.882 I-3.976 J0
N1245 G3 X92.208 Y196.212 I1.529 J-3.67
N1250 G1 Y192.705
N1255 G3 X92.527 Y192.386 I0.319 J0
N1260 G1 X140.707
N1265 G3 X141.026 Y192.705 I0 J0.319
N1270 G1 Y225.356
N1275 G3 X140.707 Y225.675 I-0.319 J0
N1280 G1 X132.095
N1285 G3 X130.202 Y225.354 I0 J-5.74
N1290 G2 X127.958 Y224.755 I-5.118 J14.651
N1295 G2 X125.645 Y224.539 I-2.313 J12.276
N1300 G1 X92.527 Y224.584
N1305 G3 X92.208 Y224.264 I0 J-0.319
N1310 G1 Y196.212
N1315 G2 X89.463 Y192.941 I-3.321 J0
N1320 G3 X87.878 Y188.977 I0.436 J-2.473
N1325 G3 X89.263 Y187.949 I2.374 J1.751
N1330 G1 X90.239 Y187.598
N1335 G1 X90.284 Y187.581
N1340 G1 X90.552 Y187.48
N1345 G1 X142.582
N1350 G3 X145.932 Y190.83 I0 J3.35
N1355 G1 Y227.231
N1360 G3 X142.582 Y230.581 I-3.35 J0
N1365 G1 X129.929
N1370 G2 X125.645 Y229.489 I-4.284 J7.858
N1375 G1 X90.252
N1380 G3 X87.302 Y226.539 I0 J-2.95
N1385 G1 Y190.728
N1390 G3 X87.878 Y188.977 I2.95 J0
N1395 G1 X87.906 Y188.949
N1400 G1 X87.941 Y188.931
N1405 G1 X87.98 Y188.924
N1410 G1 X88.019 Y188.928
N1415 G1 X88.055 Y188.945
N1420 G1 X88.085 Y188.971
N1425 G1 X88.495 Y189.465
N1430 G1 X109.94 Y207.638
N1435 G1 X109.972 Y207.66
N1440 G1 X110.007 Y207.676
N1445 G1 X110.878 Y207.977
N1450 G3 X111.007 Y208.239 I-0.068 J0.196
N1455 G3 X105.602 Y206.429 Z-6.313 I-2.703 J-0.905 F333.3
N1460 G3 X111.007 Y208.239 Z-6.625 I2.703 J0.905
N1465 G3 X105.602 Y206.429 Z-6.938 I-2.703 J-0.905
N1470 G3 X111.007 Y208.239 Z-7.251 I2.703 J0.905
N1475 G3 X105.602 Y206.429 Z-7.563 I-2.703 J-0.905
N1480 G3 X111.007 Y208.239 Z-7.876 I2.703 J0.905
N1485 G3 X108.309 Y210.184 Z-8 I-2.703 J-0.905
N1490 G3 X106.925 Y210.185 I-1.384 J-841.927 F420
N1495 G3 X106.606 Y209.866 I0 J-0.319
N1500 G1 Y207.103
N1505 G3 X106.925 Y206.784 I0.319 J0
N1510 G1 X126.309
N1515 G3 X126.628 Y207.103 I0 J0.319
N1520 G1 Y209.884
N1525 G3 X126.311 Y210.193 I-0.309 J0
N1530 G2 X116.618 Y210.13 I-6.606 J268.1
N1535 G3 X108.309 Y210.184 I-9.693 J-841.872
N1540 G2 X105.129 Y211.734 I0.007 J4.05
N1545 G3 X101.786 Y210.579 I-1.472 J-1.155
N1550 G1 Y202.284
N1555 G3 X102.105 Y201.964 I0.319 J0
N1560 G1 X131.128
N1565 G3 X131.448 Y202.284 I0 J0.319
N1570 G1 Y215.424
N1575 G3 X131.148 Y215.66 I-0.243 J0
N1580 G2 X128.417 Y215.148 I-6.463 J26.907
N1585 G2 X125.645 Y214.96 I-2.772 J20.367
N1590 G1 X102.105 Y215.005
N1595 G3 X101.786 Y214.686 I0 J-0.319
N1600 G1 Y210.579
N1605 G2 X99.444 Y207.065 I-3.807 J0
N1610 G3 X97.101 Y203.551 I1.464 J-3.514
N1615 G1 Y197.599
N1620 G3 X97.42 Y197.279 I0.319 J0
N1625 G1 X135.813
N1630 G3 X136.133 Y197.599 I0 J0.319
N1635 G1 Y220.463
N1640 G3 X135.813 Y220.782 I-0.319 J0
N1645 G1 X132.352
N1650 G3 X131.591 Y220.658 I0 J-2.395
N1655 G2 X128.659 Y219.911 I-6.508 J19.407
N1660 G2 X125.645 Y219.645 I-3.014 J16.986
N1665 G1 X97.42 Y219.69
N1670 G3 X97.101 Y219.371 I0 J-0.319
N1675 G1 Y203.551
N1680 G2 X94.654 Y199.882 I-3.976 J0
N1685 G3 X92.208 Y196.212 I1.529 J-3.67
N1690 G1 Y192.705
N1695 G3 X92.527 Y192.386 I0.319 J0
N1700 G1 X140.707
N1705 G3 X141.026 Y192.705 I0 J0.319
N1710 G1 Y225.356
N1715 G3 X140.707 Y225.675 I-0.319 J0
N1720 G1 X132.095
N1725 G3 X130.202 Y225.354 I0 J-5.74
N1730 G2 X127.958 Y224.755 I-5.118 J14.651
N1735 G2 X125.645 Y224.539 I-2.313 J12.276
N1740 G1 X92.527 Y224.584
N1745 G3 X92.208 Y224.264 I0 J-0.319
N1750 G1 Y196.212
N1755 G2 X89.463 Y192.941 I-3.321 J0
N1760 G3 X87.878 Y188.977 I0.436 J-2.473
N1765 G3 X89.263 Y187.949 I2.374 J1.751
N1770 G1 X90.239 Y187.598
N1775 G1 X90.284 Y187.581
N1780 G1 X90.552 Y187.48
N1785 G1 X142.582
N1790 G3 X145.932 Y190.83 I0 J3.35
N1795 G1 Y227.231
N1800 G3 X142.582 Y230.581 I-3.35 J0
N1805 G1 X129.929
N1810 G2 X125.645 Y229.489 I-4.284 J7.858
N1815 G1 X90.252
N1820 G3 X87.302 Y226.539 I0 J-2.95
N1825 G1 Y190.728
N1830 G3 X87.878 Y188.977 I2.95 J0
N1835 G1 X87.906 Y188.949
N1840 G1 X87.941 Y188.931
N1845 G1 X87.98 Y188.924
N1850 G1 X88.019 Y188.928
N1855 G1 X88.055 Y188.945
N1860 G1 X88.085 Y188.971
N1865 G1 X88.495 Y189.465
N1870 G1 X109.94 Y207.638
N1875 G1 X109.972 Y207.66
N1880 G1 X110.007 Y207.676
N1885 G1 X110.878 Y207.977
N1890 G3 X111.007 Y208.239 I-0.068 J0.196
N1895 G3 X105.602 Y206.429 Z-8.313 I-2.703 J-0.905 F333.3
N1900 G3 X111.007 Y208.239 Z-8.625 I2.703 J0.905
N1905 G3 X105.602 Y206.429 Z-8.938 I-2.703 J-0.905
N1910 G3 X111.007 Y208.239 Z-9.251 I2.703 J0.905
N1915 G3 X105.602 Y206.429 Z-9.563 I-2.703 J-0.905
N1920 G3 X111.007 Y208.239 Z-9.876 I2.703 J0.905
N1925 G3 X108.309 Y210.184 Z-10 I-2.703 J-0.905
N1930 G3 X106.925 Y210.185 I-1.384 J-841.927 F420
N1935 G3 X106.606 Y209.866 I0 J-0.319
N1940 G1 Y207.103
N1945 G3 X106.925 Y206.784 I0.319 J0
N1950 G1 X126.309
N1955 G3 X126.628 Y207.103 I0 J0.319
N1960 G1 Y209.884
N1965 G3 X126.311 Y210.193 I-0.309 J0
N1970 G2 X116.618 Y210.13 I-6.606 J268.1
N1975 G3 X108.309 Y210.184 I-9.693 J-841.872
N1980 G2 X105.129 Y211.734 I0.007 J4.05
N1985 G3 X101.786 Y210.579 I-1.472 J-1.155
N1990 G1 Y202.284
N1995 G3 X102.105 Y201.964 I0.319 J0
N2000 G1 X131.128
N2005 G3 X131.448 Y202.284 I0 J0.319
N2010 G1 Y215.424
N2015 G3 X131.148 Y215.66 I-0.243 J0
N2020 G2 X128.417 Y215.148 I-6.463 J26.907
N2025 G2 X125.645 Y214.96 I-2.772 J20.367
N2030 G1 X102.105 Y215.005
N2035 G3 X101.786 Y214.686 I0 J-0.319
N2040 G1 Y210.579
N2045 G2 X99.444 Y207.065 I-3.807 J0
N2050 G3 X97.101 Y203.551 I1.464 J-3.514
N2055 G1 Y197.599
N2060 G3 X97.42 Y197.279 I0.319 J0
N2065 G1 X135.813
N2070 G3 X136.133 Y197.599 I0 J0.319
N2075 G1 Y220.463
N2080 G3 X135.813 Y220.782 I-0.319 J0
N2085 G1 X132.352
N2090 G3 X131.591 Y220.658 I0 J-2.395
N2095 G2 X128.659 Y219.911 I-6.508 J19.407
N2100 G2 X125.645 Y219.645 I-3.014 J16.986
N2105 G1 X97.42 Y219.69
N2110 G3 X97.101 Y219.371 I0 J-0.319
N2115 G1 Y203.551
N2120 G2 X94.654 Y199.882 I-3.976 J0
N2125 G3 X92.208 Y196.212 I1.529 J-3.67
N2130 G1 Y192.705
N2135 G3 X92.527 Y192.386 I0.319 J0
N2140 G1 X140.707
N2145 G3 X141.026 Y192.705 I0 J0.319
N2150 G1 Y225.356
N2155 G3 X140.707 Y225.675 I-0.319 J0
N2160 G1 X132.095
N2165 G3 X130.202 Y225.354 I0 J-5.74
N2170 G2 X127.958 Y224.755 I-5.118 J14.651
N2175 G2 X125.645 Y224.539 I-2.313 J12.276
N2180 G1 X92.527 Y224.584
N2185 G3 X92.208 Y224.264 I0 J-0.319
N2190 G1 Y196.212
N2195 G2 X89.463 Y192.941 I-3.321 J0
N2200 G3 X87.878 Y188.977 I0.436 J-2.473
N2205 G3 X89.263 Y187.949 I2.374 J1.751
N2210 G1 X90.239 Y187.598
N2215 G1 X90.284 Y187.581
N2220 G1 X90.552 Y187.48
N2225 G1 X142.582
N2230 G3 X145.932 Y190.83 I0 J3.35
N2235 G1 Y227.231
N2240 G3 X142.582 Y230.581 I-3.35 J0
N2245 G1 X129.929
N2250 G2 X125.645 Y229.489 I-4.284 J7.858
N2255 G1 X90.252
N2260 G3 X87.302 Y226.539 I0 J-2.95
N2265 G1 Y190.728
N2270 G3 X87.878 Y188.977 I2.95 J0
N2275 G1 X87.906 Y188.949
N2280 G1 X87.941 Y188.931
N2285 G1 X87.98 Y188.924
N2290 G1 X88.019 Y188.928
N2295 G1 X88.055 Y188.945
N2300 G1 X88.085 Y188.971
N2305 G1 X88.495 Y189.465
N2310 G1 X109.94 Y207.638
N2315 G1 X109.972 Y207.66
N2320 G1 X110.007 Y207.676
N2325 G1 X110.878 Y207.977
N2330 G3 X111.007 Y208.239 I-0.068 J0.196
N2335 G3 X105.602 Y206.429 Z-10.313 I-2.703 J-0.905 F333.3
N2340 G3 X111.007 Y208.239 Z-10.625 I2.703 J0.905
N2345 G3 X105.602 Y206.429 Z-10.938 I-2.703 J-0.905
N2350 G3 X111.007 Y208.239 Z-11.251 I2.703 J0.905
N2355 G3 X105.602 Y206.429 Z-11.563 I-2.703 J-0.905
N2360 G3 X111.007 Y208.239 Z-11.876 I2.703 J0.905
N2365 G3 X108.309 Y210.184 Z-12 I-2.703 J-0.905
N2370 G3 X106.925 Y210.185 I-1.384 J-841.927 F420
N2375 G3 X106.606 Y209.866 I0 J-0.319
N2380 G1 Y207.103
N2385 G3 X106.925 Y206.784 I0.319 J0
N2390 G1 X126.309
N2395 G3 X126.628 Y207.103 I0 J0.319
N2400 G1 Y209.884
N2405 G3 X126.311 Y210.193 I-0.309 J0
N2410 G2 X116.618 Y210.13 I-6.606 J268.1
N2415 G3 X108.309 Y210.184 I-9.693 J-841.872
N2420 G2 X105.129 Y211.734 I0.007 J4.05
N2425 G3 X101.786 Y210.579 I-1.472 J-1.155
N2430 G1 Y202.284
N2435 G3 X102.105 Y201.964 I0.319 J0
N2440 G1 X131.128
N2445 G3 X131.448 Y202.284 I0 J0.319
N2450 G1 Y215.424
N2455 G3 X131.148 Y215.66 I-0.243 J0
N2460 G2 X128.417 Y215.148 I-6.463 J26.907
N2465 G2 X125.645 Y214.96 I-2.772 J20.367
N2470 G1 X102.105 Y215.005
N2475 G3 X101.786 Y214.686 I0 J-0.319
N2480 G1 Y210.579
N2485 G2 X99.444 Y207.065 I-3.807 J0
N2490 G3 X97.101 Y203.551 I1.464 J-3.514
N2495 G1 Y197.599
N2500 G3 X97.42 Y197.279 I0.319 J0
N2505 G1 X135.813
N2510 G3 X136.133 Y197.599 I0 J0.319
N2515 G1 Y220.463
N2520 G3 X135.813 Y220.782 I-0.319 J0
N2525 G1 X132.352
N2530 G3 X131.591 Y220.658 I0 J-2.395
N2535 G2 X128.659 Y219.911 I-6.508 J19.407
N2540 G2 X125.645 Y219.645 I-3.014 J16.986
N2545 G1 X97.42 Y219.69
N2550 G3 X97.101 Y219.371 I0 J-0.319
N2555 G1 Y203.551
N2560 G2 X94.654 Y199.882 I-3.976 J0
N2565 G3 X92.208 Y196.212 I1.529 J-3.67
N2570 G1 Y192.705
N2575 G3 X92.527 Y192.386 I0.319 J0
N2580 G1 X140.707
N2585 G3 X141.026 Y192.705 I0 J0.319
N2590 G1 Y225.356
N2595 G3 X140.707 Y225.675 I-0.319 J0
N2600 G1 X132.095
N2605 G3 X130.202 Y225.354 I0 J-5.74
N2610 G2 X127.958 Y224.755 I-5.118 J14.651
N2615 G2 X125.645 Y224.539 I-2.313 J12.276
N2620 G1 X92.527 Y224.584
N2625 G3 X92.208 Y224.264 I0 J-0.319
N2630 G1 Y196.212
N2635 G2 X89.463 Y192.941 I-3.321 J0
N2640 G3 X87.878 Y188.977 I0.436 J-2.473
N2645 G3 X89.263 Y187.949 I2.374 J1.751
N2650 G1 X90.239 Y187.598
N2655 G1 X90.284 Y187.581
N2660 G1 X90.552 Y187.48
N2665 G1 X142.582
N2670 G3 X145.932 Y190.83 I0 J3.35
N2675 G1 Y227.231
N2680 G3 X142.582 Y230.581 I-3.35 J0
N2685 G1 X129.929
N2690 G2 X125.645 Y229.489 I-4.284 J7.858
N2695 G1 X90.252
N2700 G3 X87.302 Y226.539 I0 J-2.95
N2705 G1 Y190.728
N2710 G3 X87.878 Y188.977 I2.95 J0
N2715 G1 X87.906 Y188.949
N2720 G1 X87.941 Y188.931
N2725 G1 X87.98 Y188.924
N2730 G1 X88.019 Y188.928
N2735 G1 X88.055 Y188.945
N2740 G1 X88.085 Y188.971
N2745 G1 X88.495 Y189.465
N2750 G1 X109.94 Y207.638
N2755 G1 X109.972 Y207.66
N2760 G1 X110.007 Y207.676
N2765 G1 X110.878 Y207.977
N2770 G3 X111.007 Y208.239 I-0.068 J0.196
N2775 G3 X105.602 Y206.429 Z-12.313 I-2.703 J-0.905 F333.3
N2780 G3 X111.007 Y208.239 Z-12.625 I2.703 J0.905
N2785 G3 X105.602 Y206.429 Z-12.938 I-2.703 J-0.905
N2790 G3 X111.007 Y208.239 Z-13.251 I2.703 J0.905
N2795 G3 X105.602 Y206.429 Z-13.563 I-2.703 J-0.905
N2800 G3 X111.007 Y208.239 Z-13.876 I2.703 J0.905
N2805 G3 X108.309 Y210.184 Z-14 I-2.703 J-0.905
N2810 G3 X106.925 Y210.185 I-1.384 J-841.927 F420
N2815 G3 X106.606 Y209.866 I0 J-0.319
N2820 G1 Y207.103
N2825 G3 X106.925 Y206.784 I0.319 J0
N2830 G1 X126.309
N2835 G3 X126.628 Y207.103 I0 J0.319
N2840 G1 Y209.884
N2845 G3 X126.311 Y210.193 I-0.309 J0
N2850 G2 X116.618 Y210.13 I-6.606 J268.1
N2855 G3 X108.309 Y210.184 I-9.693 J-841.872
N2860 G2 X105.129 Y211.734 I0.007 J4.05
N2865 G3 X101.786 Y210.579 I-1.472 J-1.155
N2870 G1 Y202.284
N2875 G3 X102.105 Y201.964 I0.319 J0
N2880 G1 X131.128
N2885 G3 X131.448 Y202.284 I0 J0.319
N2890 G1 Y215.424
N2895 G3 X131.148 Y215.66 I-0.243 J0
N2900 G2 X128.417 Y215.148 I-6.463 J26.907
N2905 G2 X125.645 Y214.96 I-2.772 J20.367
N2910 G1 X102.105 Y215.005
N2915 G3 X101.786 Y214.686 I0 J-0.319
N2920 G1 Y210.579
N2925 G2 X99.444 Y207.065 I-3.807 J0
N2930 G3 X97.101 Y203.551 I1.464 J-3.514
N2935 G1 Y197.599
N2940 G3 X97.42 Y197.279 I0.319 J0
N2945 G1 X135.813
N2950 G3 X136.133 Y197.599 I0 J0.319
N2955 G1 Y220.463
N2960 G3 X135.813 Y220.782 I-0.319 J0
N2965 G1 X132.352
N2970 G3 X131.591 Y220.658 I0 J-2.395
N2975 G2 X128.659 Y219.911 I-6.508 J19.407
N2980 G2 X125.645 Y219.645 I-3.014 J16.986
N2985 G1 X97.42 Y219.69
N2990 G3 X97.101 Y219.371 I0 J-0.319
N2995 G1 Y203.551
N3000 G2 X94.654 Y199.882 I-3.976 J0
N3005 G3 X92.208 Y196.212 I1.529 J-3.67
N3010 G1 Y192.705
N3015 G3 X92.527 Y192.386 I0.319 J0
N3020 G1 X140.707
N3025 G3 X141.026 Y192.705 I0 J0.319
N3030 G1 Y225.356
N3035 G3 X140.707 Y225.675 I-0.319 J0
N3040 G1 X132.095
N3045 G3 X130.202 Y225.354 I0 J-5.74
N3050 G2 X127.958 Y224.755 I-5.118 J14.651
N3055 G2 X125.645 Y224.539 I-2.313 J12.276
N3060 G1 X92.527 Y224.584
N3065 G3 X92.208 Y224.264 I0 J-0.319
N3070 G1 Y196.212
N3075 G2 X89.463 Y192.941 I-3.321 J0
N3080 G3 X87.878 Y188.977 I0.436 J-2.473
N3085 G3 X89.263 Y187.949 I2.374 J1.751
N3090 G1 X90.239 Y187.598
N3095 G1 X90.284 Y187.581
N3100 G1 X90.552 Y187.48
N3105 G1 X142.582
N3110 G3 X145.932 Y190.83 I0 J3.35
N3115 G1 Y227.231
N3120 G3 X142.582 Y230.581 I-3.35 J0
N3125 G1 X129.929
N3130 G2 X125.645 Y229.489 I-4.284 J7.858
N3135 G1 X90.252
N3140 G3 X87.302 Y226.539 I0 J-2.95
N3145 G1 Y190.728
N3150 G3 X87.878 Y188.977 I2.95 J0
N3155 G1 X87.906 Y188.949
N3160 G1 X87.941 Y188.931
N3165 G1 X87.98 Y188.924
N3170 G1 X88.019 Y188.928
N3175 G1 X88.055 Y188.945
N3180 G1 X88.085 Y188.971
N3185 G1 X88.495 Y189.465
N3190 G1 X109.94 Y207.638
N3195 G1 X109.972 Y207.66
N3200 G1 X110.007 Y207.676
N3205 G1 X110.878 Y207.977
N3210 G3 X111.007 Y208.239 I-0.068 J0.196
N3215 G3 X105.602 Y206.429 Z-14.313 I-2.703 J-0.905 F333.3
N3220 G3 X111.007 Y208.239 Z-14.625 I2.703 J0.905
N3225 G3 X105.602 Y206.429 Z-14.938 I-2.703 J-0.905
N3230 G3 X111.007 Y208.239 Z-15.251 I2.703 J0.905
N3235 G3 X105.602 Y206.429 Z-15.563 I-2.703 J-0.905
N3240 G3 X111.007 Y208.239 Z-15.876 I2.703 J0.905
N3245 G3 X108.309 Y210.184 Z-16 I-2.703 J-0.905
N3250 G3 X106.925 Y210.185 I-1.384 J-841.927 F420
N3255 G3 X106.606 Y209.866 I0 J-0.319
N3260 G1 Y207.103
N3265 G3 X106.925 Y206.784 I0.319 J0
N3270 G1 X126.309
N3275 G3 X126.628 Y207.103 I0 J0.319
N3280 G1 Y209.884
N3285 G3 X126.311 Y210.193 I-0.309 J0
N3290 G2 X116.618 Y210.13 I-6.606 J268.1
N3295 G3 X108.309 Y210.184 I-9.693 J-841.872
N3300 G2 X105.129 Y211.734 I0.007 J4.05
N3305 G3 X101.786 Y210.579 I-1.472 J-1.155
N3310 G1 Y202.284
N3315 G3 X102.105 Y201.964 I0.319 J0
N3320 G1 X131.128
N3325 G3 X131.448 Y202.284 I0 J0.319
N3330 G1 Y215.424
N3335 G3 X131.148 Y215.66 I-0.243 J0
N3340 G2 X128.417 Y215.148 I-6.463 J26.907
N3345 G2 X125.645 Y214.96 I-2.772 J20.367
N3350 G1 X102.105 Y215.005
N3355 G3 X101.786 Y214.686 I0 J-0.319
N3360 G1 Y210.579
N3365 G2 X99.444 Y207.065 I-3.807 J0
N3370 G3 X97.101 Y203.551 I1.464 J-3.514
N3375 G1 Y197.599
N3380 G3 X97.42 Y197.279 I0.319 J0
N3385 G1 X135.813
N3390 G3 X136.133 Y197.599 I0 J0.319
N3395 G1 Y220.463
N3400 G3 X135.813 Y220.782 I-0.319 J0
N3405 G1 X132.352
N3410 G3 X131.591 Y220.658 I0 J-2.395
N3415 G2 X128.659 Y219.911 I-6.508 J19.407
N3420 G2 X125.645 Y219.645 I-3.014 J16.986
N3425 G1 X97.42 Y219.69
N3430 G3 X97.101 Y219.371 I0 J-0.319
N3435 G1 Y203.551
N3440 G2 X94.654 Y199.882 I-3.976 J0
N3445 G3 X92.208 Y196.212 I1.529 J-3.67
N3450 G1 Y192.705
N3455 G3 X92.527 Y192.386 I0.319 J0
N3460 G1 X140.707
N3465 G3 X141.026 Y192.705 I0 J0.319
N3470 G1 Y225.356
N3475 G3 X140.707 Y225.675 I-0.319 J0
N3480 G1 X132.095
N3485 G3 X130.202 Y225.354 I0 J-5.74
N3490 G2 X127.958 Y224.755 I-5.118 J14.651
N3495 G2 X125.645 Y224.539 I-2.313 J12.276
N3500 G1 X92.527 Y224.584
N3505 G3 X92.208 Y224.264 I0 J-0.319
N3510 G1 Y196.212
N3515 G2 X89.463 Y192.941 I-3.321 J0
N3520 G3 X87.878 Y188.977 I0.436 J-2.473
N3525 G3 X89.263 Y187.949 I2.374 J1.751
N3530 G1 X90.239 Y187.598
N3535 G1 X90.284 Y187.581
N3540 G1 X90.552 Y187.48
N3545 G1 X142.582
N3550 G3 X145.932 Y190.83 I0 J3.35
N3555 G1 Y227.231
N3560 G3 X142.582 Y230.581 I-3.35 J0
N3565 G1 X129.929
N3570 G2 X125.645 Y229.489 I-4.284 J7.858
N3575 G1 X90.252
N3580 G3 X87.302 Y226.539 I0 J-2.95
N3585 G1 Y190.728
N3590 G3 X87.878 Y188.977 I2.95 J0
N3595 G1 X87.906 Y188.949
N3600 G1 X87.941 Y188.931
N3605 G1 X87.98 Y188.924
N3610 G1 X88.019 Y188.928
N3615 G1 X88.055 Y188.945
N3620 G1 X88.085 Y188.971
N3625 G1 X88.495 Y189.465
N3630 G1 X109.94 Y207.638
N3635 G1 X109.972 Y207.66
N3640 G1 X110.007 Y207.676
N3645 G1 X110.878 Y207.977
N3650 G3 X111.007 Y208.239 I-0.068 J0.196
N3655 G3 X105.602 Y206.429 Z-16.313 I-2.703 J-0.905 F333.3
N3660 G3 X111.007 Y208.239 Z-16.625 I2.703 J0.905
N3665 G3 X105.602 Y206.429 Z-16.938 I-2.703 J-0.905
N3670 G3 X111.007 Y208.239 Z-17.251 I2.703 J0.905
N3675 G3 X105.602 Y206.429 Z-17.563 I-2.703 J-0.905
N3680 G3 X111.007 Y208.239 Z-17.876 I2.703 J0.905
N3685 G3 X108.309 Y210.184 Z-18 I-2.703 J-0.905
N3690 G3 X106.925 Y210.185 I-1.384 J-841.927 F420
N3695 G3 X106.606 Y209.866 I0 J-0.319
N3700 G1 Y207.103
N3705 G3 X106.925 Y206.784 I0.319 J0
N3710 G1 X126.309
N3715 G3 X126.628 Y207.103 I0 J0.319
N3720 G1 Y209.884
N3725 G3 X126.311 Y210.193 I-0.309 J0
N3730 G2 X116.618 Y210.13 I-6.606 J268.1
N3735 G3 X108.309 Y210.184 I-9.693 J-841.872
N3740 G2 X105.129 Y211.734 I0.007 J4.05
N3745 G3 X101.786 Y210.579 I-1.472 J-1.155
N3750 G1 Y202.284
N3755 G3 X102.105 Y201.964 I0.319 J0
N3760 G1 X131.128
N3765 G3 X131.448 Y202.284 I0 J0.319
N3770 G1 Y215.424
N3775 G3 X131.148 Y215.66 I-0.243 J0
N3780 G2 X128.417 Y215.148 I-6.463 J26.907
N3785 G2 X125.645 Y214.96 I-2.772 J20.367
N3790 G1 X102.105 Y215.005
N3795 G3 X101.786 Y214.686 I0 J-0.319
N3800 G1 Y210.579
N3805 G2 X99.444 Y207.065 I-3.807 J0
N3810 G3 X97.101 Y203.551 I1.464 J-3.514
N3815 G1 Y197.599
N3820 G3 X97.42 Y197.279 I0.319 J0
N3825 G1 X135.813
N3830 G3 X136.133 Y197.599 I0 J0.319
N3835 G1 Y220.463
N3840 G3 X135.813 Y220.782 I-0.319 J0
N3845 G1 X132.352
N3850 G3 X131.591 Y220.658 I0 J-2.395
N3855 G2 X128.659 Y219.911 I-6.508 J19.407
N3860 G2 X125.645 Y219.645 I-3.014 J16.986
N3865 G1 X97.42 Y219.69
N3870 G3 X97.101 Y219.371 I0 J-0.319
N3875 G1 Y203.551
N3880 G2 X94.654 Y199.882 I-3.976 J0
N3885 G3 X92.208 Y196.212 I1.529 J-3.67
N3890 G1 Y192.705
N3895 G3 X92.527 Y192.386 I0.319 J0
N3900 G1 X140.707
N3905 G3 X141.026 Y192.705 I0 J0.319
N3910 G1 Y225.356
N3915 G3 X140.707 Y225.675 I-0.319 J0
N3920 G1 X132.095
N3925 G3 X130.202 Y225.354 I0 J-5.74
N3930 G2 X127.958 Y224.755 I-5.118 J14.651
N3935 G2 X125.645 Y224.539 I-2.313 J12.276
N3940 G1 X92.527 Y224.584
N3945 G3 X92.208 Y224.264 I0 J-0.319
N3950 G1 Y196.212
N3955 G2 X89.463 Y192.941 I-3.321 J0
N3960 G3 X87.878 Y188.977 I0.436 J-2.473
N3965 G3 X89.263 Y187.949 I2.374 J1.751
N3970 G1 X90.239 Y187.598
N3975 G1 X90.284 Y187.581
N3980 G1 X90.552 Y187.48
N3985 G1 X142.582
N3990 G3 X145.932 Y190.83 I0 J3.35
N3995 G1 Y227.231
N4000 G3 X142.582 Y230.581 I-3.35 J0
N4005 G1 X129.929
N4010 G2 X125.645 Y229.489 I-4.284 J7.858
N4015 G1 X90.252
N4020 G3 X87.302 Y226.539 I0 J-2.95
N4025 G1 Y190.728
N4030 G3 X87.878 Y188.977 I2.95 J0
N4035 G3 X92.1 Y188.57 Z-18.132 I2.294 J1.692 F333.3
N4040 G1 X110.233 Y205.236 Z-18.812
N4045 G3 X108.309 Y210.184 Z-19 I-1.929 J2.098
N4050 G3 X106.925 Y210.185 I-1.384 J-841.927 F420
N4055 G3 X106.606 Y209.866 I0 J-0.319
N4060 G1 Y207.103
N4065 G3 X106.925 Y206.784 I0.319 J0
N4070 G1 X126.309
N4075 G3 X126.628 Y207.103 I0 J0.319
N4080 G1 Y209.884
N4085 G3 X126.311 Y210.193 I-0.309 J0
N4090 G2 X116.618 Y210.13 I-6.606 J268.1
N4095 G3 X108.309 Y210.184 I-9.693 J-841.872
N4100 G2 X105.129 Y211.734 I0.007 J4.05
N4105 G3 X101.786 Y210.579 I-1.472 J-1.155
N4110 G1 Y202.284
N4115 G3 X102.105 Y201.964 I0.319 J0
N4120 G1 X131.128
N4125 G3 X131.448 Y202.284 I0 J0.319
N4130 G1 Y215.424
N4135 G3 X131.148 Y215.66 I-0.243 J0
N4140 G2 X128.417 Y215.148 I-6.463 J26.907
N4145 G2 X125.645 Y214.96 I-2.772 J20.367
N4150 G1 X102.105 Y215.005
N4155 G3 X101.786 Y214.686 I0 J-0.319
N4160 G1 Y210.579
N4165 G2 X99.444 Y207.065 I-3.807 J0
N4170 G3 X97.101 Y203.551 I1.464 J-3.514
N4175 G1 Y197.599
N4180 G3 X97.42 Y197.279 I0.319 J0
N4185 G1 X135.813
N4190 G3 X136.133 Y197.599 I0 J0.319
N4195 G1 Y220.463
N4200 G3 X135.813 Y220.782 I-0.319 J0
N4205 G1 X132.352
N4210 G3 X131.591 Y220.658 I0 J-2.395
N4215 G2 X128.659 Y219.911 I-6.508 J19.407
N4220 G2 X125.645 Y219.645 I-3.014 J16.986
N4225 G1 X97.42 Y219.69
N4230 G3 X97.101 Y219.371 I0 J-0.319
N4235 G1 Y203.551
N4240 G2 X94.654 Y199.882 I-3.976 J0
N4245 G3 X92.208 Y196.212 I1.529 J-3.67
N4250 G1 Y192.705
N4255 G3 X92.527 Y192.386 I0.319 J0
N4260 G1 X140.707
N4265 G3 X141.026 Y192.705 I0 J0.319
N4270 G1 Y225.356
N4275 G3 X140.707 Y225.675 I-0.319 J0
N4280 G1 X132.095
N4285 G3 X130.202 Y225.354 I0 J-5.74
N4290 G2 X127.958 Y224.755 I-5.118 J14.651
N4295 G2 X125.645 Y224.539 I-2.313 J12.276
N4300 G1 X92.527 Y224.584
N4305 G3 X92.208 Y224.264 I0 J-0.319
N4310 G1 Y196.212
N4315 G2 X89.463 Y192.941 I-3.321 J0
N4320 G3 X87.878 Y188.977 I0.436 J-2.473
N4325 G3 X89.263 Y187.949 I2.374 J1.751
N4330 G1 X90.239 Y187.598
N4335 G1 X90.284 Y187.581
N4340 G1 X90.552 Y187.48
N4345 G1 X142.582
N4350 G3 X145.932 Y190.83 I0 J3.35
N4355 G1 Y227.231
N4360 G3 X142.582 Y230.581 I-3.35 J0
N4365 G1 X129.929
N4370 G2 X125.645 Y229.489 I-4.284 J7.858
N4375 G1 X90.252
N4380 G3 X87.302 Y226.539 I0 J-2.95
N4385 G1 Y190.728
N4390 G3 X87.878 Y188.977 I2.95 J0
N4395 G1 X87.939 Y188.907 Z-18.985 F1000
N4400 G1 X88.009 Y188.847 Z-18.971
N4405 G1 X88.08 Y188.803 Z-18.928
N4410 G1 X88.157 Y188.769 Z-18.885
N4415 G1 X88.22 Y188.75 Z-18.819
N4420 G1 X88.285 Y188.738 Z-18.753
N4425 G1 X88.37 Y188.733 Z-18.585
N4430 G1 X88.4 Y188.734 Z-18.4
N4435 G0 Z15
N4440 G28 G91 Z0
N4445 G90
N4450 G28 G91 X0 Y0
N4455 G90
N4460 M30
%
