%
(NeckPlatePocket)
(NeckPlatePocket)
(T1 D=6 CR=0 - ZMIN=-5.5 - flat end mill)
N10 G90 G94
N15 G17
N20 G21
N25 G28 G91 Z0
N30 G90

(NeckPlatePocket)
N35 T1 M6
N40 S14000 M3
N45 G54
N50 G0 X109.877 Y212.302
N55 G0 G43 Z15 H1
N60 G0 Z1
N65 G1 Z-0.9 F1000
N70 G1 X109.851 Y212.29 Z-1.082 F333.3
N75 G1 X109.779 Y212.253 Z-1.246
N80 G1 X109.667 Y212.191 Z-1.378
N85 G1 X109.53 Y212.105 Z-1.466
N90 G1 X109.383 Y212.001 Z-1.5
N95 G3 X112.83 Y207.461 Z-1.813 I1.724 J-2.27
N100 G3 X109.383 Y212.001 Z-2.125 I-1.724 J2.27
N105 G3 X112.83 Y207.461 Z-2.438 I1.724 J-2.27
N110 G3 X109.383 Y212.001 Z-2.751 I-1.724 J2.27
N115 G3 X112.83 Y207.461 Z-3.063 I1.724 J-2.27
N120 G3 X109.383 Y212.001 Z-3.376 I-1.724 J2.27
N125 G3 X112.83 Y207.461 Z-3.689 I1.724 J-2.27
N130 G3 X109.383 Y212.001 Z-4.001 I-1.724 J2.27
N135 G3 X112.83 Y207.461 Z-4.314 I1.724 J-2.27
N140 G3 X109.383 Y212.001 Z-4.627 I-1.724 J2.27
N145 G3 X112.83 Y207.461 Z-4.939 I1.724 J-2.27
N150 G3 X109.383 Y212.001 Z-5.252 I-1.724 J2.27
N155 G3 X111.107 Y206.881 Z-5.5 I1.724 J-2.27
N160 G1 X135.35 F420
N165 G3 X135.669 Y207.2 I0 J0.319
N170 G1 Y208.918
N175 G3 X135.35 Y209.237 I-0.319 J0
N180 G1 X110.248
N185 G3 X109.929 Y208.918 I0 J-0.319
N190 G1 Y207.2
N195 G3 X110.248 Y206.881 I0.319 J0
N200 G1 X111.107
N205 G2 X112.908 Y205.68 I0 J-1.952
N210 G3 X114.71 Y204.479 I1.801 J0.751
N215 G1 X137.752
N220 G3 X138.071 Y204.798 I0 J0.319
N225 G1 Y211.32
N230 G3 X137.752 Y211.639 I-0.319 J0
N235 G1 X107.846
N240 G3 X107.527 Y211.32 I0 J-0.319
N245 G1 Y204.798
N250 G3 X107.846 Y204.479 I0.319 J0
N255 G1 X114.71
N260 G2 X118.38 Y202.032 I0 J-3.976
N265 G3 X122.05 Y199.586 I3.67 J1.529
N270 G1 X142.645
N275 G3 X142.964 Y199.905 I0 J0.319
N280 G1 Y216.213
N285 G3 X142.645 Y216.532 I-0.319 J0
N290 G1 X102.953
N295 G3 X102.633 Y216.213 I0 J-0.319
N300 G1 Y199.905
N305 G3 X102.953 Y199.586 I0.319 J0
N310 G1 X122.05
N315 G2 X125.723 Y197.137 I0 J-3.98
N320 G3 X129.397 Y194.688 I3.674 J1.531
N325 G1 X147.863
N330 G1 Y221.431
N335 G1 X97.735
N340 G1 Y194.688
N345 G1 X129.397
N350 G1 X129.489 Y194.695 Z-5.485 F1000
N355 G1 X129.579 Y194.716 Z-5.471
N360 G1 X129.657 Y194.747 Z-5.428
N365 G1 X129.73 Y194.788 Z-5.385
N370 G1 X129.783 Y194.828 Z-5.319
N375 G1 X129.831 Y194.873 Z-5.253
N380 G1 X129.885 Y194.939 Z-5.085
N385 G1 X129.902 Y194.963 Z-4.9
N390 G0 Z15
N395 G28 G91 Z0
N400 G90
N405 G28 G91 X0 Y0
N410 G90
N415 M30
%
