%
(Outline2)
(Outline2)
(T1 D=6 CR=0 - ZMIN=-27 - flat end mill)
N10 G90 G94
N15 G17
N20 G21
N25 G28 G91 Z0
N30 G90

(Outline2)
N35 T1 M6
N40 S14000 M3
N45 G54
N50 G0 X125.819 Y237.154
N55 G0 G43 Z15 H1
N60 G0 Z-11
N65 G1 Z-14 F333.3
N70 G1 Z-17.4
N75 G1 X125.824 Y237.148 Z-17.494 F1000
N80 G1 X125.836 Y237.13 Z-17.585
N85 G1 X125.857 Y237.1 Z-17.672
N90 G1 X125.885 Y237.06 Z-17.753
N95 G1 X125.921 Y237.01 Z-17.824
N100 G1 X125.962 Y236.952 Z-17.885
N105 G1 X126.008 Y236.886 Z-17.935
N110 G1 X126.059 Y236.815 Z-17.971
N115 G1 X126.111 Y236.741 Z-17.993
N120 G1 X126.166 Y236.664 Z-18
N125 G1 X126.512 Y236.174
N130 G3 X127.348 Y236.03 I0.49 J0.346
N135 G3 X127.77 Y236.393 I-1.703 J2.409 F420
N140 G1 X128.143 Y236.789
N145 G1 X128.502 Y237.181
N150 G1 X128.855 Y237.578
N155 G1 X129.202 Y237.98
N160 G1 X129.542 Y238.385
N165 G1 X129.876 Y238.795
N170 G1 X130.204 Y239.209
N175 G1 X130.525 Y239.627
N180 G1 X130.84 Y240.05
N185 G1 X131.149 Y240.476
N190 G1 X131.452 Y240.906
N195 G1 X131.748 Y241.341
N200 G1 X132.037 Y241.779
N205 G1 X132.321 Y242.221
N210 G1 X132.598 Y242.668
N215 G1 X132.869 Y243.117
N220 G1 X133.133 Y243.571
N225 G1 X133.391 Y244.029
N230 G1 X133.643 Y244.49
N235 G1 X133.888 Y244.955
N240 G1 X134.126 Y245.424
N245 G1 X134.359 Y245.896
N250 G1 X134.586 Y246.375
N255 G1 X134.735 Y246.701
N260 G1 X134.951 Y247.185
N265 G1 X135.157 Y247.668
N270 G1 X135.357 Y248.153
N275 G1 X135.549 Y248.639
N280 G1 X135.734 Y249.127
N285 G1 X135.911 Y249.617
N290 G1 X136.081 Y250.107
N295 G1 X136.244 Y250.599
N300 G1 X136.4 Y251.093
N305 G1 X136.549 Y251.587
N310 G1 X136.69 Y252.083
N315 G1 X136.824 Y252.58
N320 G1 X136.951 Y253.078
N325 G1 X137.071 Y253.576
N330 G1 X137.184 Y254.076
N335 G1 X137.29 Y254.576
N340 G1 X137.388 Y255.077
N345 G1 X137.48 Y255.578
N350 G1 X137.564 Y256.08
N355 G1 X137.641 Y256.582
N360 G1 X137.71 Y257.085
N365 G1 X137.773 Y257.588
N370 G1 X137.827 Y258.091
N375 G1 X137.876 Y258.603
N380 G1 X137.883 Y258.691
N385 G1 X137.92 Y259.169
N390 G1 X137.949 Y259.638
N395 G1 X137.972 Y260.104
N400 G1 X137.988 Y260.569
N405 G1 X137.998 Y261.031
N410 G1 X138.001 Y261.492
N415 G1 X137.997 Y261.95
N420 G1 X137.987 Y262.407
N425 G1 X137.97 Y262.861
N430 G1 X137.947 Y263.313
N435 G1 X137.917 Y263.764
N440 G1 X137.881 Y264.212
N445 G1 X137.838 Y264.658
N450 G1 X137.789 Y265.102
N455 G1 X137.733 Y265.543
N460 G1 X137.671 Y265.982
N465 G1 X137.602 Y266.42
N470 G1 X137.527 Y266.854
N475 G1 X137.445 Y267.287
N480 G1 X137.356 Y267.717
N485 G1 X137.261 Y268.145
N490 G1 X137.159 Y268.571
N495 G1 X137.05 Y268.994
N500 G1 X136.935 Y269.415
N505 G1 X136.813 Y269.834
N510 G1 X136.682 Y270.256
N515 G1 X136.624 Y270.435
N520 G1 X136.484 Y270.851
N525 G1 X136.34 Y271.256
N530 G1 X136.19 Y271.657
N535 G1 X136.034 Y272.054
N540 G1 X135.871 Y272.447
N545 G1 X135.703 Y272.836
N550 G1 X135.528 Y273.222
N555 G1 X135.348 Y273.603
N560 G1 X135.161 Y273.98
N565 G1 X134.968 Y274.353
N570 G1 X134.77 Y274.722
N575 G1 X134.565 Y275.087
N580 G1 X134.355 Y275.448
N585 G1 X134.138 Y275.806
N590 G1 X133.915 Y276.159
N595 G1 X133.686 Y276.509
N600 G1 X133.451 Y276.856
N605 G1 X133.21 Y277.198
N610 G1 X132.963 Y277.537
N615 G1 X132.709 Y277.873
N620 G1 X132.449 Y278.204
N625 G1 X132.182 Y278.533
N630 G1 X131.914 Y278.853
N635 G1 X131.623 Y279.187
N640 G1 X131.327 Y279.515
N645 G1 X131.025 Y279.839
N650 G1 X130.717 Y280.158
N655 G1 X130.402 Y280.473
N660 G1 X130.081 Y280.783
N665 G1 X129.754 Y281.088
N670 G1 X129.421 Y281.389
N675 G1 X129.08 Y281.686
N680 G1 X128.734 Y281.979
N685 G1 X128.381 Y282.267
N690 G1 X128.021 Y282.551
N695 G1 X127.654 Y282.83
N700 G1 X127.28 Y283.106
N705 G1 X126.899 Y283.378
N710 G1 X126.511 Y283.645
N715 G1 X126.112 Y283.911
N720 G1 X125.7 Y284.176
N725 G1 X125.394 Y284.368
N730 G1 X124.956 Y284.634
N735 G1 X124.505 Y284.899
N740 G1 X124.039 Y285.165
N745 G1 X123.558 Y285.43
N750 G1 X123.063 Y285.695
N755 G1 X122.499 Y285.986
N760 G1 X121.925 Y286.272
N765 G1 X121.341 Y286.553
N770 G1 X120.748 Y286.829
N775 G1 X120.146 Y287.1
N780 G1 X119.535 Y287.365
N785 G1 X118.918 Y287.625
N790 G1 X118.293 Y287.878
N795 G1 X117.664 Y288.125
N800 G1 X117.031 Y288.364
N805 G1 X116.397 Y288.596
N810 G1 X115.76 Y288.821
N815 G1 X115.121 Y289.039
N820 G1 X114.48 Y289.25
N825 G1 X113.839 Y289.453
N830 G1 X113.197 Y289.648
N835 G1 X112.555 Y289.836
N840 G1 X111.914 Y290.016
N845 G1 X111.273 Y290.188
N850 G1 X110.63 Y290.353
N855 G1 X110.299 Y290.435
N860 G1 X109.865 Y290.539
N865 G1 X109.438 Y290.638
N870 G1 X109.016 Y290.732
N875 G1 X108.599 Y290.821
N880 G1 X108.187 Y290.905
N885 G1 X107.781 Y290.984
N890 G1 X107.38 Y291.059
N895 G1 X106.986 Y291.128
N900 G1 X106.598 Y291.193
N905 G1 X106.217 Y291.252
N910 G1 X105.843 Y291.307
N915 G1 X105.477 Y291.356
N920 G1 X105.118 Y291.4
N925 G1 X104.767 Y291.439
N930 G1 X104.425 Y291.472
N935 G1 X104.093 Y291.499
N940 G1 X103.771 Y291.521
N945 G1 X103.46 Y291.537
N950 G1 X103.162 Y291.547
N955 G1 X102.874 Y291.551
N960 G1 X102.637 Y291.549
N965 G1 X102.435 Y291.543
N970 G1 X102.246 Y291.534
N975 G1 X102.071 Y291.521
N980 G1 X101.911 Y291.505
N985 G1 X101.738 Y291.482
N990 G2 X101.044 Y291.472 I-0.39 J2.975
N995 G1 X100.631 Y291.514
N1000 G1 X100.581 Y291.52
N1005 G1 X100.171 Y291.569
N1010 G1 X100.12 Y291.575
N1015 G1 X99.713 Y291.631
N1020 G1 X99.661 Y291.638
N1025 G1 X99.257 Y291.701
N1030 G1 X99.204 Y291.709
N1035 G1 X98.803 Y291.778
N1040 G1 X98.749 Y291.788
N1045 G1 X98.351 Y291.864
N1050 G1 X98.297 Y291.875
N1055 G1 X97.902 Y291.959
N1060 G1 X97.846 Y291.971
N1065 G1 X97.455 Y292.061
N1070 G1 X97.399 Y292.075
N1075 G1 X97.011 Y292.172
N1080 G1 X96.953 Y292.187
N1085 G1 X96.569 Y292.292
N1090 G1 X96.523 Y292.305
N1095 G1 X96.304 Y292.369
N1100 G1 X96.26 Y292.382
N1105 G1 X95.915 Y292.487
N1110 G1 X95.861 Y292.505
N1115 G1 X95.52 Y292.616
N1120 G1 X95.465 Y292.635
N1125 G1 X95.128 Y292.752
N1130 G1 X95.073 Y292.772
N1135 G1 X94.74 Y292.895
N1140 G1 X94.684 Y292.917
N1145 G1 X94.356 Y293.046
N1150 G1 X94.299 Y293.069
N1155 G1 X93.975 Y293.204
N1160 G1 X93.919 Y293.228
N1165 G1 X93.599 Y293.369
N1170 G1 X93.542 Y293.395
N1175 G1 X93.226 Y293.543
N1180 G1 X93.168 Y293.57
N1185 G1 X92.857 Y293.724
N1190 G1 X92.799 Y293.753
N1195 G1 X92.493 Y293.912
N1200 G1 X92.435 Y293.943
N1205 G1 X92.132 Y294.109
N1210 G1 X92.074 Y294.142
N1215 G1 X91.776 Y294.314
N1220 G1 X91.718 Y294.348
N1225 G1 X91.425 Y294.526
N1230 G1 X91.366 Y294.563
N1235 G1 X91.078 Y294.747
N1240 G1 X91.019 Y294.786
N1245 G1 X90.735 Y294.977
N1250 G1 X90.702 Y295
N1255 G1 X90.659 Y295.03
N1260 G1 X90.626 Y295.053
N1265 G1 X90.361 Y295.242
N1270 G1 X90.305 Y295.283
N1275 G1 X90.045 Y295.477
N1280 G1 X89.99 Y295.52
N1285 G1 X89.735 Y295.719
N1290 G1 X89.68 Y295.764
N1295 G1 X89.432 Y295.968
N1300 G1 X89.378 Y296.014
N1305 G1 X89.135 Y296.224
N1310 G1 X89.081 Y296.272
N1315 G1 X88.844 Y296.487
N1320 G1 X88.791 Y296.536
N1325 G1 X88.56 Y296.756
N1330 G1 X88.508 Y296.808
N1335 G1 X88.283 Y297.033
N1340 G1 X88.231 Y297.086
N1345 G1 X88.012 Y297.316
N1350 G1 X87.961 Y297.371
N1355 G1 X87.748 Y297.607
N1360 G1 X87.698 Y297.663
N1365 G1 X87.491 Y297.904
N1370 G1 X87.449 Y297.954
N1375 G1 X87.307 Y298.126
N1380 G1 X87.266 Y298.177
N1385 G1 X87.072 Y298.423
N1390 G1 X87.026 Y298.484
N1395 G1 X86.839 Y298.734
N1400 G1 X86.794 Y298.796
N1405 G1 X86.614 Y299.05
N1410 G1 X86.571 Y299.113
N1415 G1 X86.398 Y299.371
N1420 G1 X86.356 Y299.435
N1425 G1 X86.191 Y299.697
N1430 G1 X86.15 Y299.763
N1435 G1 X85.992 Y300.027
N1440 G1 X85.953 Y300.094
N1445 G1 X85.802 Y300.363
N1450 G1 X85.765 Y300.431
N1455 G1 X85.621 Y300.703
N1460 G1 X85.585 Y300.772
N1465 G1 X85.448 Y301.048
N1470 G1 X85.415 Y301.118
N1475 G1 X85.285 Y301.397
N1480 G1 X85.253 Y301.469
N1485 G1 X85.131 Y301.751
N1490 G1 X85.1 Y301.823
N1495 G1 X84.985 Y302.109
N1500 G1 X84.956 Y302.184
N1505 G1 X84.845 Y302.485
N1510 G1 X84.817 Y302.561
N1515 G1 X84.716 Y302.858
N1520 G1 X84.691 Y302.934
N1525 G1 X84.598 Y303.234
N1530 G1 X84.575 Y303.31
N1535 G1 X84.49 Y303.611
N1540 G1 X84.47 Y303.687
N1545 G1 X84.393 Y303.99
N1550 G1 X84.374 Y304.067
N1555 G1 X84.305 Y304.371
N1560 G1 X84.289 Y304.448
N1565 G1 X84.228 Y304.753
N1570 G1 X84.214 Y304.831
N1575 G1 X84.161 Y305.138
N1580 G1 X84.148 Y305.215
N1585 G1 X84.103 Y305.524
N1590 G1 X84.093 Y305.601
N1595 G1 X84.056 Y305.912
N1600 G1 X84.048 Y305.989
N1605 G1 X84.019 Y306.301
N1610 G1 X84.013 Y306.378
N1615 G1 X83.992 Y306.692
N1620 G1 X83.987 Y306.769
N1625 G1 X83.974 Y307.085
N1630 G1 X83.972 Y307.154
N1635 G1 X83.967 Y307.408
N1640 G1 Y307.477
N1645 G1 X83.969 Y307.803
N1650 G1 X83.97 Y307.881
N1655 G1 X83.98 Y308.206
N1660 G1 X83.983 Y308.283
N1665 G1 X84.002 Y308.609
N1670 G1 X84.007 Y308.685
N1675 G1 X84.034 Y309.011
N1680 G1 X84.041 Y309.086
N1685 G1 X84.076 Y309.412
N1690 G1 X84.085 Y309.486
N1695 G1 X84.128 Y309.812
N1700 G1 X84.139 Y309.886
N1705 G1 X84.19 Y310.211
N1710 G1 X84.203 Y310.284
N1715 G1 X84.262 Y310.609
N1720 G1 X84.277 Y310.681
N1725 G1 X84.345 Y311.006
N1730 G1 X84.36 Y311.078
N1735 G1 X84.437 Y311.403
N1740 G1 X84.451 Y311.46
N1745 G1 X84.504 Y311.668
N1750 G1 X84.519 Y311.727
N1755 G1 X84.613 Y312.064
N1760 G1 X84.634 Y312.136
N1765 G1 X84.736 Y312.472
N1770 G1 X84.758 Y312.542
N1775 G1 X84.869 Y312.876
N1780 G1 X84.893 Y312.944
N1785 G1 X85.011 Y313.276
N1790 G1 X85.036 Y313.343
N1795 G1 X85.164 Y313.674
N1800 G1 X85.19 Y313.739
N1805 G1 X85.325 Y314.068
N1810 G1 X85.353 Y314.132
N1815 G1 X85.497 Y314.458
N1820 G1 X85.525 Y314.522
N1825 G1 X85.677 Y314.846
N1830 G1 X85.707 Y314.908
N1835 G1 X85.867 Y315.23
N1840 G1 X85.898 Y315.291
N1845 G1 X86.067 Y315.611
N1850 G1 X86.099 Y315.67
N1855 G1 X86.275 Y315.989
N1860 G1 X86.308 Y316.047
N1865 G1 X86.493 Y316.363
N1870 G1 X86.528 Y316.421
N1875 G1 X86.731 Y316.753
N1880 G1 X86.768 Y316.811
N1885 G1 X86.982 Y317.142
N1890 G1 X87.02 Y317.199
N1895 G1 X87.242 Y317.526
N1900 G1 X87.281 Y317.581
N1905 G1 X87.511 Y317.904
N1910 G1 X87.55 Y317.958
N1915 G1 X87.788 Y318.277
N1920 G1 X87.828 Y318.329
N1925 G1 X88.074 Y318.643
N1930 G1 X88.114 Y318.694
N1935 G1 X88.368 Y319.005
N1940 G1 X88.409 Y319.054
N1945 G1 X88.671 Y319.361
N1950 G1 X88.712 Y319.408
N1955 G1 X88.981 Y319.711
N1960 G1 X89.023 Y319.757
N1965 G1 X89.3 Y320.056
N1970 G1 X89.342 Y320.1
N1975 G1 X89.627 Y320.395
N1980 G1 X89.67 Y320.438
N1985 G1 X89.963 Y320.73
N1990 G1 X90.005 Y320.771
N1995 G1 X90.306 Y321.058
N2000 G1 X90.349 Y321.099
N2005 G1 X90.657 Y321.382
N2010 G1 X90.7 Y321.421
N2015 G1 X91.016 Y321.7
N2020 G1 X91.06 Y321.738
N2025 G1 X91.384 Y322.013
N2030 G1 X91.418 Y322.042
N2035 G1 X91.613 Y322.202
N2040 G1 X91.648 Y322.231
N2045 G1 X92.001 Y322.513
N2050 G1 X92.047 Y322.549
N2055 G1 X92.408 Y322.826
N2060 G1 X92.454 Y322.861
N2065 G1 X92.821 Y323.132
N2070 G1 X92.867 Y323.165
N2075 G1 X93.242 Y323.431
N2080 G1 X93.288 Y323.462
N2085 G1 X93.67 Y323.723
N2090 G1 X93.715 Y323.753
N2095 G1 X94.104 Y324.008
N2100 G1 X94.15 Y324.037
N2105 G1 X94.546 Y324.287
N2110 G1 X94.592 Y324.315
N2115 G1 X94.995 Y324.559
N2120 G1 X95.04 Y324.586
N2125 G1 X95.451 Y324.825
N2130 G1 X95.496 Y324.85
N2135 G1 X95.914 Y325.084
N2140 G1 X95.959 Y325.108
N2145 G1 X96.384 Y325.336
N2150 G1 X96.428 Y325.36
N2155 G1 X96.861 Y325.582
N2160 G1 X96.892 Y325.598
N2165 G1 X97.071 Y325.688
N2170 G1 X97.103 Y325.704
N2175 G1 X97.559 Y325.925
N2180 G1 X97.604 Y325.947
N2185 G1 X98.067 Y326.162
N2190 G1 X98.112 Y326.183
N2195 G1 X98.582 Y326.392
N2200 G1 X98.626 Y326.411
N2205 G1 X99.103 Y326.615
N2210 G1 X99.147 Y326.633
N2215 G1 X99.63 Y326.83
N2220 G1 X99.674 Y326.847
N2225 G1 X100.164 Y327.038
N2230 G1 X100.207 Y327.055
N2235 G1 X100.704 Y327.239
N2240 G1 X100.744 Y327.254
N2245 G1 X101.102 Y327.381
N2250 G1 X101.638 Y327.613
N2255 G1 X101.671 Y327.627
N2260 G1 X102.301 Y327.891
N2265 G1 X102.334 Y327.905
N2270 G1 X102.967 Y328.161
N2275 G1 X103 Y328.174
N2280 G1 X103.636 Y328.423
N2285 G1 X103.669 Y328.436
N2290 G1 X104.307 Y328.677
N2295 G1 X104.332 Y328.687
N2300 G1 X104.661 Y328.808
N2305 G1 X104.687 Y328.817
N2310 G1 X105.339 Y329.05
N2315 G1 X105.373 Y329.062
N2320 G1 X106.026 Y329.287
N2325 G1 X106.06 Y329.298
N2330 G1 X106.715 Y329.514
N2335 G1 X106.75 Y329.526
N2340 G1 X107.406 Y329.734
N2345 G1 X107.441 Y329.745
N2350 G1 X108.099 Y329.944
N2355 G1 X108.134 Y329.955
N2360 G1 X108.794 Y330.146
N2365 G1 X108.829 Y330.156
N2370 G1 X109.49 Y330.34
N2375 G1 X109.526 Y330.349
N2380 G1 X110.189 Y330.525
N2385 G1 X110.224 Y330.534
N2390 G1 X110.89 Y330.701
N2395 G1 X110.925 Y330.71
N2400 G1 X111.593 Y330.869
N2405 G1 X111.628 Y330.877
N2410 G1 X112.298 Y331.029
N2415 G1 X112.334 Y331.036
N2420 G1 X113.006 Y331.179
N2425 G1 X113.041 Y331.187
N2430 G1 X113.715 Y331.322
N2435 G1 X113.751 Y331.329
N2440 G1 X114.428 Y331.456
N2445 G1 X114.463 Y331.462
N2450 G1 X115.142 Y331.582
N2455 G1 X115.178 Y331.588
N2460 G1 X115.859 Y331.699
N2465 G1 X115.895 Y331.704
N2470 G1 X116.579 Y331.808
N2475 G1 X116.615 Y331.813
N2480 G1 X117.302 Y331.908
N2485 G1 X117.337 Y331.913
N2490 G1 X118.027 Y332
N2495 G1 X118.062 Y332.004
N2500 G1 X118.755 Y332.084
N2505 G1 X118.79 Y332.087
N2510 G1 X119.485 Y332.159
N2515 G1 X119.52 Y332.162
N2520 G1 X120.219 Y332.226
N2525 G1 X120.254 Y332.229
N2530 G1 X120.956 Y332.284
N2535 G1 X120.99 Y332.287
N2540 G1 X121.695 Y332.334
N2545 G1 X121.73 Y332.336
N2550 G1 X122.438 Y332.376
N2555 G1 X122.473 Y332.378
N2560 G1 X123.184 Y332.409
N2565 G1 X123.219 Y332.411
N2570 G1 X123.934 Y332.434
N2575 G1 X123.968 Y332.435
N2580 G1 X124.687 Y332.451
N2585 G1 X124.72
N2590 G1 X125.443 Y332.459
N2595 G1 X125.463
N2600 G1 X125.619
N2605 G1 X125.64
N2610 G1 X126.442 Y332.456
N2615 G1 X126.478
N2620 G1 X127.283 Y332.443
N2625 G1 X127.319
N2630 G1 X128.128 Y332.42
N2635 G1 X128.164 Y332.419
N2640 G1 X128.976 Y332.386
N2645 G1 X129.012 Y332.385
N2650 G1 X129.829 Y332.343
N2655 G1 X129.863 Y332.341
N2660 G1 X130.685 Y332.289
N2665 G1 X130.719 Y332.286
N2670 G1 X131.545 Y332.225
N2675 G1 X131.579 Y332.222
N2680 G1 X132.41 Y332.15
N2685 G1 X132.443 Y332.147
N2690 G1 X133.279 Y332.066
N2695 G1 X133.312 Y332.063
N2700 G1 X134.152 Y331.971
N2705 G1 X134.185 Y331.968
N2710 G1 X135.031 Y331.867
N2715 G1 X135.063 Y331.863
N2720 G1 X135.914 Y331.751
N2725 G1 X135.946 Y331.747
N2730 G1 X136.803 Y331.626
N2735 G1 X136.834 Y331.622
N2740 G1 X137.697 Y331.49
N2745 G1 X137.728 Y331.486
N2750 G1 X138.597 Y331.345
N2755 G1 X138.627 Y331.34
N2760 G1 X139.503 Y331.188
N2765 G1 X139.532 Y331.183
N2770 G1 X140.414 Y331.022
N2775 G1 X140.443 Y331.016
N2780 G1 X141.332 Y330.845
N2785 G1 X141.36 Y330.839
N2790 G1 X142.257 Y330.657
N2795 G1 X142.285 Y330.651
N2800 G1 X143.188 Y330.459
N2805 G1 X143.215 Y330.453
N2810 G1 X144.127 Y330.25
N2815 G1 X144.154 Y330.244
N2820 G1 X145.073 Y330.031
N2825 G1 X145.099 Y330.025
N2830 G1 X146.027 Y329.801
N2835 G1 X146.052 Y329.794
N2840 G1 X146.989 Y329.56
N2845 G1 X147.014 Y329.553
N2850 G1 X147.96 Y329.308
N2855 G1 X147.984 Y329.302
N2860 G1 X148.939 Y329.045
N2865 G1 X148.961 Y329.039
N2870 G1 X149.755 Y328.82
N2875 G1 X149.776 Y328.814
N2880 G1 X150.758 Y328.534
N2885 G1 X150.78 Y328.528
N2890 G1 X151.779 Y328.235
N2895 G1 X151.802 Y328.229
N2900 G1 X152.819 Y327.922
N2905 G1 X152.841 Y327.916
N2910 G1 X153.878 Y327.595
N2915 G1 X153.899 Y327.588
N2920 G1 X154.958 Y327.252
N2925 G1 X154.978 Y327.245
N2930 G1 X156.06 Y326.893
N2935 G1 X156.08 Y326.887
N2940 G1 X157.187 Y326.518
N2945 G1 X157.207 Y326.511
N2950 G1 X158.342 Y326.124
N2955 G1 X158.361 Y326.118
N2960 G1 X159.527 Y325.711
N2965 G1 X159.546 Y325.705
N2970 G1 X160.746 Y325.278
N2975 G1 X160.764 Y325.272
N2980 G1 X162.002 Y324.823
N2985 G1 X162.019 Y324.816
N2990 G1 X163.298 Y324.344
N2995 G1 X163.314 Y324.338
N3000 G1 X164.642 Y323.838
N3005 G1 X164.658 Y323.832
N3010 G1 X166.042 Y323.303
N3015 G1 X166.057 Y323.297
N3020 G1 X167.55 Y322.717
N3025 G1 X167.563 Y322.712
N3030 G1 X168.996 Y322.147
N3035 G1 X169.006 Y322.143
N3040 G1 X170.388 Y321.593
N3045 G1 X170.395 Y321.591
N3050 G1 X171.733 Y321.055
N3055 G1 X171.736 Y321.053
N3060 G1 X173.035 Y320.531
N3065 G1 X173.036 Y320.53
N3070 G1 X174.3 Y320.021
N3075 G1 X175.531 Y319.526
N3080 G1 X176.732 Y319.045
N3085 G1 X177.906 Y318.578
N3090 G1 X179.055 Y318.124
N3095 G1 X180.181 Y317.684
N3100 G1 X181.286 Y317.257
N3105 G1 X182.371 Y316.844
N3110 G1 X183.438 Y316.444
N3115 G1 X184.489 Y316.057
N3120 G1 X185.524 Y315.684
N3125 G1 X186.341 Y315.395
N3130 G1 X187.014 Y315.161
N3135 G1 X187.685 Y314.932
N3140 G1 X188.352 Y314.708
N3145 G1 X189.017 Y314.49
N3150 G1 X189.679 Y314.276
N3155 G1 X190.338 Y314.068
N3160 G1 X190.994 Y313.866
N3165 G1 X191.647 Y313.669
N3170 G1 X192.298 Y313.479
N3175 G1 X192.946 Y313.294
N3180 G1 X193.591 Y313.115
N3185 G1 X194.234 Y312.942
N3190 G1 X194.875 Y312.775
N3195 G1 X195.513 Y312.614
N3200 G1 X196.149 Y312.46
N3205 G1 X196.783 Y312.312
N3210 G1 X197.414 Y312.171
N3215 G1 X198.044 Y312.036
N3220 G1 X198.671 Y311.908
N3225 G1 X199.296 Y311.786
N3230 G1 X199.919 Y311.672
N3235 G1 X200.541 Y311.564
N3240 G1 X201.16 Y311.463
N3245 G1 X201.778 Y311.369
N3250 G1 X202.394 Y311.282
N3255 G1 X203.008 Y311.203
N3260 G1 X203.621 Y311.131
N3265 G1 X204.232 Y311.065
N3270 G1 X204.842 Y311.008
N3275 G1 X205.45 Y310.958
N3280 G1 X206.057 Y310.915
N3285 G1 X206.662 Y310.88
N3290 G1 X207.258 Y310.852
N3295 G1 X207.857 Y310.833
N3300 G1 X208.451 Y310.821
N3305 G1 X209.043 Y310.816
N3310 G1 X209.64 Y310.819
N3315 G1 X210.243 Y310.83
N3320 G1 X210.855 Y310.849
N3325 G1 X211.475 Y310.875
N3330 G1 X212.102 Y310.91
N3335 G1 X212.809 Y310.958
N3340 G1 X213.523 Y311.016
N3345 G1 X214.243 Y311.083
N3350 G1 X214.972 Y311.161
N3355 G1 X215.708 Y311.249
N3360 G1 X216.452 Y311.347
N3365 G1 X217.204 Y311.455
N3370 G1 X217.964 Y311.574
N3375 G1 X218.733 Y311.703
N3380 G1 X219.51 Y311.842
N3385 G1 X220.297 Y311.991
N3390 G1 X221.093 Y312.152
N3395 G1 X221.898 Y312.323
N3400 G1 X222.714 Y312.504
N3405 G1 X223.54 Y312.697
N3410 G1 X224.376 Y312.901
N3415 G1 X225.223 Y313.116
N3420 G1 X226.082 Y313.342
N3425 G1 X226.953 Y313.58
N3430 G1 X227.841 Y313.83
N3435 G1 X228.124 Y313.912
N3440 G1 X229.033 Y314.179
N3445 G1 X229.946 Y314.457
N3450 G1 X230.869 Y314.745
N3455 G1 X231.801 Y315.044
N3460 G1 X232.744 Y315.356
N3465 G1 X233.699 Y315.68
N3470 G1 X234.666 Y316.016
N3475 G1 X235.646 Y316.365
N3480 G1 X236.641 Y316.728
N3485 G1 X237.651 Y317.106
N3490 G1 X238.679 Y317.498
N3495 G1 X239.726 Y317.906
N3500 G1 X240.793 Y318.331
N3505 G1 X241.883 Y318.773
N3510 G1 X242.998 Y319.235
N3515 G1 X244.143 Y319.717
N3520 G1 X245.319 Y320.222
N3525 G1 X246.533 Y320.751
N3530 G1 X247.79 Y321.308
N3535 G1 X249.095 Y321.896
N3540 G1 X250.457 Y322.518
N3545 G1 X251.888 Y323.181
N3550 G1 X253.404 Y323.892
N3555 G1 X255.205 Y324.747
N3560 G1 X256.94 Y325.58
N3565 G1 X258.617 Y326.392
N3570 G1 X260.244 Y327.185
N3575 G1 X261.828 Y327.959
N3580 G1 X263.372 Y328.716
N3585 G1 X264.881 Y329.456
N3590 G1 X264.883 Y329.457
N3595 G1 X266.359 Y330.18
N3600 G1 X266.362 Y330.181
N3605 G1 X267.808 Y330.887
N3610 G1 X267.813 Y330.889
N3615 G1 X269.232 Y331.579
N3620 G1 X269.238 Y331.582
N3625 G1 X270.633 Y332.256
N3630 G1 X270.64 Y332.26
N3635 G1 X272.012 Y332.918
N3640 G1 X272.021 Y332.923
N3645 G1 X273.372 Y333.566
N3650 G1 X273.382 Y333.57
N3655 G1 X274.714 Y334.198
N3660 G1 X274.725 Y334.203
N3665 G1 X276.039 Y334.816
N3670 G1 X276.051 Y334.822
N3675 G1 X277.348 Y335.42
N3680 G1 X277.362 Y335.426
N3685 G1 X278.644 Y336.009
N3690 G1 X278.659 Y336.016
N3695 G1 X279.927 Y336.584
N3700 G1 X279.939 Y336.59
N3705 G1 X280.626 Y336.894
N3710 G1 X280.638 Y336.899
N3715 G1 X281.692 Y337.361
N3720 G1 X281.706 Y337.367
N3725 G1 X282.761 Y337.823
N3730 G1 X282.777 Y337.829
N3735 G1 X283.833 Y338.278
N3740 G1 X283.85 Y338.285
N3745 G1 X284.907 Y338.727
N3750 G1 X284.925 Y338.735
N3755 G1 X285.984 Y339.17
N3760 G1 X286.003 Y339.177
N3765 G1 X287.064 Y339.605
N3770 G1 X287.083 Y339.612
N3775 G1 X288.146 Y340.032
N3780 G1 X288.166 Y340.04
N3785 G1 X289.23 Y340.452
N3790 G1 X289.25 Y340.459
N3795 G1 X290.316 Y340.863
N3800 G1 X290.336 Y340.871
N3805 G1 X291.403 Y341.266
N3810 G1 X291.423 Y341.274
N3815 G1 X292.491 Y341.661
N3820 G1 X292.511 Y341.668
N3825 G1 X293.581 Y342.048
N3830 G1 X293.602 Y342.055
N3835 G1 X294.673 Y342.427
N3840 G1 X294.693 Y342.434
N3845 G1 X295.767 Y342.797
N3850 G1 X295.787 Y342.804
N3855 G1 X296.862 Y343.16
N3860 G1 X296.882 Y343.166
N3865 G1 X297.959 Y343.514
N3870 G1 X297.979 Y343.521
N3875 G1 X299.057 Y343.86
N3880 G1 X299.078 Y343.867
N3885 G1 X300.158 Y344.198
N3890 G1 X300.178 Y344.205
N3895 G1 X301.26 Y344.529
N3900 G1 X301.281 Y344.535
N3905 G1 X302.364 Y344.851
N3910 G1 X302.385 Y344.857
N3915 G1 X303.47 Y345.165
N3920 G1 X303.491 Y345.171
N3925 G1 X304.578 Y345.471
N3930 G1 X304.599 Y345.477
N3935 G1 X305.689 Y345.769
N3940 G1 X305.709 Y345.775
N3945 G1 X306.801 Y346.059
N3950 G1 X306.822 Y346.065
N3955 G1 X307.915 Y346.341
N3960 G1 X307.936 Y346.347
N3965 G1 X309.031 Y346.615
N3970 G1 X309.052 Y346.621
N3975 G1 X310.15 Y346.882
N3980 G1 X310.171 Y346.887
N3985 G1 X311.271 Y347.14
N3990 G1 X311.292 Y347.145
N3995 G1 X312.394 Y347.39
N4000 G1 X312.415 Y347.395
N4005 G1 X313.519 Y347.632
N4010 G1 X313.54 Y347.637
N4015 G1 X314.646 Y347.867
N4020 G1 X314.668 Y347.871
N4025 G1 X315.776 Y348.093
N4030 G1 X315.797 Y348.097
N4035 G1 X316.909 Y348.311
N4040 G1 X316.93 Y348.315
N4045 G1 X318.043 Y348.522
N4050 G1 X318.065 Y348.526
N4055 G1 X319.181 Y348.724
N4060 G1 X319.202 Y348.728
N4065 G1 X320.32 Y348.919
N4070 G1 X320.341 Y348.922
N4075 G1 X321.461 Y349.105
N4080 G1 X321.482 Y349.109
N4085 G1 X322.604 Y349.284
N4090 G1 X322.625 Y349.287
N4095 G1 X323.748 Y349.454
N4100 G1 X323.769 Y349.457
N4105 G1 X324.892 Y349.616
N4110 G1 X324.913 Y349.619
N4115 G1 X326.038 Y349.77
N4120 G1 X326.059 Y349.772
N4125 G1 X327.183 Y349.915
N4130 G1 X327.204 Y349.918
N4135 G1 X328.329 Y350.053
N4140 G1 X328.349 Y350.055
N4145 G1 X329.473 Y350.182
N4150 G1 X329.494 Y350.185
N4155 G1 X330.615 Y350.304
N4160 G1 X330.636 Y350.306
N4165 G1 X331.755 Y350.416
N4170 G1 X331.776 Y350.418
N4175 G1 X332.891 Y350.521
N4180 G1 X332.904 Y350.522
N4185 G1 X333.059 Y350.536
N4190 G1 X333.07
N4195 G1 X333.956 Y350.611
N4200 G1 X333.973 Y350.612
N4205 G1 X334.857 Y350.682
N4210 G1 X334.875 Y350.683
N4215 G1 X335.755 Y350.746
N4220 G1 X335.773 Y350.748
N4225 G1 X336.651 Y350.806
N4230 G1 X336.67 Y350.807
N4235 G1 X337.545 Y350.859
N4240 G1 X337.564 Y350.86
N4245 G1 X338.436 Y350.907
N4250 G1 X338.455 Y350.908
N4255 G1 X339.325 Y350.949
N4260 G1 X339.344 Y350.95
N4265 G1 X340.211 Y350.986
N4270 G1 X340.23
N4275 G1 X341.094 Y351.016
N4280 G1 X341.114 Y351.017
N4285 G1 X341.976 Y351.04
N4290 G1 X341.996 Y351.041
N4295 G1 X342.854 Y351.059
N4300 G1 X342.875
N4305 G1 X343.731 Y351.071
N4310 G1 X343.751
N4315 G1 X344.604 Y351.077
N4320 G1 X344.626
N4325 G1 X345.476
N4330 G1 X345.497
N4335 G1 X346.345 Y351.071
N4340 G1 X346.366
N4345 G1 X347.211 Y351.059
N4350 G1 X347.233 Y351.058
N4355 G1 X348.075 Y351.04
N4360 G1 X348.097
N4365 G1 X348.936 Y351.015
N4370 G1 X348.959 Y351.014
N4375 G1 X349.795 Y350.983
N4380 G1 X349.818
N4385 G1 X350.651 Y350.945
N4390 G1 X350.674 Y350.944
N4395 G1 X351.505 Y350.901
N4400 G1 X351.528 Y350.899
N4405 G1 X352.356 Y350.849
N4410 G1 X352.38 Y350.848
N4415 G1 X353.205 Y350.791
N4420 G1 X353.229 Y350.79
N4425 G1 X354.051 Y350.727
N4430 G1 X354.076 Y350.725
N4435 G1 X354.894 Y350.655
N4440 G1 X354.92 Y350.653
N4445 G1 X355.736 Y350.577
N4450 G1 X355.761 Y350.574
N4455 G1 X356.574 Y350.491
N4460 G1 X356.6 Y350.489
N4465 G1 X357.41 Y350.399
N4470 G1 X357.436 Y350.396
N4475 G1 X358.243 Y350.299
N4480 G1 X358.27 Y350.296
N4485 G1 X359.074 Y350.192
N4490 G1 X359.101 Y350.189
N4495 G1 X359.902 Y350.078
N4500 G1 X359.93 Y350.075
N4505 G1 X360.728 Y349.957
N4510 G1 X360.755 Y349.953
N4515 G1 X361.551 Y349.828
N4520 G1 X361.579 Y349.824
N4525 G1 X362.371 Y349.692
N4530 G1 X362.4 Y349.687
N4535 G1 X363.189 Y349.548
N4540 G1 X363.218 Y349.543
N4545 G1 X364.004 Y349.397
N4550 G1 X364.033 Y349.391
N4555 G1 X364.817 Y349.237
N4560 G1 X364.846 Y349.231
N4565 G1 X365.626 Y349.07
N4570 G1 X365.657 Y349.064
N4575 G1 X366.501 Y348.88
N4580 G1 X366.53 Y348.873
N4585 G1 X367.226 Y348.715
N4590 G1 X367.253 Y348.708
N4595 G1 X367.945 Y348.544
N4600 G1 X367.972 Y348.537
N4605 G1 X368.66 Y348.366
N4610 G1 X368.688 Y348.359
N4615 G1 X369.372 Y348.183
N4620 G1 X369.4 Y348.176
N4625 G1 X370.081 Y347.993
N4630 G1 X370.109 Y347.985
N4635 G1 X370.786 Y347.797
N4640 G1 X370.814 Y347.789
N4645 G1 X371.487 Y347.594
N4650 G1 X371.516 Y347.585
N4655 G1 X372.185 Y347.385
N4660 G1 X372.214 Y347.376
N4665 G1 X372.88 Y347.169
N4670 G1 X372.908 Y347.16
N4675 G1 X373.571 Y346.947
N4680 G1 X373.599 Y346.937
N4685 G1 X374.258 Y346.718
N4690 G1 X374.287 Y346.708
N4695 G1 X374.941 Y346.483
N4700 G1 X374.971 Y346.472
N4705 G1 X375.621 Y346.241
N4710 G1 X375.651 Y346.23
N4715 G1 X376.298 Y345.992
N4720 G1 X376.327 Y345.981
N4725 G1 X376.97 Y345.737
N4730 G1 X377 Y345.725
N4735 G1 X377.639 Y345.475
N4740 G1 X377.669 Y345.463
N4745 G1 X378.305 Y345.206
N4750 G1 X378.334 Y345.194
N4755 G1 X378.966 Y344.93
N4760 G1 X378.996 Y344.918
N4765 G1 X379.624 Y344.648
N4770 G1 X379.654 Y344.635
N4775 G1 X380.278 Y344.359
N4780 G1 X380.308 Y344.345
N4785 G1 X380.928 Y344.063
N4790 G1 X380.958 Y344.049
N4795 G1 X381.574 Y343.759
N4800 G1 X381.604 Y343.745
N4805 G1 X382.216 Y343.449
N4810 G1 X382.246 Y343.435
N4815 G1 X382.855 Y343.132
N4820 G1 X382.885 Y343.117
N4825 G1 X383.489 Y342.808
N4830 G1 X383.519 Y342.793
N4835 G1 X384.119 Y342.477
N4840 G1 X384.15 Y342.461
N4845 G1 X384.746 Y342.139
N4850 G1 X384.776 Y342.122
N4855 G1 X385.368 Y341.794
N4860 G1 X385.399 Y341.777
N4865 G1 X385.987 Y341.441
N4870 G1 X386.017 Y341.424
N4875 G1 X386.601 Y341.081
N4880 G1 X386.631 Y341.063
N4885 G1 X387.211 Y340.714
N4890 G1 X387.241 Y340.696
N4895 G1 X387.817 Y340.34
N4900 G1 X387.847 Y340.321
N4905 G1 X388.419 Y339.959
N4910 G1 X388.449 Y339.939
N4915 G1 X389.017 Y339.57
N4920 G1 X389.047 Y339.55
N4925 G1 X389.61 Y339.173
N4930 G1 X389.631 Y339.16
N4935 G1 X389.85 Y339.011
N4940 G1 X389.871 Y338.996
N4945 G1 X390.434 Y338.606
N4950 G1 X390.464 Y338.585
N4955 G1 X391.021 Y338.189
N4960 G1 X391.051 Y338.168
N4965 G1 X391.603 Y337.766
N4970 G1 X391.632 Y337.744
N4975 G1 X392.178 Y337.336
N4980 G1 X392.207 Y337.314
N4985 G1 X392.748 Y336.899
N4990 G1 X392.777 Y336.877
N4995 G1 X393.312 Y336.456
N5000 G1 X393.34 Y336.433
N5005 G1 X393.87 Y336.006
N5010 G1 X393.898 Y335.983
N5015 G1 X394.423 Y335.55
N5020 G1 X394.45 Y335.527
N5025 G1 X394.969 Y335.087
N5030 G1 X394.997 Y335.064
N5035 G1 X395.511 Y334.618
N5040 G1 X395.538 Y334.594
N5045 G1 X396.046 Y334.142
N5050 G1 X396.073 Y334.118
N5055 G1 X396.576 Y333.659
N5060 G1 X396.603 Y333.635
N5065 G1 X397.101 Y333.17
N5070 G1 X397.127 Y333.145
N5075 G1 X397.62 Y332.674
N5080 G1 X397.646 Y332.649
N5085 G1 X398.133 Y332.172
N5090 G1 X398.159 Y332.147
N5095 G1 X398.641 Y331.663
N5100 G1 X398.667 Y331.637
N5105 G1 X399.144 Y331.147
N5110 G1 X399.169 Y331.121
N5115 G1 X399.641 Y330.624
N5120 G1 X399.666 Y330.598
N5125 G1 X400.133 Y330.095
N5130 G1 X400.157 Y330.068
N5135 G1 X400.62 Y329.558
N5140 G1 X400.643 Y329.532
N5145 G1 X401.101 Y329.015
N5150 G1 X401.124 Y328.989
N5155 G1 X401.577 Y328.465
N5160 G1 X401.6 Y328.438
N5165 G1 X402.047 Y327.908
N5170 G1 X402.07 Y327.881
N5175 G1 X402.512 Y327.344
N5180 G1 X402.534 Y327.317
N5185 G1 X402.972 Y326.773
N5190 G1 X402.989 Y326.752
N5195 G1 X403.129 Y326.575
N5200 G1 X403.654 Y326.041
N5205 G1 X403.672 Y326.022
N5210 G1 X404.303 Y325.369
N5215 G1 X404.321 Y325.35
N5220 G1 X404.945 Y324.692
N5225 G1 X404.964 Y324.673
N5230 G1 X405.581 Y324.01
N5235 G1 X405.592 Y323.998
N5240 G1 X405.745 Y323.833
N5245 G1 X405.755 Y323.821
N5250 G1 X406.324 Y323.198
N5255 G1 X406.341 Y323.179
N5260 G1 X406.902 Y322.552
N5265 G1 X406.919 Y322.533
N5270 G1 X407.474 Y321.903
N5275 G1 X407.491 Y321.884
N5280 G1 X408.04 Y321.25
N5285 G1 X408.057 Y321.231
N5290 G1 X408.599 Y320.594
N5295 G1 X408.615 Y320.574
N5300 G1 X409.151 Y319.934
N5305 G1 X409.167 Y319.914
N5310 G1 X409.696 Y319.271
N5315 G1 X409.713 Y319.25
N5320 G1 X410.234 Y318.603
N5325 G1 X410.251 Y318.583
N5330 G1 X410.766 Y317.932
N5335 G1 X410.783 Y317.911
N5340 G1 X411.291 Y317.258
N5345 G1 X411.308 Y317.236
N5350 G1 X411.81 Y316.579
N5355 G1 X411.826 Y316.558
N5360 G1 X412.321 Y315.897
N5365 G1 X412.337 Y315.875
N5370 G1 X412.826 Y315.211
N5375 G1 X412.842 Y315.189
N5380 G1 X413.323 Y314.522
N5385 G1 X413.339 Y314.5
N5390 G1 X413.814 Y313.829
N5395 G1 X413.83 Y313.806
N5400 G1 X414.298 Y313.132
N5405 G1 X414.314 Y313.109
N5410 G1 X414.775 Y312.431
N5415 G1 X414.79 Y312.408
N5420 G1 X415.245 Y311.726
N5425 G1 X415.26 Y311.703
N5430 G1 X415.708 Y311.018
N5435 G1 X415.723 Y310.994
N5440 G1 X416.164 Y310.306
N5445 G1 X416.179 Y310.282
N5450 G1 X416.613 Y309.59
N5455 G1 X416.628 Y309.566
N5460 G1 X417.055 Y308.871
N5465 G1 X417.069 Y308.846
N5470 G1 X417.489 Y308.147
N5475 G1 X417.504 Y308.123
N5480 G1 X417.917 Y307.42
N5485 G1 X417.931 Y307.395
N5490 G1 X418.337 Y306.689
N5495 G1 X418.352 Y306.664
N5500 G1 X418.751 Y305.954
N5505 G1 X418.765 Y305.929
N5510 G1 X419.157 Y305.216
N5515 G1 X419.171 Y305.19
N5520 G1 X419.556 Y304.473
N5525 G1 X419.57 Y304.447
N5530 G1 X419.948 Y303.727
N5535 G1 X419.961 Y303.701
N5540 G1 X420.332 Y302.977
N5545 G1 X420.345 Y302.951
N5550 G1 X420.709 Y302.223
N5555 G1 X420.722 Y302.197
N5560 G1 X421.079 Y301.465
N5565 G1 X421.092 Y301.439
N5570 G1 X421.441 Y300.703
N5575 G1 X421.454 Y300.677
N5580 G1 X421.797 Y299.938
N5585 G1 X421.809 Y299.911
N5590 G1 X422.144 Y299.169
N5595 G1 X422.156 Y299.142
N5600 G1 X422.485 Y298.395
N5605 G1 X422.496 Y298.368
N5610 G1 X422.818 Y297.618
N5615 G1 X422.829 Y297.591
N5620 G1 X423.143 Y296.837
N5625 G1 X423.15 Y296.82
N5630 G1 X423.231 Y296.623
N5635 G1 X423.238 Y296.605
N5640 G1 X423.547 Y295.837
N5645 G1 X423.558 Y295.809
N5650 G1 X423.859 Y295.038
N5655 G1 X423.87 Y295.009
N5660 G1 X424.162 Y294.236
N5665 G1 X424.173 Y294.208
N5670 G1 X424.458 Y293.431
N5675 G1 X424.468 Y293.403
N5680 G1 X424.745 Y292.624
N5685 G1 X424.755 Y292.596
N5690 G1 X425.025 Y291.814
N5695 G1 X425.034 Y291.785
N5700 G1 X425.296 Y291.001
N5705 G1 X425.305 Y290.972
N5710 G1 X425.559 Y290.185
N5715 G1 X425.568 Y290.156
N5720 G1 X425.814 Y289.366
N5725 G1 X425.823 Y289.338
N5730 G1 X426.062 Y288.544
N5735 G1 X426.07 Y288.516
N5740 G1 X426.301 Y287.72
N5745 G1 X426.309 Y287.691
N5750 G1 X426.532 Y286.892
N5755 G1 X426.54 Y286.863
N5760 G1 X426.755 Y286.061
N5765 G1 X426.762 Y286.032
N5770 G1 X426.97 Y285.227
N5775 G1 X426.977 Y285.199
N5780 G1 X427.177 Y284.39
N5785 G1 X427.184 Y284.362
N5790 G1 X427.376 Y283.55
N5795 G1 X427.383 Y283.521
N5800 G1 X427.568 Y282.707
N5805 G1 X427.574 Y282.678
N5810 G1 X427.751 Y281.86
N5815 G1 X427.757 Y281.832
N5820 G1 X427.926 Y281.01
N5825 G1 X427.932 Y280.982
N5830 G1 X428.094 Y280.157
N5835 G1 X428.099 Y280.129
N5840 G1 X428.253 Y279.301
N5845 G1 X428.258 Y279.273
N5850 G1 X428.405 Y278.441
N5855 G1 X428.41 Y278.413
N5860 G1 X428.549 Y277.578
N5865 G1 X428.553 Y277.55
N5870 G1 X428.684 Y276.712
N5875 G1 X428.688 Y276.685
N5880 G1 X428.799 Y275.935
N5885 G1 X428.803 Y275.908
N5890 G1 X428.922 Y275.043
N5895 G1 X428.926 Y275.014
N5900 G1 X429.037 Y274.146
N5905 G1 X429.041 Y274.117
N5910 G1 X429.144 Y273.246
N5915 G1 X429.147 Y273.217
N5920 G1 X429.242 Y272.343
N5925 G1 X429.245 Y272.315
N5930 G1 X429.332 Y271.438
N5935 G1 X429.334 Y271.409
N5940 G1 X429.413 Y270.529
N5945 G1 X429.415 Y270.501
N5950 G1 X429.486 Y269.617
N5955 G1 X429.488 Y269.589
N5960 G1 X429.551 Y268.703
N5965 G1 X429.553 Y268.675
N5970 G1 X429.607 Y267.785
N5975 G1 X429.609 Y267.758
N5980 G1 X429.655 Y266.865
N5985 G1 X429.656 Y266.837
N5990 G1 X429.695 Y265.941
N5995 G1 X429.696 Y265.913
N6000 G1 X429.726 Y265.014
N6005 G1 X429.727 Y264.987
N6010 G1 X429.749 Y264.084
N6015 G1 Y264.057
N6020 G1 X429.763 Y263.15
N6025 G1 X429.764 Y263.123
N6030 G1 X429.77 Y262.214
N6035 G1 Y262.187
N6040 G1 X429.768 Y261.274
N6045 G1 Y261.257
N6050 G1 X429.766 Y261.069
N6055 G1 Y181.624
N6060 G1 Y179.044
N6065 G1 Y176.465
N6070 G1 Y173.887
N6075 G1 Y171.311
N6080 G1 Y168.736
N6085 G1 Y168.266
N6090 G2 X429.746 Y167.923 I-3 J0
N6095 G1 X429.6 Y166.65
N6100 G1 X429.599 Y166.642
N6105 G1 X429.45 Y165.377
N6110 G1 X429.449 Y165.369
N6115 G1 X429.298 Y164.112
N6120 G1 X429.297 Y164.103
N6125 G1 X429.143 Y162.854
N6130 G1 X429.142 Y162.845
N6135 G1 X428.985 Y161.604
N6140 G1 X428.984 Y161.595
N6145 G1 X428.825 Y160.363
N6150 G1 X428.824 Y160.353
N6155 G1 X428.661 Y159.129
N6160 G1 X428.66 Y159.119
N6165 G1 X428.495 Y157.903
N6170 G1 X428.494 Y157.893
N6175 G1 X428.326 Y156.685
N6180 G1 X428.325 Y156.675
N6185 G1 X428.154 Y155.475
N6190 G1 X428.153 Y155.465
N6195 G1 X427.979 Y154.273
N6200 G1 X427.978 Y154.262
N6205 G1 X427.801 Y153.079
N6210 G1 X427.799 Y153.068
N6215 G1 X427.62 Y151.893
N6220 G1 X427.618 Y151.882
N6225 G1 X427.435 Y150.715
N6230 G1 X427.433 Y150.704
N6235 G1 X427.247 Y149.545
N6240 G1 X427.245 Y149.534
N6245 G1 X427.056 Y148.383
N6250 G1 X427.054 Y148.372
N6255 G1 X426.862 Y147.23
N6260 G1 X426.86 Y147.218
N6265 G1 X426.664 Y146.084
N6270 G1 X426.661 Y146.072
N6275 G1 X426.462 Y144.947
N6280 G1 X426.46 Y144.934
N6285 G1 X426.257 Y143.818
N6290 G1 X426.254 Y143.805
N6295 G1 X426.048 Y142.697
N6300 G1 X426.045 Y142.683
N6305 G1 X425.835 Y141.585
N6310 G1 X425.832 Y141.57
N6315 G1 X425.618 Y140.48
N6320 G1 X425.615 Y140.466
N6325 G1 X425.397 Y139.384
N6330 G1 X425.394 Y139.369
N6335 G1 X425.172 Y138.296
N6340 G1 X425.169 Y138.281
N6345 G1 X424.942 Y137.217
N6350 G1 X424.939 Y137.201
N6355 G1 X424.709 Y136.146
N6360 G1 X424.705 Y136.129
N6365 G1 X424.47 Y135.083
N6370 G1 X424.466 Y135.066
N6375 G1 X424.227 Y134.028
N6380 G1 X424.223 Y134.011
N6385 G1 X423.98 Y132.982
N6390 G1 X423.975 Y132.964
N6395 G1 X423.727 Y131.945
N6400 G1 X423.722 Y131.926
N6405 G1 X423.469 Y130.916
N6410 G1 X423.464 Y130.896
N6415 G1 X423.206 Y129.895
N6420 G1 X423.201 Y129.874
N6425 G1 X422.938 Y128.883
N6430 G1 X422.932 Y128.861
N6435 G1 X422.663 Y127.879
N6440 G1 X422.657 Y127.857
N6445 G1 X422.383 Y126.884
N6450 G1 X422.378 Y126.867
N6455 G1 X422.246 Y126.408
N6460 G1 X422.242 Y126.395
N6465 G1 X422.048 Y125.729
N6470 G1 X422.043 Y125.713
N6475 G1 X421.845 Y125.051
N6480 G1 X421.84 Y125.034
N6485 G1 X421.639 Y124.378
N6490 G1 X421.634 Y124.361
N6495 G1 X421.43 Y123.709
N6500 G1 X421.424 Y123.691
N6505 G1 X421.218 Y123.044
N6510 G1 X421.212 Y123.025
N6515 G1 X421.002 Y122.383
N6520 G1 X420.996 Y122.364
N6525 G1 X420.783 Y121.726
N6530 G1 X420.777 Y121.707
N6535 G1 X420.56 Y121.073
N6540 G1 X420.554 Y121.053
N6545 G1 X420.334 Y120.425
N6550 G1 X420.327 Y120.404
N6555 G1 X420.104 Y119.78
N6560 G1 X420.096 Y119.759
N6565 G1 X419.87 Y119.14
N6570 G1 X419.862 Y119.118
N6575 G1 X419.632 Y118.504
N6580 G1 X419.623 Y118.482
N6585 G1 X419.39 Y117.872
N6590 G1 X419.381 Y117.849
N6595 G1 X419.143 Y117.244
N6600 G1 X419.134 Y117.22
N6605 G1 X418.892 Y116.62
N6610 G1 X418.882 Y116.596
N6615 G1 X418.636 Y116
N6620 G1 X418.626 Y115.975
N6625 G1 X418.376 Y115.384
N6630 G1 X418.365 Y115.359
N6635 G1 X418.111 Y114.772
N6640 G1 X418.1 Y114.746
N6645 G1 X417.841 Y114.164
N6650 G1 X417.829 Y114.138
N6655 G1 X417.565 Y113.56
N6660 G1 X417.552 Y113.533
N6665 G1 X417.284 Y112.96
N6670 G1 X417.271 Y112.932
N6675 G1 X416.997 Y112.364
N6680 G1 X416.984 Y112.336
N6685 G1 X416.705 Y111.772
N6690 G1 X416.691 Y111.743
N6695 G1 X416.407 Y111.184
N6700 G1 X416.392 Y111.154
N6705 G1 X416.102 Y110.599
N6710 G1 X416.086 Y110.569
N6715 G1 X415.791 Y110.019
N6720 G1 X415.775 Y109.988
N6725 G1 X415.474 Y109.442
N6730 G1 X415.456 Y109.411
N6735 G1 X415.149 Y108.869
N6740 G1 X415.131 Y108.837
N6745 G1 X414.818 Y108.299
N6750 G1 X414.799 Y108.268
N6755 G1 X414.479 Y107.734
N6760 G1 X414.46 Y107.702
N6765 G1 X414.133 Y107.172
N6770 G1 X414.113 Y107.14
N6775 G1 X413.78 Y106.613
N6780 G1 X413.759 Y106.582
N6785 G1 X413.419 Y106.059
N6790 G1 X413.398 Y106.028
N6795 G1 X413.051 Y105.509
N6800 G1 X413.036 Y105.487
N6805 G1 X412.9 Y105.288
N6810 G1 X412.886 Y105.267
N6815 G1 X412.526 Y104.749
N6820 G1 X412.504 Y104.719
N6825 G1 X412.134 Y104.2
N6830 G1 X412.113 Y104.17
N6835 G1 X411.73 Y103.647
N6840 G1 X411.708 Y103.618
N6845 G1 X411.31 Y103.087
N6850 G1 X411.288 Y103.059
N6855 G1 X410.872 Y102.518
N6860 G1 X410.851 Y102.491
N6865 G1 X410.421 Y101.944
N6870 G1 X410.4 Y101.918
N6875 G1 X409.95 Y101.36
N6880 G1 X409.93 Y101.335
N6885 G1 X409.454 Y100.758
N6890 G1 X409.434 Y100.734
N6895 G1 X408.886 Y100.082
N6900 G1 X408.868 Y100.061
N6905 G1 X408.318 Y99.419
N6910 G1 X408.304 Y99.403
N6915 G1 X407.755 Y98.771
N6920 G1 X407.745 Y98.76
N6925 G1 X407.198 Y98.136
N6930 G1 X407.194 Y98.131
N6935 G1 X406.651 Y97.515
N6940 G1 X406.647 Y97.511
N6945 G1 X406.109 Y96.902
N6950 G1 X406.104 Y96.897
N6955 G1 X405.569 Y96.296
N6960 G1 X405.564 Y96.289
N6965 G1 X405.032 Y95.695
N6970 G1 X405.026 Y95.687
N6975 G1 X404.497 Y95.1
N6980 G1 X404.489 Y95.092
N6985 G1 X403.963 Y94.512
N6990 G1 X403.955 Y94.502
N6995 G1 X403.431 Y93.93
N7000 G1 X403.421 Y93.919
N7005 G1 X402.899 Y93.354
N7010 G1 X402.888 Y93.343
N7015 G1 X402.368 Y92.785
N7020 G1 X402.356 Y92.772
N7025 G1 X401.836 Y92.222
N7030 G1 X401.823 Y92.209
N7035 G1 X401.304 Y91.666
N7040 G1 X401.291 Y91.652
N7045 G1 X400.772 Y91.117
N7050 G1 X400.757 Y91.102
N7055 G1 X400.239 Y90.575
N7060 G1 X400.223 Y90.559
N7065 G1 X399.704 Y90.039
N7070 G1 X399.688 Y90.022
N7075 G1 X399.168 Y89.51
N7080 G1 X399.151 Y89.493
N7085 G1 X398.631 Y88.989
N7090 G1 X398.612 Y88.971
N7095 G1 X398.091 Y88.474
N7100 G1 X398.071 Y88.455
N7105 G1 X397.549 Y87.967
N7110 G1 X397.529 Y87.947
N7115 G1 X397.005 Y87.467
N7120 G1 X396.983 Y87.447
N7125 G1 X396.458 Y86.974
N7130 G1 X396.436 Y86.954
N7135 G1 X395.909 Y86.489
N7140 G1 X395.885 Y86.468
N7145 G1 X395.356 Y86.011
N7150 G1 X395.331 Y85.99
N7155 G1 X394.8 Y85.54
N7160 G1 X394.777 Y85.521
N7165 G1 X394.347 Y85.165
N7170 G1 X394.323 Y85.146
N7175 G1 X393.78 Y84.706
N7180 G1 X393.752 Y84.683
N7185 G1 X393.206 Y84.251
N7190 G1 X393.177 Y84.228
N7195 G1 X392.625 Y83.802
N7200 G1 X392.595 Y83.78
N7205 G1 X392.039 Y83.361
N7210 G1 X392.008 Y83.338
N7215 G1 X391.444 Y82.926
N7220 G1 X391.412 Y82.903
N7225 G1 X390.842 Y82.497
N7230 G1 X390.811 Y82.475
N7235 G1 X390.29 Y82.114
N7240 G1 X390.26 Y82.093
N7245 G1 X389.739 Y81.743
N7250 G1 X389.708 Y81.722
N7255 G1 X389.188 Y81.38
N7260 G1 X389.156 Y81.36
N7265 G1 X388.635 Y81.027
N7270 G1 X388.603 Y81.007
N7275 G1 X388.08 Y80.682
N7280 G1 X388.047 Y80.662
N7285 G1 X387.511 Y80.339
N7290 G1 X387.479 Y80.32
N7295 G1 X386.924 Y79.994
N7300 G1 X386.893 Y79.976
N7305 G1 X386.317 Y79.647
N7310 G1 X386.287 Y79.63
N7315 G1 X385.691 Y79.299
N7320 G1 X385.661 Y79.283
N7325 G1 X385.043 Y78.949
N7330 G1 X385.014 Y78.934
N7335 G1 X384.374 Y78.596
N7340 G1 X384.345 Y78.581
N7345 G1 X383.618 Y78.208
N7350 G1 X383.588 Y78.193
N7355 G1 X382.845 Y77.823
N7360 G1 X382.817 Y77.809
N7365 G1 X382.067 Y77.445
N7370 G1 X382.04 Y77.432
N7375 G1 X381.288 Y77.076
N7380 G1 X381.263 Y77.064
N7385 G1 X380.509 Y76.715
N7390 G1 X380.485 Y76.704
N7395 G1 X379.73 Y76.363
N7400 G1 X379.706 Y76.352
N7405 G1 X378.95 Y76.018
N7410 G1 X378.926 Y76.008
N7415 G1 X378.168 Y75.681
N7420 G1 X378.144 Y75.67
N7425 G1 X377.385 Y75.352
N7430 G1 X377.36 Y75.341
N7435 G1 X376.601 Y75.03
N7440 G1 X376.575 Y75.019
N7445 G1 X375.815 Y74.716
N7450 G1 X375.788 Y74.705
N7455 G1 X375.026 Y74.41
N7460 G1 X375 Y74.4
N7465 G1 X374.237 Y74.112
N7470 G1 X374.213 Y74.103
N7475 G1 X373.654 Y73.897
N7480 G1 X373.631 Y73.889
N7485 G1 X372.878 Y73.619
N7490 G1 X372.85 Y73.609
N7495 G1 X372.098 Y73.348
N7500 G1 X372.07 Y73.338
N7505 G1 X371.317 Y73.085
N7510 G1 X371.288 Y73.076
N7515 G1 X370.535 Y72.83
N7520 G1 X370.506 Y72.821
N7525 G1 X369.752 Y72.584
N7530 G1 X369.723 Y72.575
N7535 G1 X368.967 Y72.346
N7540 G1 X368.938 Y72.337
N7545 G1 X368.182 Y72.116
N7550 G1 X368.152 Y72.108
N7555 G1 X367.394 Y71.894
N7560 G1 X367.365 Y71.886
N7565 G1 X366.605 Y71.681
N7570 G1 X366.575 Y71.673
N7575 G1 X365.814 Y71.475
N7580 G1 X365.783 Y71.468
N7585 G1 X365.02 Y71.278
N7590 G1 X364.99 Y71.271
N7595 G1 X364.223 Y71.089
N7600 G1 X364.193 Y71.082
N7605 G1 X363.424 Y70.908
N7610 G1 X363.394 Y70.901
N7615 G1 X362.622 Y70.734
N7620 G1 X362.592 Y70.728
N7625 G1 X361.817 Y70.569
N7630 G1 X361.786 Y70.563
N7635 G1 X361.008 Y70.413
N7640 G1 X360.977 Y70.407
N7645 G1 X360.195 Y70.264
N7650 G1 X360.164 Y70.258
N7655 G1 X359.378 Y70.123
N7660 G1 X359.347 Y70.117
N7665 G1 X358.556 Y69.99
N7670 G1 X358.526 Y69.985
N7675 G1 X357.73 Y69.865
N7680 G1 X357.7 Y69.86
N7685 G1 X356.899 Y69.747
N7690 G1 X356.869 Y69.743
N7695 G1 X356.062 Y69.638
N7700 G1 X356.032 Y69.634
N7705 G1 X355.22 Y69.537
N7710 G1 X355.19 Y69.533
N7715 G1 X354.372 Y69.443
N7720 G1 X354.342 Y69.44
N7725 G1 X353.517 Y69.358
N7730 G1 X353.487 Y69.355
N7735 G1 X352.655 Y69.28
N7740 G1 X352.626 Y69.277
N7745 G1 X351.785 Y69.21
N7750 G1 X351.76 Y69.208
N7755 G1 X351.068 Y69.158
N7760 G1 X351.042 Y69.156
N7765 G1 X350.181 Y69.102
N7770 G1 X350.154 Y69.1
N7775 G1 X349.279 Y69.053
N7780 G1 X349.252 Y69.052
N7785 G1 X348.362 Y69.012
N7790 G1 X348.336 Y69.011
N7795 G1 X347.43 Y68.978
N7800 G1 X347.403 Y68.977
N7805 G1 X346.479 Y68.952
N7810 G1 X346.453
N7815 G1 X345.509 Y68.934
N7820 G1 X345.484
N7825 G1 X344.517 Y68.924
N7830 G1 X344.492
N7835 G1 X343.5 Y68.922
N7840 G1 X343.476
N7845 G1 X342.457 Y68.928
N7850 G1 X342.433 Y68.929
N7855 G1 X341.397 Y68.943
N7860 G1 X341.373 Y68.944
N7865 G1 X340.211 Y68.969
N7870 G1 X340.186 Y68.97
N7875 G1 X339.017 Y69.006
N7880 G1 X338.992 Y69.007
N7885 G1 X337.816 Y69.052
N7890 G1 X337.792 Y69.053
N7895 G1 X336.609 Y69.109
N7900 G1 X336.584 Y69.11
N7905 G1 X335.394 Y69.176
N7910 G1 X335.37 Y69.178
N7915 G1 X334.173 Y69.253
N7920 G1 X334.149 Y69.255
N7925 G1 X332.945 Y69.34
N7930 G1 X332.922 Y69.342
N7935 G1 X331.71 Y69.437
N7940 G1 X331.687 Y69.439
N7945 G1 X330.469 Y69.545
N7950 G1 X330.446 Y69.547
N7955 G1 X329.221 Y69.662
N7960 G1 X329.199 Y69.664
N7965 G1 X327.966 Y69.789
N7970 G1 X327.944 Y69.791
N7975 G1 X326.705 Y69.926
N7980 G1 X326.684 Y69.928
N7985 G1 X325.437 Y70.072
N7990 G1 X325.416 Y70.075
N7995 G1 X324.163 Y70.229
N8000 G1 X324.142 Y70.231
N8005 G1 X322.883 Y70.395
N8010 G1 X322.862 Y70.398
N8015 G1 X321.596 Y70.571
N8020 G1 X321.576 Y70.574
N8025 G1 X320.303 Y70.757
N8030 G1 X320.283 Y70.76
N8035 G1 X319.004 Y70.952
N8040 G1 X318.984 Y70.955
N8045 G1 X317.698 Y71.157
N8050 G1 X317.679 Y71.16
N8055 G1 X316.387 Y71.372
N8060 G1 X316.368 Y71.375
N8065 G1 X315.07 Y71.596
N8070 G1 X315.051 Y71.599
N8075 G1 X313.746 Y71.83
N8080 G1 X313.728 Y71.833
N8085 G1 X312.417 Y72.073
N8090 G1 X312.399 Y72.077
N8095 G1 X311.083 Y72.326
N8100 G1 X311.065 Y72.33
N8105 G1 X309.742 Y72.589
N8110 G1 X309.725 Y72.592
N8115 G1 X308.397 Y72.86
N8120 G1 X308.379 Y72.864
N8125 G1 X307.045 Y73.141
N8130 G1 X307.028 Y73.145
N8135 G1 X305.689 Y73.432
N8140 G1 X305.673 Y73.436
N8145 G1 X304.441 Y73.706
N8150 G1 X304.425 Y73.71
N8155 G1 X303.071 Y74.016
N8160 G1 X303.059 Y74.018
N8165 G1 X302.384 Y74.174
N8170 G1 X302.371 Y74.177
N8175 G1 X300.966 Y74.506
N8180 G1 X300.949 Y74.51
N8185 G1 X299.539 Y74.85
N8190 G1 X299.523 Y74.854
N8195 G1 X298.108 Y75.203
N8200 G1 X298.091 Y75.207
N8205 G1 X296.671 Y75.566
N8210 G1 X296.655 Y75.57
N8215 G1 X295.23 Y75.939
N8220 G1 X295.214 Y75.943
N8225 G1 X293.784 Y76.322
N8230 G1 X293.77 Y76.325
N8235 G1 X292.577 Y76.647
N8240 G1 X292.562 Y76.651
N8245 G1 X291.06 Y77.065
N8250 G1 X291.044 Y77.07
N8255 G1 X289.54 Y77.493
N8260 G1 X289.524 Y77.497
N8265 G1 X288.018 Y77.93
N8270 G1 X288.003 Y77.935
N8275 G1 X286.496 Y78.377
N8280 G1 X286.48 Y78.382
N8285 G1 X284.971 Y78.833
N8290 G1 X284.956 Y78.838
N8295 G1 X283.447 Y79.298
N8300 G1 X283.431 Y79.303
N8305 G1 X281.921 Y79.773
N8310 G1 X281.906 Y79.777
N8315 G1 X280.395 Y80.256
N8320 G1 X280.38 Y80.261
N8325 G1 X278.87 Y80.748
N8330 G1 X278.855 Y80.753
N8335 G1 X277.344 Y81.249
N8340 G1 X277.329 Y81.254
N8345 G1 X275.819 Y81.759
N8350 G1 X275.805 Y81.764
N8355 G1 X274.295 Y82.277
N8360 G1 X274.281 Y82.282
N8365 G1 X272.774 Y82.803
N8370 G1 X272.76 Y82.808
N8375 G1 X271.256 Y83.336
N8380 G1 X271.242 Y83.341
N8385 G1 X269.741 Y83.877
N8390 G1 X269.727 Y83.882
N8395 G1 X268.23 Y84.425
N8400 G1 X268.216 Y84.431
N8405 G1 X266.722 Y84.981
N8410 G1 X266.708 Y84.986
N8415 G1 X265.217 Y85.544
N8420 G1 X265.203 Y85.55
N8425 G1 X263.717 Y86.114
N8430 G1 X263.703 Y86.12
N8435 G1 X262.22 Y86.692
N8440 G1 X262.206 Y86.697
N8445 G1 X260.727 Y87.276
N8450 G1 X260.713 Y87.282
N8455 G1 X259.238 Y87.868
N8460 G1 X259.224 Y87.874
N8465 G1 X257.754 Y88.466
N8470 G1 X257.74 Y88.472
N8475 G1 X256.274 Y89.072
N8480 G1 X256.26 Y89.078
N8485 G1 X254.798 Y89.684
N8490 G1 X254.789 Y89.688
N8495 G1 X254.313 Y89.888
N8500 G1 X254.306 Y89.891
N8505 G1 X253.331 Y90.302
N8510 G1 X253.322 Y90.306
N8515 G1 X252.353 Y90.719
N8520 G1 X252.344 Y90.723
N8525 G1 X251.381 Y91.137
N8530 G1 X251.371 Y91.141
N8535 G1 X250.414 Y91.557
N8540 G1 X250.405 Y91.561
N8545 G1 X249.453 Y91.978
N8550 G1 X249.445 Y91.981
N8555 G1 X248.498 Y92.4
N8560 G1 X248.492 Y92.402
N8565 G1 X247.548 Y92.821
N8570 G1 X247.543 Y92.823
N8575 G1 X246.604 Y93.243
N8580 G1 X246.6 Y93.244
N8585 G1 X245.664 Y93.663
N8590 G1 X245.662 Y93.664
N8595 G1 X244.729 Y94.082
N8600 G1 X243.798 Y94.5
N8605 G1 X242.871 Y94.915
N8610 G1 X241.947 Y95.328
N8615 G1 X241.026 Y95.737
N8620 G1 X240.107 Y96.143
N8625 G1 X239.19 Y96.546
N8630 G1 X238.274 Y96.944
N8635 G1 X237.359 Y97.337
N8640 G1 X236.45 Y97.723
N8645 G1 X235.552 Y98.099
N8650 G1 X234.663 Y98.466
N8655 G1 X233.781 Y98.824
N8660 G1 X232.905 Y99.172
N8665 G1 X232.034 Y99.512
N8670 G1 X231.167 Y99.843
N8675 G1 X230.303 Y100.165
N8680 G1 X229.44 Y100.479
N8685 G1 X228.578 Y100.785
N8690 G1 X227.715 Y101.082
N8695 G1 X226.849 Y101.372
N8700 G1 X225.98 Y101.654
N8705 G1 X225.106 Y101.928
N8710 G1 X224.225 Y102.195
N8715 G1 X223.335 Y102.455
N8720 G1 X222.533 Y102.681
N8725 G1 X221.716 Y102.902
N8730 G1 X220.788 Y103.144
N8735 G1 X219.847 Y103.38
N8740 G1 X218.891 Y103.61
N8745 G1 X217.924 Y103.834
N8750 G1 X216.945 Y104.051
N8755 G1 X215.955 Y104.262
N8760 G1 X214.958 Y104.465
N8765 G1 X213.954 Y104.662
N8770 G1 X212.949 Y104.852
N8775 G1 X211.942 Y105.033
N8780 G1 X210.933 Y105.207
N8785 G1 X209.923 Y105.374
N8790 G1 X208.911 Y105.532
N8795 G1 X207.899 Y105.683
N8800 G1 X206.884 Y105.827
N8805 G1 X205.869 Y105.962
N8810 G1 X204.852 Y106.09
N8815 G1 X203.834 Y106.21
N8820 G1 X202.815 Y106.323
N8825 G1 X201.793 Y106.428
N8830 G1 X201.159 Y106.488
N8835 G1 X200.195 Y106.575
N8840 G1 X199.235 Y106.655
N8845 G1 X198.277 Y106.727
N8850 G1 X197.32 Y106.792
N8855 G1 X196.364 Y106.85
N8860 G1 X195.41 Y106.901
N8865 G1 X194.458 Y106.945
N8870 G1 X193.507 Y106.981
N8875 G1 X192.558 Y107.011
N8880 G1 X191.61 Y107.034
N8885 G1 X190.664 Y107.049
N8890 G1 X189.719 Y107.058
N8895 G1 X188.776 Y107.059
N8900 G1 X187.835 Y107.054
N8905 G1 X186.896 Y107.041
N8910 G1 X185.958 Y107.022
N8915 G1 X185.021 Y106.995
N8920 G1 X184.087 Y106.962
N8925 G1 X183.154 Y106.921
N8930 G1 X182.222 Y106.873
N8935 G1 X181.292 Y106.818
N8940 G1 X180.364 Y106.757
N8945 G1 X179.437 Y106.688
N8950 G1 X178.512 Y106.611
N8955 G1 X177.588 Y106.528
N8960 G1 X176.666 Y106.437
N8965 G1 X175.745 Y106.34
N8970 G1 X174.826 Y106.234
N8975 G1 X173.908 Y106.122
N8980 G1 X172.994 Y106.002
N8985 G1 X172.083 Y105.876
N8990 G1 X171.176 Y105.742
N8995 G1 X170.271 Y105.601
N9000 G1 X169.371 Y105.453
N9005 G1 X168.473 Y105.297
N9010 G1 X167.578 Y105.135
N9015 G1 X166.686 Y104.965
N9020 G1 X165.797 Y104.788
N9025 G1 X164.909 Y104.603
N9030 G1 X164.023 Y104.411
N9035 G1 X163.136 Y104.21
N9040 G1 X162.247 Y104
N9045 G1 X161.351 Y103.78
N9050 G1 X160.443 Y103.549
N9055 G1 X159.522 Y103.306
N9060 G1 X158.587 Y103.051
N9065 G1 X157.614 Y102.777
N9070 G1 X156.638 Y102.494
N9075 G1 X155.535 Y102.165
N9080 G1 X154.441 Y101.828
N9085 G1 X153.353 Y101.485
N9090 G1 X152.271 Y101.136
N9095 G1 X151.194 Y100.781
N9100 G1 X150.123 Y100.422
N9105 G1 X149.056 Y100.058
N9110 G1 X147.993 Y99.69
N9115 G1 X146.934 Y99.319
N9120 G1 X145.878 Y98.945
N9125 G1 X144.824 Y98.57
N9130 G1 X143.773 Y98.192
N9135 G1 X142.724 Y97.814
N9140 G1 X141.676 Y97.435
N9145 G1 X140.629 Y97.055
N9150 G1 X139.584 Y96.677
N9155 G1 X139.582 Y96.676
N9160 G1 X138.538 Y96.299
N9165 G1 X138.535 Y96.297
N9170 G1 X137.492 Y95.922
N9175 G1 X137.487 Y95.92
N9180 G1 X136.445 Y95.547
N9185 G1 X136.439 Y95.545
N9190 G1 X135.397 Y95.175
N9195 G1 X135.389 Y95.172
N9200 G1 X134.348 Y94.805
N9205 G1 X134.338 Y94.802
N9210 G1 X133.299 Y94.439
N9215 G1 X133.288 Y94.436
N9220 G1 X132.261 Y94.082
N9225 G1 X132.249 Y94.078
N9230 G1 X131.232 Y93.733
N9235 G1 X131.219 Y93.728
N9240 G1 X130.211 Y93.392
N9245 G1 X130.197 Y93.387
N9250 G1 X129.197 Y93.058
N9255 G1 X129.181 Y93.053
N9260 G1 X128.188 Y92.733
N9265 G1 X128.171 Y92.727
N9270 G1 X127.183 Y92.416
N9275 G1 X127.164 Y92.41
N9280 G1 X126.181 Y92.106
N9285 G1 X126.161 Y92.1
N9290 G1 X125.18 Y91.805
N9295 G1 X125.16 Y91.799
N9300 G1 X124.18 Y91.512
N9305 G1 X124.158 Y91.505
N9310 G1 X123.179 Y91.226
N9315 G1 X123.156 Y91.22
N9320 G1 X122.176 Y90.949
N9325 G1 X122.152 Y90.942
N9330 G1 X121.169 Y90.679
N9335 G1 X121.143 Y90.673
N9340 G1 X120.155 Y90.418
N9345 G1 X120.128 Y90.411
N9350 G1 X119.134 Y90.164
N9355 G1 X119.107 Y90.158
N9360 G1 X118.104 Y89.919
N9365 G1 X118.076 Y89.913
N9370 G1 X117.064 Y89.682
N9375 G1 X117.037 Y89.676
N9380 G1 X116.015 Y89.452
N9385 G1 X115.989 Y89.447
N9390 G1 X114.958 Y89.231
N9395 G1 X114.932 Y89.226
N9400 G1 X113.892 Y89.018
N9405 G1 X113.866 Y89.013
N9410 G1 X112.817 Y88.813
N9415 G1 X112.792 Y88.808
N9420 G1 X111.734 Y88.616
N9425 G1 X111.709 Y88.611
N9430 G1 X110.642 Y88.427
N9435 G1 X110.618 Y88.423
N9440 G1 X109.542 Y88.245
N9445 G1 X109.518 Y88.242
N9450 G1 X108.433 Y88.072
N9455 G1 X108.409 Y88.069
N9460 G1 X107.317 Y87.907
N9465 G1 X107.293 Y87.903
N9470 G1 X106.192 Y87.749
N9475 G1 X106.168 Y87.746
N9480 G1 X105.059 Y87.6
N9485 G1 X105.036 Y87.597
N9490 G1 X103.918 Y87.458
N9495 G1 X103.895 Y87.456
N9500 G1 X102.77 Y87.325
N9505 G1 X102.747 Y87.322
N9510 G1 X101.614 Y87.199
N9515 G1 X101.592 Y87.197
N9520 G1 X100.45 Y87.081
N9525 G1 X100.428 Y87.079
N9530 G1 X99.28 Y86.971
N9535 G1 X99.258 Y86.969
N9540 G1 X98.102 Y86.869
N9545 G1 X98.08 Y86.868
N9550 G1 X96.917 Y86.775
N9555 G1 X96.896 Y86.774
N9560 G1 X95.726 Y86.689
N9565 G1 X95.705 Y86.688
N9570 G1 X94.528 Y86.611
N9575 G1 X94.507 Y86.61
N9580 G1 X93.324 Y86.541
N9585 G1 X93.304 Y86.54
N9590 G1 X92.114 Y86.479
N9595 G1 X92.094 Y86.478
N9600 G1 X90.899 Y86.425
N9605 G1 X90.878 Y86.424
N9610 G1 X89.678 Y86.379
N9615 G1 X89.657 Y86.378
N9620 G1 X88.452 Y86.341
N9625 G1 X88.436
N9630 G1 X87.689 Y86.322
N9635 G1 X87.675 Y86.321
N9640 G1 X86.807 Y86.303
N9645 G1 X86.791
N9650 G1 X85.927 Y86.29
N9655 G1 X85.91 Y86.289
N9660 G1 X85.049 Y86.281
N9665 G1 X85.031
N9670 G1 X84.174 Y86.277
N9675 G1 X84.155
N9680 G1 X83.301 Y86.279
N9685 G1 X83.282
N9690 G1 X82.431 Y86.286
N9695 G1 X82.411
N9700 G1 X81.563 Y86.299
N9705 G1 X81.542 Y86.3
N9710 G1 X80.697 Y86.319
N9715 G1 X80.675
N9720 G1 X79.833 Y86.344
N9725 G1 X79.811 Y86.345
N9730 G1 X78.972 Y86.376
N9735 G1 X78.948 Y86.377
N9740 G1 X78.112 Y86.415
N9745 G1 X78.088 Y86.416
N9750 G1 X77.254 Y86.46
N9755 G1 X77.229 Y86.462
N9760 G1 X76.398 Y86.513
N9765 G1 X76.372 Y86.514
N9770 G1 X75.543 Y86.572
N9775 G1 X75.517 Y86.574
N9780 G1 X74.69 Y86.639
N9785 G1 X74.664 Y86.642
N9790 G1 X73.839 Y86.714
N9795 G1 X73.812 Y86.716
N9800 G1 X72.989 Y86.796
N9805 G1 X72.961 Y86.799
N9810 G1 X72.14 Y86.886
N9815 G1 X72.113 Y86.889
N9820 G1 X71.293 Y86.984
N9825 G1 X71.265 Y86.987
N9830 G1 X70.447 Y87.089
N9835 G1 X70.419 Y87.093
N9840 G1 X69.603 Y87.203
N9845 G1 X69.574 Y87.207
N9850 G1 X68.759 Y87.325
N9855 G1 X68.731 Y87.329
N9860 G1 X67.917 Y87.455
N9865 G1 X67.888 Y87.46
N9870 G1 X67.076 Y87.594
N9875 G1 X67.047 Y87.599
N9880 G1 X66.236 Y87.74
N9885 G1 X66.207 Y87.746
N9890 G1 X65.397 Y87.895
N9895 G1 X65.377 Y87.899
N9900 G1 X65.056 Y87.961
N9905 G1 X65.034 Y87.965
N9910 G1 X64.144 Y88.143
N9915 G1 X64.113 Y88.149
N9920 G1 X63.222 Y88.337
N9925 G1 X63.191 Y88.344
N9930 G1 X62.299 Y88.542
N9935 G1 X62.268 Y88.549
N9940 G1 X61.375 Y88.758
N9945 G1 X61.343 Y88.765
N9950 G1 X60.448 Y88.984
N9955 G1 X60.417 Y88.992
N9960 G1 X59.52 Y89.222
N9965 G1 X59.49 Y89.23
N9970 G1 X58.591 Y89.47
N9975 G1 X58.56 Y89.478
N9980 G1 X57.658 Y89.73
N9985 G1 X57.628 Y89.738
N9990 G1 X56.724 Y90
N9995 G1 X56.694 Y90.009
N10000 G1 X55.787 Y90.282
N10005 G1 X55.758 Y90.291
N10010 G1 X54.847 Y90.575
N10015 G1 X54.818 Y90.584
N10020 G1 X53.91 Y90.877
N10025 G1 X53.883 Y90.887
N10030 G1 X52.979 Y91.188
N10035 G1 X52.952 Y91.197
N10040 G1 X52.052 Y91.507
N10045 G1 X52.026 Y91.516
N10050 G1 X51.13 Y91.834
N10055 G1 X51.105 Y91.843
N10060 G1 X50.214 Y92.168
N10065 G1 X50.189 Y92.177
N10070 G1 X49.304 Y92.509
N10075 G1 X49.28 Y92.518
N10080 G1 X48.4 Y92.856
N10085 G1 X48.377 Y92.865
N10090 G1 X47.502 Y93.21
N10095 G1 X47.48 Y93.218
N10100 G1 X46.612 Y93.568
N10105 G1 X46.591 Y93.577
N10110 G1 X45.73 Y93.932
N10115 G1 X45.709 Y93.941
N10120 G1 X44.856 Y94.3
N10125 G1 X44.836 Y94.309
N10130 G1 X43.99 Y94.672
N10135 G1 X43.971 Y94.68
N10140 G1 X43.134 Y95.047
N10145 G1 X43.116 Y95.055
N10150 G1 X42.289 Y95.424
N10155 G1 X42.271 Y95.432
N10160 G1 X41.454 Y95.803
N10165 G1 X41.436 Y95.811
N10170 G1 X40.63 Y96.183
N10175 G1 X40.613 Y96.19
N10180 G1 X39.818 Y96.563
N10185 G1 X39.802 Y96.571
N10190 G1 X39.018 Y96.944
N10195 G1 X39.001 Y96.952
N10200 G1 X38.228 Y97.326
N10205 G1 X38.21 Y97.335
N10210 G1 X37.449 Y97.709
N10215 G1 X37.43 Y97.718
N10220 G1 X36.681 Y98.094
N10225 G1 X36.661 Y98.104
N10230 G1 X35.923 Y98.48
N10235 G1 X35.901 Y98.491
N10240 G1 X35.175 Y98.869
N10245 G1 X35.152 Y98.881
N10250 G1 X34.438 Y99.261
N10255 G1 X34.414 Y99.274
N10260 G1 X33.712 Y99.655
N10265 G1 X33.685 Y99.67
N10270 G1 X32.927 Y100.092
N10275 G1 X32.901 Y100.106
N10280 G1 X32.389 Y100.398
N10285 G1 X32.367 Y100.411
N10290 G1 X31.862 Y100.704
N10295 G1 X31.839 Y100.717
N10300 G1 X31.343 Y101.011
N10305 G1 X31.319 Y101.025
N10310 G1 X30.831 Y101.32
N10315 G1 X30.806 Y101.336
N10320 G1 X30.326 Y101.632
N10325 G1 X30.3 Y101.648
N10330 G1 X29.829 Y101.946
N10335 G1 X29.801 Y101.964
N10340 G1 X29.339 Y102.263
N10345 G1 X29.31 Y102.282
N10350 G1 X28.856 Y102.583
N10355 G1 X28.826 Y102.603
N10360 G1 X28.381 Y102.906
N10365 G1 X28.35 Y102.928
N10370 G1 X27.914 Y103.233
N10375 G1 X27.881 Y103.257
N10380 G1 X27.454 Y103.564
N10385 G1 X27.419 Y103.589
N10390 G1 X27.002 Y103.899
N10395 G1 X26.972 Y103.922
N10400 G1 X26.695 Y104.133
N10405 G1 X26.668 Y104.154
N10410 G1 X26.363 Y104.392
N10415 G1 X26.332 Y104.416
N10420 G1 X26.034 Y104.655
N10425 G1 X26.002 Y104.681
N10430 G1 X25.71 Y104.922
N10435 G1 X25.678 Y104.949
N10440 G1 X25.393 Y105.191
N10445 G1 X25.359 Y105.22
N10450 G1 X25.081 Y105.463
N10455 G1 X25.045 Y105.494
N10460 G1 X24.774 Y105.739
N10465 G1 X24.737 Y105.773
N10470 G1 X24.474 Y106.019
N10475 G1 X24.436 Y106.055
N10480 G1 X24.179 Y106.303
N10485 G1 X24.139 Y106.342
N10490 G1 X23.891 Y106.591
N10495 G1 X23.849 Y106.633
N10500 G1 X23.609 Y106.885
N10505 G1 X23.566 Y106.931
N10510 G1 X23.333 Y107.184
N10515 G1 X23.288 Y107.234
N10520 G1 X23.064 Y107.489
N10525 G1 X23.031 Y107.527
N10530 G1 X22.943 Y107.631
N10535 G1 X22.915 Y107.664
N10540 G1 X22.753 Y107.861
N10545 G1 X22.716 Y107.906
N10550 G1 X22.56 Y108.103
N10555 G1 X22.522 Y108.152
N10560 G1 X22.372 Y108.35
N10565 G1 X22.333 Y108.401
N10570 G1 X22.189 Y108.6
N10575 G1 X22.15 Y108.655
N10580 G1 X22.011 Y108.854
N10585 G1 X21.972 Y108.913
N10590 G1 X21.84 Y109.113
N10595 G1 X21.8 Y109.175
N10600 G1 X21.674 Y109.377
N10605 G1 X21.634 Y109.443
N10610 G1 X21.514 Y109.646
N10615 G1 X21.474 Y109.716
N10620 G1 X21.361 Y109.92
N10625 G1 X21.321 Y109.995
N10630 G1 X21.215 Y110.2
N10635 G1 X21.175 Y110.28
N10640 G1 X21.077 Y110.486
N10645 G1 X21.037 Y110.571
N10650 G1 X20.946 Y110.779
N10655 G1 X20.907 Y110.869
N10660 G1 X20.823 Y111.078
N10665 G1 X20.786 Y111.174
N10670 G1 X20.71 Y111.385
N10675 G1 X20.683 Y111.462
N10680 G1 X20.647 Y111.571
N10685 G1 X20.612 Y111.684
N10690 G1 X20.513 Y112.023
N10695 G1 X20.467 Y112.204
N10700 G1 X20.391 Y112.543
N10705 G1 X20.354 Y112.736
N10710 G1 X20.301 Y113.076
N10715 G1 X20.277 Y113.28
N10720 G1 X20.247 Y113.619
N10725 G1 X20.237 Y113.831
N10730 G1 X20.231 Y114.172
N10735 G1 X20.236 Y114.389
N10740 G1 X20.255 Y114.729
N10745 G1 X20.264 Y114.839
N10750 G1 X20.276 Y114.949
N10755 G1 X20.321 Y115.289
N10760 G1 X20.337 Y115.399
N10765 G1 X20.358 Y115.507
N10770 G1 X20.428 Y115.848
N10775 G1 X20.453 Y115.955
N10780 G1 X20.481 Y116.061
N10785 G1 X20.578 Y116.401
N10790 G1 X20.644 Y116.606
N10795 G1 X20.768 Y116.946
N10800 G1 X20.847 Y117.14
N10805 G1 X20.999 Y117.48
N10810 G1 X21.087 Y117.661
N10815 G1 X21.267 Y118
N10820 G1 X21.344 Y118.137
N10825 G1 X21.47 Y118.347
N10830 G1 X21.531 Y118.445
N10835 G1 X21.667 Y118.654
N10840 G1 X21.729 Y118.745
N10845 G1 X21.875 Y118.952
N10850 G1 X21.938 Y119.038
N10855 G1 X22.094 Y119.243
N10860 G1 X22.157 Y119.323
N10865 G1 X22.324 Y119.526
N10870 G1 X22.386 Y119.601
N10875 G1 X22.563 Y119.804
N10880 G1 X22.625 Y119.873
N10885 G1 X22.812 Y120.075
N10890 G1 X22.874 Y120.139
N10895 G1 X23.072 Y120.34
N10900 G1 X23.132 Y120.4
N10905 G1 X23.344 Y120.603
N10910 G1 X23.404 Y120.659
N10915 G1 X23.626 Y120.86
N10920 G1 X23.685 Y120.913
N10925 G1 X23.921 Y121.116
N10930 G1 X23.979 Y121.165
N10935 G1 X24.229 Y121.369
N10940 G1 X24.286 Y121.414
N10945 G1 X24.55 Y121.62
N10950 G1 X24.609 Y121.665
N10955 G1 X24.918 Y121.893
N10960 G1 X24.979 Y121.936
N10965 G1 X25.301 Y122.163
N10970 G1 X25.359 Y122.202
N10975 G1 X25.696 Y122.427
N10980 G1 X25.752 Y122.463
N10985 G1 X26.103 Y122.686
N10990 G1 X26.156 Y122.719
N10995 G1 X26.521 Y122.941
N11000 G1 X26.572 Y122.971
N11005 G1 X26.952 Y123.191
N11010 G1 X27.001 Y123.219
N11015 G1 X27.395 Y123.437
N11020 G1 X27.442 Y123.463
N11025 G1 X27.851 Y123.68
N11030 G1 X27.882 Y123.696
N11035 G1 X28.044 Y123.78
N11040 G1 X28.075 Y123.796
N11045 G1 X28.512 Y124.015
N11050 G1 X28.555 Y124.036
N11055 G1 X29.012 Y124.256
N11060 G1 X29.055 Y124.276
N11065 G1 X29.533 Y124.497
N11070 G1 X29.574 Y124.516
N11075 G1 X30.074 Y124.738
N11080 G1 X30.114 Y124.755
N11085 G1 X30.636 Y124.979
N11090 G1 X30.675 Y124.995
N11095 G1 X31.22 Y125.219
N11100 G1 X31.258 Y125.234
N11105 G1 X31.827 Y125.459
N11110 G1 X31.863 Y125.473
N11115 G1 X32.457 Y125.699
N11120 G1 X32.492 Y125.712
N11125 G1 X33.111 Y125.938
N11130 G1 X33.145 Y125.951
N11135 G1 X33.79 Y126.178
N11140 G1 X33.823 Y126.189
N11145 G1 X34.494 Y126.418
N11150 G1 X34.526 Y126.428
N11155 G1 X35.225 Y126.657
N11160 G1 X35.256 Y126.667
N11165 G1 X35.983 Y126.896
N11170 G1 X36.012 Y126.905
N11175 G1 X36.768 Y127.135
N11180 G1 X36.799 Y127.144
N11185 G1 X37.669 Y127.399
N11190 G1 X37.699 Y127.408
N11195 G1 X38.594 Y127.66
N11200 G1 X38.623 Y127.668
N11205 G1 X39.542 Y127.916
N11210 G1 X39.57 Y127.924
N11215 G1 X40.514 Y128.17
N11220 G1 X40.54 Y128.176
N11225 G1 X41.51 Y128.419
N11230 G1 X41.535 Y128.426
N11235 G1 X42.529 Y128.666
N11240 G1 X42.553 Y128.672
N11245 G1 X43.573 Y128.909
N11250 G1 X43.596 Y128.914
N11255 G1 X44.641 Y129.149
N11260 G1 X44.663 Y129.154
N11265 G1 X45.734 Y129.386
N11270 G1 X45.749 Y129.389
N11275 G1 X46.143 Y129.472
N11280 G1 X46.158 Y129.475
N11285 G1 X47.277 Y129.706
N11290 G1 X47.297 Y129.711
N11295 G1 X48.455 Y129.941
N11300 G1 X48.475 Y129.945
N11305 G1 X49.795 Y130.199
N11310 G1 X49.815 Y130.202
N11315 G1 X51.166 Y130.452
N11320 G1 X51.186 Y130.455
N11325 G1 X52.568 Y130.701
N11330 G1 X52.587 Y130.704
N11335 G1 X54.001 Y130.946
N11340 G1 X54.019 Y130.949
N11345 G1 X55.465 Y131.187
N11350 G1 X55.482 Y131.19
N11355 G1 X56.96 Y131.424
N11360 G1 X56.976 Y131.427
N11365 G1 X58.486 Y131.657
N11370 G1 X58.502 Y131.66
N11375 G1 X60.044 Y131.887
N11380 G1 X60.059 Y131.889
N11385 G1 X61.633 Y132.112
N11390 G1 X61.646 Y132.114
N11395 G1 X62.748 Y132.266
N11400 G1 X63.42 Y132.391
N11405 G1 X64.143 Y132.533
N11410 G1 X64.864 Y132.683
N11415 G1 X65.582 Y132.839
N11420 G1 X66.296 Y133.003
N11425 G1 X67.013 Y133.176
N11430 G1 X67.246 Y133.234
N11435 G1 X67.876 Y133.394
N11440 G1 X68.498 Y133.559
N11445 G1 X69.116 Y133.729
N11450 G1 X69.729 Y133.904
N11455 G1 X70.337 Y134.084
N11460 G1 X70.942 Y134.27
N11465 G1 X71.542 Y134.46
N11470 G1 X72.137 Y134.656
N11475 G1 X72.728 Y134.857
N11480 G1 X73.314 Y135.063
N11485 G1 X73.895 Y135.274
N11490 G1 X74.472 Y135.49
N11495 G1 X75.044 Y135.711
N11500 G1 X75.611 Y135.938
N11505 G1 X76.173 Y136.169
N11510 G1 X76.731 Y136.406
N11515 G1 X77.283 Y136.648
N11520 G1 X77.831 Y136.895
N11525 G1 X78.373 Y137.147
N11530 G1 X78.91 Y137.405
N11535 G1 X79.442 Y137.668
N11540 G1 X79.969 Y137.936
N11545 G1 X80.49 Y138.209
N11550 G1 X81.006 Y138.488
N11555 G1 X81.516 Y138.772
N11560 G1 X82.024 Y139.063
N11565 G1 X82.347 Y139.253
N11570 G1 X82.798 Y139.524
N11575 G1 X83.24 Y139.798
N11580 G1 X83.677 Y140.075
N11585 G1 X84.108 Y140.357
N11590 G1 X84.533 Y140.642
N11595 G1 X84.953 Y140.931
N11600 G1 X85.367 Y141.224
N11605 G1 X85.775 Y141.522
N11610 G1 X86.178 Y141.823
N11615 G1 X86.574 Y142.128
N11620 G1 X86.965 Y142.437
N11625 G1 X87.349 Y142.751
N11630 G1 X87.728 Y143.068
N11635 G1 X88.101 Y143.389
N11640 G1 X88.468 Y143.715
N11645 G1 X88.828 Y144.045
N11650 G1 X89.183 Y144.379
N11655 G1 X89.531 Y144.716
N11660 G1 X89.899 Y145.085
N11665 G1 X90.216 Y145.412
N11670 G1 X90.527 Y145.743
N11675 G1 X90.833 Y146.078
N11680 G1 X91.131 Y146.415
N11685 G1 X91.424 Y146.755
N11690 G1 X91.71 Y147.099
N11695 G1 X91.99 Y147.445
N11700 G1 X92.264 Y147.795
N11705 G1 X92.531 Y148.148
N11710 G1 X92.792 Y148.504
N11715 G1 X93.047 Y148.863
N11720 G1 X93.295 Y149.226
N11725 G1 X93.537 Y149.591
N11730 G1 X93.773 Y149.96
N11735 G1 X94.002 Y150.332
N11740 G1 X94.225 Y150.707
N11745 G1 X94.442 Y151.086
N11750 G1 X94.653 Y151.468
N11755 G1 X94.857 Y151.854
N11760 G1 X95.054 Y152.243
N11765 G1 X95.251 Y152.645
N11770 G1 X95.269 Y152.684
N11775 G1 X95.462 Y153.1
N11780 G1 X95.643 Y153.507
N11785 G1 X95.817 Y153.918
N11790 G1 X95.983 Y154.33
N11795 G1 X96.143 Y154.746
N11800 G1 X96.295 Y155.164
N11805 G1 X96.441 Y155.585
N11810 G1 X96.579 Y156.009
N11815 G1 X96.711 Y156.436
N11820 G1 X96.836 Y156.866
N11825 G1 X96.954 Y157.299
N11830 G1 X97.065 Y157.735
N11835 G1 X97.169 Y158.175
N11840 G1 X97.267 Y158.618
N11845 G1 X97.357 Y159.064
N11850 G1 X97.441 Y159.514
N11855 G1 X97.518 Y159.968
N11860 G1 X97.588 Y160.425
N11865 G1 X97.652 Y160.887
N11870 G1 X97.709 Y161.356
N11875 G1 X97.74 Y161.644
N11880 G1 X97.788 Y162.159
N11885 G1 X97.829 Y162.673
N11890 G1 X97.86 Y163.189
N11895 G1 X97.884 Y163.71
N11900 G1 X97.899 Y164.233
N11905 G1 X97.906 Y164.76
N11910 G1 X97.905 Y165.291
N11915 G1 X97.895 Y165.825
N11920 G1 X97.877 Y166.363
N11925 G1 X97.851 Y166.905
N11930 G1 X97.817 Y167.451
N11935 G1 X97.774 Y168.001
N11940 G1 X97.723 Y168.555
N11945 G1 X97.664 Y169.113
N11950 G1 X97.596 Y169.675
N11955 G1 X97.519 Y170.241
N11960 G1 X97.434 Y170.812
N11965 G1 X97.341 Y171.387
N11970 G1 X97.239 Y171.966
N11975 G1 X97.128 Y172.55
N11980 G1 X97.009 Y173.138
N11985 G1 X96.88 Y173.738
N11990 G1 X96.859 Y173.831
N11995 G1 X96.717 Y174.443
N12000 G1 X96.568 Y175.053
N12005 G1 X96.535 Y175.183
N12010 G1 X96.363 Y175.464
N12015 G1 X96.173 Y175.765
N12020 G1 X95.98 Y176.059
N12025 G1 X95.784 Y176.346
N12030 G1 X95.585 Y176.626
N12035 G1 X95.383 Y176.899
N12040 G1 X95.177 Y177.167
N12045 G1 X95.001 Y177.387
N12050 G1 X94.805 Y177.622
N12055 G1 X94.608 Y177.85
N12060 G1 X94.408 Y178.072
N12065 G1 X94.206 Y178.288
N12070 G1 X94 Y178.498
N12075 G1 X93.792 Y178.702
N12080 G1 X93.58 Y178.9
N12085 G1 X93.366 Y179.093
N12090 G1 X93.148 Y179.279
N12095 G1 X92.926 Y179.461
N12100 G1 X92.701 Y179.637
N12105 G1 X92.472 Y179.808
N12110 G1 X92.233 Y179.978
N12115 G1 X92.098 Y180.07
N12120 G1 X91.836 Y180.242
N12125 G1 X91.572 Y180.406
N12130 G1 X91.301 Y180.566
N12135 G1 X91.02 Y180.723
N12140 G1 X90.728 Y180.878
N12145 G1 X90.424 Y181.03
N12150 G1 X90.104 Y181.182
N12155 G1 X89.766 Y181.334
N12160 G1 X89.407 Y181.487
N12165 G1 X89.012 Y181.647
N12170 G1 X88.907 Y181.688
N12175 G3 X88.129 Y181.349 I-0.219 J-0.558 F1000
N12180 G1 X87.909 Y180.791
N12185 G1 X87.875 Y180.704 Z-17.993
N12190 G1 X87.842 Y180.618 Z-17.971
N12195 G1 X87.81 Y180.538 Z-17.935
N12200 G1 X87.78 Y180.463 Z-17.885
N12205 G1 X87.754 Y180.396 Z-17.824
N12210 G1 X87.732 Y180.339 Z-17.753
N12215 G1 X87.714 Y180.293 Z-17.672
N12220 G1 X87.701 Y180.26 Z-17.585
N12225 G1 X87.693 Y180.239 Z-17.494
N12230 G1 X87.69 Y180.233 Z-17.4
N12235 G0 Z5
N12240 G0 X125.819 Y237.154
N12245 G0 Z-11
N12250 G1 Z-16 F333.3
N12255 G1 Z-19.4
N12260 G1 X125.824 Y237.148 Z-19.494 F1000
N12265 G1 X125.836 Y237.13 Z-19.585
N12270 G1 X125.857 Y237.1 Z-19.672
N12275 G1 X125.885 Y237.06 Z-19.753
N12280 G1 X125.921 Y237.01 Z-19.824
N12285 G1 X125.962 Y236.952 Z-19.885
N12290 G1 X126.008 Y236.886 Z-19.935
N12295 G1 X126.059 Y236.815 Z-19.971
N12300 G1 X126.111 Y236.741 Z-19.993
N12305 G1 X126.166 Y236.664 Z-20
N12310 G1 X126.512 Y236.174
N12315 G3 X127.348 Y236.03 I0.49 J0.346
N12320 G3 X127.77 Y236.393 I-1.703 J2.409 F420
N12325 G1 X128.143 Y236.789
N12330 G1 X128.502 Y237.181
N12335 G1 X128.855 Y237.578
N12340 G1 X129.202 Y237.98
N12345 G1 X129.542 Y238.385
N12350 G1 X129.876 Y238.795
N12355 G1 X130.204 Y239.209
N12360 G1 X130.525 Y239.627
N12365 G1 X130.84 Y240.05
N12370 G1 X131.149 Y240.476
N12375 G1 X131.452 Y240.906
N12380 G1 X131.748 Y241.341
N12385 G1 X132.037 Y241.779
N12390 G1 X132.321 Y242.221
N12395 G1 X132.598 Y242.668
N12400 G1 X132.869 Y243.117
N12405 G1 X133.133 Y243.571
N12410 G1 X133.391 Y244.029
N12415 G1 X133.643 Y244.49
N12420 G1 X133.888 Y244.955
N12425 G1 X134.126 Y245.424
N12430 G1 X134.359 Y245.896
N12435 G1 X134.586 Y246.375
N12440 G1 X134.735 Y246.701
N12445 G1 X134.951 Y247.185
N12450 G1 X135.157 Y247.668
N12455 G1 X135.357 Y248.153
N12460 G1 X135.549 Y248.639
N12465 G1 X135.734 Y249.127
N12470 G1 X135.911 Y249.617
N12475 G1 X136.081 Y250.107
N12480 G1 X136.244 Y250.599
N12485 G1 X136.4 Y251.093
N12490 G1 X136.549 Y251.587
N12495 G1 X136.69 Y252.083
N12500 G1 X136.824 Y252.58
N12505 G1 X136.951 Y253.078
N12510 G1 X137.071 Y253.576
N12515 G1 X137.184 Y254.076
N12520 G1 X137.29 Y254.576
N12525 G1 X137.388 Y255.077
N12530 G1 X137.48 Y255.578
N12535 G1 X137.564 Y256.08
N12540 G1 X137.641 Y256.582
N12545 G1 X137.71 Y257.085
N12550 G1 X137.773 Y257.588
N12555 G1 X137.827 Y258.091
N12560 G1 X137.876 Y258.603
N12565 G1 X137.883 Y258.691
N12570 G1 X137.92 Y259.169
N12575 G1 X137.949 Y259.638
N12580 G1 X137.972 Y260.104
N12585 G1 X137.988 Y260.569
N12590 G1 X137.998 Y261.031
N12595 G1 X138.001 Y261.492
N12600 G1 X137.997 Y261.95
N12605 G1 X137.987 Y262.407
N12610 G1 X137.97 Y262.861
N12615 G1 X137.947 Y263.313
N12620 G1 X137.917 Y263.764
N12625 G1 X137.881 Y264.212
N12630 G1 X137.838 Y264.658
N12635 G1 X137.789 Y265.102
N12640 G1 X137.733 Y265.543
N12645 G1 X137.671 Y265.982
N12650 G1 X137.602 Y266.42
N12655 G1 X137.527 Y266.854
N12660 G1 X137.445 Y267.287
N12665 G1 X137.356 Y267.717
N12670 G1 X137.261 Y268.145
N12675 G1 X137.159 Y268.571
N12680 G1 X137.05 Y268.994
N12685 G1 X136.935 Y269.415
N12690 G1 X136.813 Y269.834
N12695 G1 X136.682 Y270.256
N12700 G1 X136.624 Y270.435
N12705 G1 X136.484 Y270.851
N12710 G1 X136.34 Y271.256
N12715 G1 X136.19 Y271.657
N12720 G1 X136.034 Y272.054
N12725 G1 X135.871 Y272.447
N12730 G1 X135.703 Y272.836
N12735 G1 X135.528 Y273.222
N12740 G1 X135.348 Y273.603
N12745 G1 X135.161 Y273.98
N12750 G1 X134.968 Y274.353
N12755 G1 X134.77 Y274.722
N12760 G1 X134.565 Y275.087
N12765 G1 X134.355 Y275.448
N12770 G1 X134.138 Y275.806
N12775 G1 X133.915 Y276.159
N12780 G1 X133.686 Y276.509
N12785 G1 X133.451 Y276.856
N12790 G1 X133.21 Y277.198
N12795 G1 X132.963 Y277.537
N12800 G1 X132.709 Y277.873
N12805 G1 X132.449 Y278.204
N12810 G1 X132.182 Y278.533
N12815 G1 X131.914 Y278.853
N12820 G1 X131.623 Y279.187
N12825 G1 X131.327 Y279.515
N12830 G1 X131.025 Y279.839
N12835 G1 X130.717 Y280.158
N12840 G1 X130.402 Y280.473
N12845 G1 X130.081 Y280.783
N12850 G1 X129.754 Y281.088
N12855 G1 X129.421 Y281.389
N12860 G1 X129.08 Y281.686
N12865 G1 X128.734 Y281.979
N12870 G1 X128.381 Y282.267
N12875 G1 X128.021 Y282.551
N12880 G1 X127.654 Y282.83
N12885 G1 X127.28 Y283.106
N12890 G1 X126.899 Y283.378
N12895 G1 X126.511 Y283.645
N12900 G1 X126.112 Y283.911
N12905 G1 X125.7 Y284.176
N12910 G1 X125.394 Y284.368
N12915 G1 X124.956 Y284.634
N12920 G1 X124.505 Y284.899
N12925 G1 X124.039 Y285.165
N12930 G1 X123.558 Y285.43
N12935 G1 X123.063 Y285.695
N12940 G1 X122.499 Y285.986
N12945 G1 X121.925 Y286.272
N12950 G1 X121.341 Y286.553
N12955 G1 X120.748 Y286.829
N12960 G1 X120.146 Y287.1
N12965 G1 X119.535 Y287.365
N12970 G1 X118.918 Y287.625
N12975 G1 X118.293 Y287.878
N12980 G1 X117.664 Y288.125
N12985 G1 X117.031 Y288.364
N12990 G1 X116.397 Y288.596
N12995 G1 X115.76 Y288.821
N13000 G1 X115.121 Y289.039
N13005 G1 X114.48 Y289.25
N13010 G1 X113.839 Y289.453
N13015 G1 X113.197 Y289.648
N13020 G1 X112.555 Y289.836
N13025 G1 X111.914 Y290.016
N13030 G1 X111.273 Y290.188
N13035 G1 X110.63 Y290.353
N13040 G1 X110.299 Y290.435
N13045 G1 X109.865 Y290.539
N13050 G1 X109.438 Y290.638
N13055 G1 X109.016 Y290.732
N13060 G1 X108.599 Y290.821
N13065 G1 X108.187 Y290.905
N13070 G1 X107.781 Y290.984
N13075 G1 X107.38 Y291.059
N13080 G1 X106.986 Y291.128
N13085 G1 X106.598 Y291.193
N13090 G1 X106.217 Y291.252
N13095 G1 X105.843 Y291.307
N13100 G1 X105.477 Y291.356
N13105 G1 X105.118 Y291.4
N13110 G1 X104.767 Y291.439
N13115 G1 X104.425 Y291.472
N13120 G1 X104.093 Y291.499
N13125 G1 X103.771 Y291.521
N13130 G1 X103.46 Y291.537
N13135 G1 X103.162 Y291.547
N13140 G1 X102.874 Y291.551
N13145 G1 X102.637 Y291.549
N13150 G1 X102.435 Y291.543
N13155 G1 X102.246 Y291.534
N13160 G1 X102.071 Y291.521
N13165 G1 X101.911 Y291.505
N13170 G1 X101.738 Y291.482
N13175 G2 X101.044 Y291.472 I-0.39 J2.975
N13180 G1 X100.631 Y291.514
N13185 G1 X100.581 Y291.52
N13190 G1 X100.171 Y291.569
N13195 G1 X100.12 Y291.575
N13200 G1 X99.713 Y291.631
N13205 G1 X99.661 Y291.638
N13210 G1 X99.257 Y291.701
N13215 G1 X99.204 Y291.709
N13220 G1 X98.803 Y291.778
N13225 G1 X98.749 Y291.788
N13230 G1 X98.351 Y291.864
N13235 G1 X98.297 Y291.875
N13240 G1 X97.902 Y291.959
N13245 G1 X97.846 Y291.971
N13250 G1 X97.455 Y292.061
N13255 G1 X97.399 Y292.075
N13260 G1 X97.011 Y292.172
N13265 G1 X96.953 Y292.187
N13270 G1 X96.569 Y292.292
N13275 G1 X96.523 Y292.305
N13280 G1 X96.304 Y292.369
N13285 G1 X96.26 Y292.382
N13290 G1 X95.915 Y292.487
N13295 G1 X95.861 Y292.505
N13300 G1 X95.52 Y292.616
N13305 G1 X95.465 Y292.635
N13310 G1 X95.128 Y292.752
N13315 G1 X95.073 Y292.772
N13320 G1 X94.74 Y292.895
N13325 G1 X94.684 Y292.917
N13330 G1 X94.356 Y293.046
N13335 G1 X94.299 Y293.069
N13340 G1 X93.975 Y293.204
N13345 G1 X93.919 Y293.228
N13350 G1 X93.599 Y293.369
N13355 G1 X93.542 Y293.395
N13360 G1 X93.226 Y293.543
N13365 G1 X93.168 Y293.57
N13370 G1 X92.857 Y293.724
N13375 G1 X92.799 Y293.753
N13380 G1 X92.493 Y293.912
N13385 G1 X92.435 Y293.943
N13390 G1 X92.132 Y294.109
N13395 G1 X92.074 Y294.142
N13400 G1 X91.776 Y294.314
N13405 G1 X91.718 Y294.348
N13410 G1 X91.425 Y294.526
N13415 G1 X91.366 Y294.563
N13420 G1 X91.078 Y294.747
N13425 G1 X91.019 Y294.786
N13430 G1 X90.735 Y294.977
N13435 G1 X90.702 Y295
N13440 G1 X90.659 Y295.03
N13445 G1 X90.626 Y295.053
N13450 G1 X90.361 Y295.242
N13455 G1 X90.305 Y295.283
N13460 G1 X90.045 Y295.477
N13465 G1 X89.99 Y295.52
N13470 G1 X89.735 Y295.719
N13475 G1 X89.68 Y295.764
N13480 G1 X89.432 Y295.968
N13485 G1 X89.378 Y296.014
N13490 G1 X89.135 Y296.224
N13495 G1 X89.081 Y296.272
N13500 G1 X88.844 Y296.487
N13505 G1 X88.791 Y296.536
N13510 G1 X88.56 Y296.756
N13515 G1 X88.508 Y296.808
N13520 G1 X88.283 Y297.033
N13525 G1 X88.231 Y297.086
N13530 G1 X88.012 Y297.316
N13535 G1 X87.961 Y297.371
N13540 G1 X87.748 Y297.607
N13545 G1 X87.698 Y297.663
N13550 G1 X87.491 Y297.904
N13555 G1 X87.449 Y297.954
N13560 G1 X87.307 Y298.126
N13565 G1 X87.266 Y298.177
N13570 G1 X87.072 Y298.423
N13575 G1 X87.026 Y298.484
N13580 G1 X86.839 Y298.734
N13585 G1 X86.794 Y298.796
N13590 G1 X86.614 Y299.05
N13595 G1 X86.571 Y299.113
N13600 G1 X86.398 Y299.371
N13605 G1 X86.356 Y299.435
N13610 G1 X86.191 Y299.697
N13615 G1 X86.15 Y299.763
N13620 G1 X85.992 Y300.027
N13625 G1 X85.953 Y300.094
N13630 G1 X85.802 Y300.363
N13635 G1 X85.765 Y300.431
N13640 G1 X85.621 Y300.703
N13645 G1 X85.585 Y300.772
N13650 G1 X85.448 Y301.048
N13655 G1 X85.415 Y301.118
N13660 G1 X85.285 Y301.397
N13665 G1 X85.253 Y301.469
N13670 G1 X85.131 Y301.751
N13675 G1 X85.1 Y301.823
N13680 G1 X84.985 Y302.109
N13685 G1 X84.956 Y302.184
N13690 G1 X84.845 Y302.485
N13695 G1 X84.817 Y302.561
N13700 G1 X84.716 Y302.858
N13705 G1 X84.691 Y302.934
N13710 G1 X84.598 Y303.234
N13715 G1 X84.575 Y303.31
N13720 G1 X84.49 Y303.611
N13725 G1 X84.47 Y303.687
N13730 G1 X84.393 Y303.99
N13735 G1 X84.374 Y304.067
N13740 G1 X84.305 Y304.371
N13745 G1 X84.289 Y304.448
N13750 G1 X84.228 Y304.753
N13755 G1 X84.214 Y304.831
N13760 G1 X84.161 Y305.138
N13765 G1 X84.148 Y305.215
N13770 G1 X84.103 Y305.524
N13775 G1 X84.093 Y305.601
N13780 G1 X84.056 Y305.912
N13785 G1 X84.048 Y305.989
N13790 G1 X84.019 Y306.301
N13795 G1 X84.013 Y306.378
N13800 G1 X83.992 Y306.692
N13805 G1 X83.987 Y306.769
N13810 G1 X83.974 Y307.085
N13815 G1 X83.972 Y307.154
N13820 G1 X83.967 Y307.408
N13825 G1 Y307.477
N13830 G1 X83.969 Y307.803
N13835 G1 X83.97 Y307.881
N13840 G1 X83.98 Y308.206
N13845 G1 X83.983 Y308.283
N13850 G1 X84.002 Y308.609
N13855 G1 X84.007 Y308.685
N13860 G1 X84.034 Y309.011
N13865 G1 X84.041 Y309.086
N13870 G1 X84.076 Y309.412
N13875 G1 X84.085 Y309.486
N13880 G1 X84.128 Y309.812
N13885 G1 X84.139 Y309.886
N13890 G1 X84.19 Y310.211
N13895 G1 X84.203 Y310.284
N13900 G1 X84.262 Y310.609
N13905 G1 X84.277 Y310.681
N13910 G1 X84.345 Y311.006
N13915 G1 X84.36 Y311.078
N13920 G1 X84.437 Y311.403
N13925 G1 X84.451 Y311.46
N13930 G1 X84.504 Y311.668
N13935 G1 X84.519 Y311.727
N13940 G1 X84.613 Y312.064
N13945 G1 X84.634 Y312.136
N13950 G1 X84.736 Y312.472
N13955 G1 X84.758 Y312.542
N13960 G1 X84.869 Y312.876
N13965 G1 X84.893 Y312.944
N13970 G1 X85.011 Y313.276
N13975 G1 X85.036 Y313.343
N13980 G1 X85.164 Y313.674
N13985 G1 X85.19 Y313.739
N13990 G1 X85.325 Y314.068
N13995 G1 X85.353 Y314.132
N14000 G1 X85.497 Y314.458
N14005 G1 X85.525 Y314.522
N14010 G1 X85.677 Y314.846
N14015 G1 X85.707 Y314.908
N14020 G1 X85.867 Y315.23
N14025 G1 X85.898 Y315.291
N14030 G1 X86.067 Y315.611
N14035 G1 X86.099 Y315.67
N14040 G1 X86.275 Y315.989
N14045 G1 X86.308 Y316.047
N14050 G1 X86.493 Y316.363
N14055 G1 X86.528 Y316.421
N14060 G1 X86.731 Y316.753
N14065 G1 X86.768 Y316.811
N14070 G1 X86.982 Y317.142
N14075 G1 X87.02 Y317.199
N14080 G1 X87.242 Y317.526
N14085 G1 X87.281 Y317.581
N14090 G1 X87.511 Y317.904
N14095 G1 X87.55 Y317.958
N14100 G1 X87.788 Y318.277
N14105 G1 X87.828 Y318.329
N14110 G1 X88.074 Y318.643
N14115 G1 X88.114 Y318.694
N14120 G1 X88.368 Y319.005
N14125 G1 X88.409 Y319.054
N14130 G1 X88.671 Y319.361
N14135 G1 X88.712 Y319.408
N14140 G1 X88.981 Y319.711
N14145 G1 X89.023 Y319.757
N14150 G1 X89.3 Y320.056
N14155 G1 X89.342 Y320.1
N14160 G1 X89.627 Y320.395
N14165 G1 X89.67 Y320.438
N14170 G1 X89.963 Y320.73
N14175 G1 X90.005 Y320.771
N14180 G1 X90.306 Y321.058
N14185 G1 X90.349 Y321.099
N14190 G1 X90.657 Y321.382
N14195 G1 X90.7 Y321.421
N14200 G1 X91.016 Y321.7
N14205 G1 X91.06 Y321.738
N14210 G1 X91.384 Y322.013
N14215 G1 X91.418 Y322.042
N14220 G1 X91.613 Y322.202
N14225 G1 X91.648 Y322.231
N14230 G1 X92.001 Y322.513
N14235 G1 X92.047 Y322.549
N14240 G1 X92.408 Y322.826
N14245 G1 X92.454 Y322.861
N14250 G1 X92.821 Y323.132
N14255 G1 X92.867 Y323.165
N14260 G1 X93.242 Y323.431
N14265 G1 X93.288 Y323.462
N14270 G1 X93.67 Y323.723
N14275 G1 X93.715 Y323.753
N14280 G1 X94.104 Y324.008
N14285 G1 X94.15 Y324.037
N14290 G1 X94.546 Y324.287
N14295 G1 X94.592 Y324.315
N14300 G1 X94.995 Y324.559
N14305 G1 X95.04 Y324.586
N14310 G1 X95.451 Y324.825
N14315 G1 X95.496 Y324.85
N14320 G1 X95.914 Y325.084
N14325 G1 X95.959 Y325.108
N14330 G1 X96.384 Y325.336
N14335 G1 X96.428 Y325.36
N14340 G1 X96.861 Y325.582
N14345 G1 X96.892 Y325.598
N14350 G1 X97.071 Y325.688
N14355 G1 X97.103 Y325.704
N14360 G1 X97.559 Y325.925
N14365 G1 X97.604 Y325.947
N14370 G1 X98.067 Y326.162
N14375 G1 X98.112 Y326.183
N14380 G1 X98.582 Y326.392
N14385 G1 X98.626 Y326.411
N14390 G1 X99.103 Y326.615
N14395 G1 X99.147 Y326.633
N14400 G1 X99.63 Y326.83
N14405 G1 X99.674 Y326.847
N14410 G1 X100.164 Y327.038
N14415 G1 X100.207 Y327.055
N14420 G1 X100.704 Y327.239
N14425 G1 X100.744 Y327.254
N14430 G1 X101.102 Y327.381
N14435 G1 X101.638 Y327.613
N14440 G1 X101.671 Y327.627
N14445 G1 X102.301 Y327.891
N14450 G1 X102.334 Y327.905
N14455 G1 X102.967 Y328.161
N14460 G1 X103 Y328.174
N14465 G1 X103.636 Y328.423
N14470 G1 X103.669 Y328.436
N14475 G1 X104.307 Y328.677
N14480 G1 X104.332 Y328.687
N14485 G1 X104.661 Y328.808
N14490 G1 X104.687 Y328.817
N14495 G1 X105.339 Y329.05
N14500 G1 X105.373 Y329.062
N14505 G1 X106.026 Y329.287
N14510 G1 X106.06 Y329.298
N14515 G1 X106.715 Y329.514
N14520 G1 X106.75 Y329.526
N14525 G1 X107.406 Y329.734
N14530 G1 X107.441 Y329.745
N14535 G1 X108.099 Y329.944
N14540 G1 X108.134 Y329.955
N14545 G1 X108.794 Y330.146
N14550 G1 X108.829 Y330.156
N14555 G1 X109.49 Y330.34
N14560 G1 X109.526 Y330.349
N14565 G1 X110.189 Y330.525
N14570 G1 X110.224 Y330.534
N14575 G1 X110.89 Y330.701
N14580 G1 X110.925 Y330.71
N14585 G1 X111.593 Y330.869
N14590 G1 X111.628 Y330.877
N14595 G1 X112.298 Y331.029
N14600 G1 X112.334 Y331.036
N14605 G1 X113.006 Y331.179
N14610 G1 X113.041 Y331.187
N14615 G1 X113.715 Y331.322
N14620 G1 X113.751 Y331.329
N14625 G1 X114.428 Y331.456
N14630 G1 X114.463 Y331.462
N14635 G1 X115.142 Y331.582
N14640 G1 X115.178 Y331.588
N14645 G1 X115.859 Y331.699
N14650 G1 X115.895 Y331.704
N14655 G1 X116.579 Y331.808
N14660 G1 X116.615 Y331.813
N14665 G1 X117.302 Y331.908
N14670 G1 X117.337 Y331.913
N14675 G1 X118.027 Y332
N14680 G1 X118.062 Y332.004
N14685 G1 X118.755 Y332.084
N14690 G1 X118.79 Y332.087
N14695 G1 X119.485 Y332.159
N14700 G1 X119.52 Y332.162
N14705 G1 X120.219 Y332.226
N14710 G1 X120.254 Y332.229
N14715 G1 X120.956 Y332.284
N14720 G1 X120.99 Y332.287
N14725 G1 X121.695 Y332.334
N14730 G1 X121.73 Y332.336
N14735 G1 X122.438 Y332.376
N14740 G1 X122.473 Y332.378
N14745 G1 X123.184 Y332.409
N14750 G1 X123.219 Y332.411
N14755 G1 X123.934 Y332.434
N14760 G1 X123.968 Y332.435
N14765 G1 X124.687 Y332.451
N14770 G1 X124.72
N14775 G1 X125.443 Y332.459
N14780 G1 X125.463
N14785 G1 X125.619
N14790 G1 X125.64
N14795 G1 X126.442 Y332.456
N14800 G1 X126.478
N14805 G1 X127.283 Y332.443
N14810 G1 X127.319
N14815 G1 X128.128 Y332.42
N14820 G1 X128.164 Y332.419
N14825 G1 X128.976 Y332.386
N14830 G1 X129.012 Y332.385
N14835 G1 X129.829 Y332.343
N14840 G1 X129.863 Y332.341
N14845 G1 X130.685 Y332.289
N14850 G1 X130.719 Y332.286
N14855 G1 X131.545 Y332.225
N14860 G1 X131.579 Y332.222
N14865 G1 X132.41 Y332.15
N14870 G1 X132.443 Y332.147
N14875 G1 X133.279 Y332.066
N14880 G1 X133.312 Y332.063
N14885 G1 X134.152 Y331.971
N14890 G1 X134.185 Y331.968
N14895 G1 X135.031 Y331.867
N14900 G1 X135.063 Y331.863
N14905 G1 X135.914 Y331.751
N14910 G1 X135.946 Y331.747
N14915 G1 X136.803 Y331.626
N14920 G1 X136.834 Y331.622
N14925 G1 X137.697 Y331.49
N14930 G1 X137.728 Y331.486
N14935 G1 X138.597 Y331.345
N14940 G1 X138.627 Y331.34
N14945 G1 X139.503 Y331.188
N14950 G1 X139.532 Y331.183
N14955 G1 X140.414 Y331.022
N14960 G1 X140.443 Y331.016
N14965 G1 X141.332 Y330.845
N14970 G1 X141.36 Y330.839
N14975 G1 X142.257 Y330.657
N14980 G1 X142.285 Y330.651
N14985 G1 X143.188 Y330.459
N14990 G1 X143.215 Y330.453
N14995 G1 X144.127 Y330.25
N15000 G1 X144.154 Y330.244
N15005 G1 X145.073 Y330.031
N15010 G1 X145.099 Y330.025
N15015 G1 X146.027 Y329.801
N15020 G1 X146.052 Y329.794
N15025 G1 X146.989 Y329.56
N15030 G1 X147.014 Y329.553
N15035 G1 X147.96 Y329.308
N15040 G1 X147.984 Y329.302
N15045 G1 X148.939 Y329.045
N15050 G1 X148.961 Y329.039
N15055 G1 X149.755 Y328.82
N15060 G1 X149.776 Y328.814
N15065 G1 X150.758 Y328.534
N15070 G1 X150.78 Y328.528
N15075 G1 X151.779 Y328.235
N15080 G1 X151.802 Y328.229
N15085 G1 X152.819 Y327.922
N15090 G1 X152.841 Y327.916
N15095 G1 X153.878 Y327.595
N15100 G1 X153.899 Y327.588
N15105 G1 X154.958 Y327.252
N15110 G1 X154.978 Y327.245
N15115 G1 X156.06 Y326.893
N15120 G1 X156.08 Y326.887
N15125 G1 X157.187 Y326.518
N15130 G1 X157.207 Y326.511
N15135 G1 X158.342 Y326.124
N15140 G1 X158.361 Y326.118
N15145 G1 X159.527 Y325.711
N15150 G1 X159.546 Y325.705
N15155 G1 X160.746 Y325.278
N15160 G1 X160.764 Y325.272
N15165 G1 X162.002 Y324.823
N15170 G1 X162.019 Y324.816
N15175 G1 X163.298 Y324.344
N15180 G1 X163.314 Y324.338
N15185 G1 X164.642 Y323.838
N15190 G1 X164.658 Y323.832
N15195 G1 X166.042 Y323.303
N15200 G1 X166.057 Y323.297
N15205 G1 X167.55 Y322.717
N15210 G1 X167.563 Y322.712
N15215 G1 X168.996 Y322.147
N15220 G1 X169.006 Y322.143
N15225 G1 X170.388 Y321.593
N15230 G1 X170.395 Y321.591
N15235 G1 X171.733 Y321.055
N15240 G1 X171.736 Y321.053
N15245 G1 X173.035 Y320.531
N15250 G1 X173.036 Y320.53
N15255 G1 X174.3 Y320.021
N15260 G1 X175.531 Y319.526
N15265 G1 X176.732 Y319.045
N15270 G1 X177.906 Y318.578
N15275 G1 X179.055 Y318.124
N15280 G1 X180.181 Y317.684
N15285 G1 X181.286 Y317.257
N15290 G1 X182.371 Y316.844
N15295 G1 X183.438 Y316.444
N15300 G1 X184.489 Y316.057
N15305 G1 X185.524 Y315.684
N15310 G1 X186.341 Y315.395
N15315 G1 X187.014 Y315.161
N15320 G1 X187.685 Y314.932
N15325 G1 X188.352 Y314.708
N15330 G1 X189.017 Y314.49
N15335 G1 X189.679 Y314.276
N15340 G1 X190.338 Y314.068
N15345 G1 X190.994 Y313.866
N15350 G1 X191.647 Y313.669
N15355 G1 X192.298 Y313.479
N15360 G1 X192.946 Y313.294
N15365 G1 X193.591 Y313.115
N15370 G1 X194.234 Y312.942
N15375 G1 X194.875 Y312.775
N15380 G1 X195.513 Y312.614
N15385 G1 X196.149 Y312.46
N15390 G1 X196.783 Y312.312
N15395 G1 X197.414 Y312.171
N15400 G1 X198.044 Y312.036
N15405 G1 X198.671 Y311.908
N15410 G1 X199.296 Y311.786
N15415 G1 X199.919 Y311.672
N15420 G1 X200.541 Y311.564
N15425 G1 X201.16 Y311.463
N15430 G1 X201.778 Y311.369
N15435 G1 X202.394 Y311.282
N15440 G1 X203.008 Y311.203
N15445 G1 X203.621 Y311.131
N15450 G1 X204.232 Y311.065
N15455 G1 X204.842 Y311.008
N15460 G1 X205.45 Y310.958
N15465 G1 X206.057 Y310.915
N15470 G1 X206.662 Y310.88
N15475 G1 X207.258 Y310.852
N15480 G1 X207.857 Y310.833
N15485 G1 X208.451 Y310.821
N15490 G1 X209.043 Y310.816
N15495 G1 X209.64 Y310.819
N15500 G1 X210.243 Y310.83
N15505 G1 X210.855 Y310.849
N15510 G1 X211.475 Y310.875
N15515 G1 X212.102 Y310.91
N15520 G1 X212.809 Y310.958
N15525 G1 X213.523 Y311.016
N15530 G1 X214.243 Y311.083
N15535 G1 X214.972 Y311.161
N15540 G1 X215.708 Y311.249
N15545 G1 X216.452 Y311.347
N15550 G1 X217.204 Y311.455
N15555 G1 X217.964 Y311.574
N15560 G1 X218.733 Y311.703
N15565 G1 X219.51 Y311.842
N15570 G1 X220.297 Y311.991
N15575 G1 X221.093 Y312.152
N15580 G1 X221.898 Y312.323
N15585 G1 X222.714 Y312.504
N15590 G1 X223.54 Y312.697
N15595 G1 X224.376 Y312.901
N15600 G1 X225.223 Y313.116
N15605 G1 X226.082 Y313.342
N15610 G1 X226.953 Y313.58
N15615 G1 X227.841 Y313.83
N15620 G1 X228.124 Y313.912
N15625 G1 X229.033 Y314.179
N15630 G1 X229.946 Y314.457
N15635 G1 X230.869 Y314.745
N15640 G1 X231.801 Y315.044
N15645 G1 X232.744 Y315.356
N15650 G1 X233.699 Y315.68
N15655 G1 X234.666 Y316.016
N15660 G1 X235.646 Y316.365
N15665 G1 X236.641 Y316.728
N15670 G1 X237.651 Y317.106
N15675 G1 X238.679 Y317.498
N15680 G1 X239.726 Y317.906
N15685 G1 X240.793 Y318.331
N15690 G1 X241.883 Y318.773
N15695 G1 X242.998 Y319.235
N15700 G1 X244.143 Y319.717
N15705 G1 X245.319 Y320.222
N15710 G1 X246.533 Y320.751
N15715 G1 X247.79 Y321.308
N15720 G1 X249.095 Y321.896
N15725 G1 X250.457 Y322.518
N15730 G1 X251.888 Y323.181
N15735 G1 X253.404 Y323.892
N15740 G1 X255.205 Y324.747
N15745 G1 X256.94 Y325.58
N15750 G1 X258.617 Y326.392
N15755 G1 X260.244 Y327.185
N15760 G1 X261.828 Y327.959
N15765 G1 X263.372 Y328.716
N15770 G1 X264.881 Y329.456
N15775 G1 X264.883 Y329.457
N15780 G1 X266.359 Y330.18
N15785 G1 X266.362 Y330.181
N15790 G1 X267.808 Y330.887
N15795 G1 X267.813 Y330.889
N15800 G1 X269.232 Y331.579
N15805 G1 X269.238 Y331.582
N15810 G1 X270.633 Y332.256
N15815 G1 X270.64 Y332.26
N15820 G1 X272.012 Y332.918
N15825 G1 X272.021 Y332.923
N15830 G1 X273.372 Y333.566
N15835 G1 X273.382 Y333.57
N15840 G1 X274.714 Y334.198
N15845 G1 X274.725 Y334.203
N15850 G1 X276.039 Y334.816
N15855 G1 X276.051 Y334.822
N15860 G1 X277.348 Y335.42
N15865 G1 X277.362 Y335.426
N15870 G1 X278.644 Y336.009
N15875 G1 X278.659 Y336.016
N15880 G1 X279.927 Y336.584
N15885 G1 X279.939 Y336.59
N15890 G1 X280.626 Y336.894
N15895 G1 X280.638 Y336.899
N15900 G1 X281.692 Y337.361
N15905 G1 X281.706 Y337.367
N15910 G1 X282.761 Y337.823
N15915 G1 X282.777 Y337.829
N15920 G1 X283.833 Y338.278
N15925 G1 X283.85 Y338.285
N15930 G1 X284.907 Y338.727
N15935 G1 X284.925 Y338.735
N15940 G1 X285.984 Y339.17
N15945 G1 X286.003 Y339.177
N15950 G1 X287.064 Y339.605
N15955 G1 X287.083 Y339.612
N15960 G1 X288.146 Y340.032
N15965 G1 X288.166 Y340.04
N15970 G1 X289.23 Y340.452
N15975 G1 X289.25 Y340.459
N15980 G1 X290.316 Y340.863
N15985 G1 X290.336 Y340.871
N15990 G1 X291.403 Y341.266
N15995 G1 X291.423 Y341.274
N16000 G1 X292.491 Y341.661
N16005 G1 X292.511 Y341.668
N16010 G1 X293.581 Y342.048
N16015 G1 X293.602 Y342.055
N16020 G1 X294.673 Y342.427
N16025 G1 X294.693 Y342.434
N16030 G1 X295.767 Y342.797
N16035 G1 X295.787 Y342.804
N16040 G1 X296.862 Y343.16
N16045 G1 X296.882 Y343.166
N16050 G1 X297.959 Y343.514
N16055 G1 X297.979 Y343.521
N16060 G1 X299.057 Y343.86
N16065 G1 X299.078 Y343.867
N16070 G1 X300.158 Y344.198
N16075 G1 X300.178 Y344.205
N16080 G1 X301.26 Y344.529
N16085 G1 X301.281 Y344.535
N16090 G1 X302.364 Y344.851
N16095 G1 X302.385 Y344.857
N16100 G1 X303.47 Y345.165
N16105 G1 X303.491 Y345.171
N16110 G1 X304.578 Y345.471
N16115 G1 X304.599 Y345.477
N16120 G1 X305.689 Y345.769
N16125 G1 X305.709 Y345.775
N16130 G1 X306.801 Y346.059
N16135 G1 X306.822 Y346.065
N16140 G1 X307.915 Y346.341
N16145 G1 X307.936 Y346.347
N16150 G1 X309.031 Y346.615
N16155 G1 X309.052 Y346.621
N16160 G1 X310.15 Y346.882
N16165 G1 X310.171 Y346.887
N16170 G1 X311.271 Y347.14
N16175 G1 X311.292 Y347.145
N16180 G1 X312.394 Y347.39
N16185 G1 X312.415 Y347.395
N16190 G1 X313.519 Y347.632
N16195 G1 X313.54 Y347.637
N16200 G1 X314.646 Y347.867
N16205 G1 X314.668 Y347.871
N16210 G1 X315.776 Y348.093
N16215 G1 X315.797 Y348.097
N16220 G1 X316.909 Y348.311
N16225 G1 X316.93 Y348.315
N16230 G1 X318.043 Y348.522
N16235 G1 X318.065 Y348.526
N16240 G1 X319.181 Y348.724
N16245 G1 X319.202 Y348.728
N16250 G1 X320.32 Y348.919
N16255 G1 X320.341 Y348.922
N16260 G1 X321.461 Y349.105
N16265 G1 X321.482 Y349.109
N16270 G1 X322.604 Y349.284
N16275 G1 X322.625 Y349.287
N16280 G1 X323.748 Y349.454
N16285 G1 X323.769 Y349.457
N16290 G1 X324.892 Y349.616
N16295 G1 X324.913 Y349.619
N16300 G1 X326.038 Y349.77
N16305 G1 X326.059 Y349.772
N16310 G1 X327.183 Y349.915
N16315 G1 X327.204 Y349.918
N16320 G1 X328.329 Y350.053
N16325 G1 X328.349 Y350.055
N16330 G1 X329.473 Y350.182
N16335 G1 X329.494 Y350.185
N16340 G1 X330.615 Y350.304
N16345 G1 X330.636 Y350.306
N16350 G1 X331.755 Y350.416
N16355 G1 X331.776 Y350.418
N16360 G1 X332.891 Y350.521
N16365 G1 X332.904 Y350.522
N16370 G1 X333.059 Y350.536
N16375 G1 X333.07
N16380 G1 X333.956 Y350.611
N16385 G1 X333.973 Y350.612
N16390 G1 X334.857 Y350.682
N16395 G1 X334.875 Y350.683
N16400 G1 X335.755 Y350.746
N16405 G1 X335.773 Y350.748
N16410 G1 X336.651 Y350.806
N16415 G1 X336.67 Y350.807
N16420 G1 X337.545 Y350.859
N16425 G1 X337.564 Y350.86
N16430 G1 X338.436 Y350.907
N16435 G1 X338.455 Y350.908
N16440 G1 X339.325 Y350.949
N16445 G1 X339.344 Y350.95
N16450 G1 X340.211 Y350.986
N16455 G1 X340.23
N16460 G1 X341.094 Y351.016
N16465 G1 X341.114 Y351.017
N16470 G1 X341.976 Y351.04
N16475 G1 X341.996 Y351.041
N16480 G1 X342.854 Y351.059
N16485 G1 X342.875
N16490 G1 X343.731 Y351.071
N16495 G1 X343.751
N16500 G1 X344.604 Y351.077
N16505 G1 X344.626
N16510 G1 X345.476
N16515 G1 X345.497
N16520 G1 X346.345 Y351.071
N16525 G1 X346.366
N16530 G1 X347.211 Y351.059
N16535 G1 X347.233 Y351.058
N16540 G1 X348.075 Y351.04
N16545 G1 X348.097
N16550 G1 X348.936 Y351.015
N16555 G1 X348.959 Y351.014
N16560 G1 X349.795 Y350.983
N16565 G1 X349.818
N16570 G1 X350.651 Y350.945
N16575 G1 X350.674 Y350.944
N16580 G1 X351.505 Y350.901
N16585 G1 X351.528 Y350.899
N16590 G1 X352.356 Y350.849
N16595 G1 X352.38 Y350.848
N16600 G1 X353.205 Y350.791
N16605 G1 X353.229 Y350.79
N16610 G1 X354.051 Y350.727
N16615 G1 X354.076 Y350.725
N16620 G1 X354.894 Y350.655
N16625 G1 X354.92 Y350.653
N16630 G1 X355.736 Y350.577
N16635 G1 X355.761 Y350.574
N16640 G1 X356.574 Y350.491
N16645 G1 X356.6 Y350.489
N16650 G1 X357.41 Y350.399
N16655 G1 X357.436 Y350.396
N16660 G1 X358.243 Y350.299
N16665 G1 X358.27 Y350.296
N16670 G1 X359.074 Y350.192
N16675 G1 X359.101 Y350.189
N16680 G1 X359.902 Y350.078
N16685 G1 X359.93 Y350.075
N16690 G1 X360.728 Y349.957
N16695 G1 X360.755 Y349.953
N16700 G1 X361.551 Y349.828
N16705 G1 X361.579 Y349.824
N16710 G1 X362.371 Y349.692
N16715 G1 X362.4 Y349.687
N16720 G1 X363.189 Y349.548
N16725 G1 X363.218 Y349.543
N16730 G1 X364.004 Y349.397
N16735 G1 X364.033 Y349.391
N16740 G1 X364.817 Y349.237
N16745 G1 X364.846 Y349.231
N16750 G1 X365.626 Y349.07
N16755 G1 X365.657 Y349.064
N16760 G1 X366.501 Y348.88
N16765 G1 X366.53 Y348.873
N16770 G1 X367.226 Y348.715
N16775 G1 X367.253 Y348.708
N16780 G1 X367.945 Y348.544
N16785 G1 X367.972 Y348.537
N16790 G1 X368.66 Y348.366
N16795 G1 X368.688 Y348.359
N16800 G1 X369.372 Y348.183
N16805 G1 X369.4 Y348.176
N16810 G1 X370.081 Y347.993
N16815 G1 X370.109 Y347.985
N16820 G1 X370.786 Y347.797
N16825 G1 X370.814 Y347.789
N16830 G1 X371.487 Y347.594
N16835 G1 X371.516 Y347.585
N16840 G1 X372.185 Y347.385
N16845 G1 X372.214 Y347.376
N16850 G1 X372.88 Y347.169
N16855 G1 X372.908 Y347.16
N16860 G1 X373.571 Y346.947
N16865 G1 X373.599 Y346.937
N16870 G1 X374.258 Y346.718
N16875 G1 X374.287 Y346.708
N16880 G1 X374.941 Y346.483
N16885 G1 X374.971 Y346.472
N16890 G1 X375.621 Y346.241
N16895 G1 X375.651 Y346.23
N16900 G1 X376.298 Y345.992
N16905 G1 X376.327 Y345.981
N16910 G1 X376.97 Y345.737
N16915 G1 X377 Y345.725
N16920 G1 X377.639 Y345.475
N16925 G1 X377.669 Y345.463
N16930 G1 X378.305 Y345.206
N16935 G1 X378.334 Y345.194
N16940 G1 X378.966 Y344.93
N16945 G1 X378.996 Y344.918
N16950 G1 X379.624 Y344.648
N16955 G1 X379.654 Y344.635
N16960 G1 X380.278 Y344.359
N16965 G1 X380.308 Y344.345
N16970 G1 X380.928 Y344.063
N16975 G1 X380.958 Y344.049
N16980 G1 X381.574 Y343.759
N16985 G1 X381.604 Y343.745
N16990 G1 X382.216 Y343.449
N16995 G1 X382.246 Y343.435
N17000 G1 X382.855 Y343.132
N17005 G1 X382.885 Y343.117
N17010 G1 X383.489 Y342.808
N17015 G1 X383.519 Y342.793
N17020 G1 X384.119 Y342.477
N17025 G1 X384.15 Y342.461
N17030 G1 X384.746 Y342.139
N17035 G1 X384.776 Y342.122
N17040 G1 X385.368 Y341.794
N17045 G1 X385.399 Y341.777
N17050 G1 X385.987 Y341.441
N17055 G1 X386.017 Y341.424
N17060 G1 X386.601 Y341.081
N17065 G1 X386.631 Y341.063
N17070 G1 X387.211 Y340.714
N17075 G1 X387.241 Y340.696
N17080 G1 X387.817 Y340.34
N17085 G1 X387.847 Y340.321
N17090 G1 X388.419 Y339.959
N17095 G1 X388.449 Y339.939
N17100 G1 X389.017 Y339.57
N17105 G1 X389.047 Y339.55
N17110 G1 X389.61 Y339.173
N17115 G1 X389.631 Y339.16
N17120 G1 X389.85 Y339.011
N17125 G1 X389.871 Y338.996
N17130 G1 X390.434 Y338.606
N17135 G1 X390.464 Y338.585
N17140 G1 X391.021 Y338.189
N17145 G1 X391.051 Y338.168
N17150 G1 X391.603 Y337.766
N17155 G1 X391.632 Y337.744
N17160 G1 X392.178 Y337.336
N17165 G1 X392.207 Y337.314
N17170 G1 X392.748 Y336.899
N17175 G1 X392.777 Y336.877
N17180 G1 X393.312 Y336.456
N17185 G1 X393.34 Y336.433
N17190 G1 X393.87 Y336.006
N17195 G1 X393.898 Y335.983
N17200 G1 X394.423 Y335.55
N17205 G1 X394.45 Y335.527
N17210 G1 X394.969 Y335.087
N17215 G1 X394.997 Y335.064
N17220 G1 X395.511 Y334.618
N17225 G1 X395.538 Y334.594
N17230 G1 X396.046 Y334.142
N17235 G1 X396.073 Y334.118
N17240 G1 X396.576 Y333.659
N17245 G1 X396.603 Y333.635
N17250 G1 X397.101 Y333.17
N17255 G1 X397.127 Y333.145
N17260 G1 X397.62 Y332.674
N17265 G1 X397.646 Y332.649
N17270 G1 X398.133 Y332.172
N17275 G1 X398.159 Y332.147
N17280 G1 X398.641 Y331.663
N17285 G1 X398.667 Y331.637
N17290 G1 X399.144 Y331.147
N17295 G1 X399.169 Y331.121
N17300 G1 X399.641 Y330.624
N17305 G1 X399.666 Y330.598
N17310 G1 X400.133 Y330.095
N17315 G1 X400.157 Y330.068
N17320 G1 X400.62 Y329.558
N17325 G1 X400.643 Y329.532
N17330 G1 X401.101 Y329.015
N17335 G1 X401.124 Y328.989
N17340 G1 X401.577 Y328.465
N17345 G1 X401.6 Y328.438
N17350 G1 X402.047 Y327.908
N17355 G1 X402.07 Y327.881
N17360 G1 X402.512 Y327.344
N17365 G1 X402.534 Y327.317
N17370 G1 X402.972 Y326.773
N17375 G1 X402.989 Y326.752
N17380 G1 X403.129 Y326.575
N17385 G1 X403.654 Y326.041
N17390 G1 X403.672 Y326.022
N17395 G1 X404.303 Y325.369
N17400 G1 X404.321 Y325.35
N17405 G1 X404.945 Y324.692
N17410 G1 X404.964 Y324.673
N17415 G1 X405.581 Y324.01
N17420 G1 X405.592 Y323.998
N17425 G1 X405.745 Y323.833
N17430 G1 X405.755 Y323.821
N17435 G1 X406.324 Y323.198
N17440 G1 X406.341 Y323.179
N17445 G1 X406.902 Y322.552
N17450 G1 X406.919 Y322.533
N17455 G1 X407.474 Y321.903
N17460 G1 X407.491 Y321.884
N17465 G1 X408.04 Y321.25
N17470 G1 X408.057 Y321.231
N17475 G1 X408.599 Y320.594
N17480 G1 X408.615 Y320.574
N17485 G1 X409.151 Y319.934
N17490 G1 X409.167 Y319.914
N17495 G1 X409.696 Y319.271
N17500 G1 X409.713 Y319.25
N17505 G1 X410.234 Y318.603
N17510 G1 X410.251 Y318.583
N17515 G1 X410.766 Y317.932
N17520 G1 X410.783 Y317.911
N17525 G1 X411.291 Y317.258
N17530 G1 X411.308 Y317.236
N17535 G1 X411.81 Y316.579
N17540 G1 X411.826 Y316.558
N17545 G1 X412.321 Y315.897
N17550 G1 X412.337 Y315.875
N17555 G1 X412.826 Y315.211
N17560 G1 X412.842 Y315.189
N17565 G1 X413.323 Y314.522
N17570 G1 X413.339 Y314.5
N17575 G1 X413.814 Y313.829
N17580 G1 X413.83 Y313.806
N17585 G1 X414.298 Y313.132
N17590 G1 X414.314 Y313.109
N17595 G1 X414.775 Y312.431
N17600 G1 X414.79 Y312.408
N17605 G1 X415.245 Y311.726
N17610 G1 X415.26 Y311.703
N17615 G1 X415.708 Y311.018
N17620 G1 X415.723 Y310.994
N17625 G1 X416.164 Y310.306
N17630 G1 X416.179 Y310.282
N17635 G1 X416.613 Y309.59
N17640 G1 X416.628 Y309.566
N17645 G1 X417.055 Y308.871
N17650 G1 X417.069 Y308.846
N17655 G1 X417.489 Y308.147
N17660 G1 X417.504 Y308.123
N17665 G1 X417.917 Y307.42
N17670 G1 X417.931 Y307.395
N17675 G1 X418.337 Y306.689
N17680 G1 X418.352 Y306.664
N17685 G1 X418.751 Y305.954
N17690 G1 X418.765 Y305.929
N17695 G1 X419.157 Y305.216
N17700 G1 X419.171 Y305.19
N17705 G1 X419.556 Y304.473
N17710 G1 X419.57 Y304.447
N17715 G1 X419.948 Y303.727
N17720 G1 X419.961 Y303.701
N17725 G1 X420.332 Y302.977
N17730 G1 X420.345 Y302.951
N17735 G1 X420.709 Y302.223
N17740 G1 X420.722 Y302.197
N17745 G1 X421.079 Y301.465
N17750 G1 X421.092 Y301.439
N17755 G1 X421.441 Y300.703
N17760 G1 X421.454 Y300.677
N17765 G1 X421.797 Y299.938
N17770 G1 X421.809 Y299.911
N17775 G1 X422.144 Y299.169
N17780 G1 X422.156 Y299.142
N17785 G1 X422.485 Y298.395
N17790 G1 X422.496 Y298.368
N17795 G1 X422.818 Y297.618
N17800 G1 X422.829 Y297.591
N17805 G1 X423.143 Y296.837
N17810 G1 X423.15 Y296.82
N17815 G1 X423.231 Y296.623
N17820 G1 X423.238 Y296.605
N17825 G1 X423.547 Y295.837
N17830 G1 X423.558 Y295.809
N17835 G1 X423.859 Y295.038
N17840 G1 X423.87 Y295.009
N17845 G1 X424.162 Y294.236
N17850 G1 X424.173 Y294.208
N17855 G1 X424.458 Y293.431
N17860 G1 X424.468 Y293.403
N17865 G1 X424.745 Y292.624
N17870 G1 X424.755 Y292.596
N17875 G1 X425.025 Y291.814
N17880 G1 X425.034 Y291.785
N17885 G1 X425.296 Y291.001
N17890 G1 X425.305 Y290.972
N17895 G1 X425.559 Y290.185
N17900 G1 X425.568 Y290.156
N17905 G1 X425.814 Y289.366
N17910 G1 X425.823 Y289.338
N17915 G1 X426.062 Y288.544
N17920 G1 X426.07 Y288.516
N17925 G1 X426.301 Y287.72
N17930 G1 X426.309 Y287.691
N17935 G1 X426.532 Y286.892
N17940 G1 X426.54 Y286.863
N17945 G1 X426.755 Y286.061
N17950 G1 X426.762 Y286.032
N17955 G1 X426.97 Y285.227
N17960 G1 X426.977 Y285.199
N17965 G1 X427.177 Y284.39
N17970 G1 X427.184 Y284.362
N17975 G1 X427.376 Y283.55
N17980 G1 X427.383 Y283.521
N17985 G1 X427.568 Y282.707
N17990 G1 X427.574 Y282.678
N17995 G1 X427.751 Y281.86
N18000 G1 X427.757 Y281.832
N18005 G1 X427.926 Y281.01
N18010 G1 X427.932 Y280.982
N18015 G1 X428.094 Y280.157
N18020 G1 X428.099 Y280.129
N18025 G1 X428.253 Y279.301
N18030 G1 X428.258 Y279.273
N18035 G1 X428.405 Y278.441
N18040 G1 X428.41 Y278.413
N18045 G1 X428.549 Y277.578
N18050 G1 X428.553 Y277.55
N18055 G1 X428.684 Y276.712
N18060 G1 X428.688 Y276.685
N18065 G1 X428.799 Y275.935
N18070 G1 X428.803 Y275.908
N18075 G1 X428.922 Y275.043
N18080 G1 X428.926 Y275.014
N18085 G1 X429.037 Y274.146
N18090 G1 X429.041 Y274.117
N18095 G1 X429.144 Y273.246
N18100 G1 X429.147 Y273.217
N18105 G1 X429.242 Y272.343
N18110 G1 X429.245 Y272.315
N18115 G1 X429.332 Y271.438
N18120 G1 X429.334 Y271.409
N18125 G1 X429.413 Y270.529
N18130 G1 X429.415 Y270.501
N18135 G1 X429.486 Y269.617
N18140 G1 X429.488 Y269.589
N18145 G1 X429.551 Y268.703
N18150 G1 X429.553 Y268.675
N18155 G1 X429.607 Y267.785
N18160 G1 X429.609 Y267.758
N18165 G1 X429.655 Y266.865
N18170 G1 X429.656 Y266.837
N18175 G1 X429.695 Y265.941
N18180 G1 X429.696 Y265.913
N18185 G1 X429.726 Y265.014
N18190 G1 X429.727 Y264.987
N18195 G1 X429.749 Y264.084
N18200 G1 Y264.057
N18205 G1 X429.763 Y263.15
N18210 G1 X429.764 Y263.123
N18215 G1 X429.77 Y262.214
N18220 G1 Y262.187
N18225 G1 X429.768 Y261.274
N18230 G1 Y261.257
N18235 G1 X429.766 Y261.069
N18240 G1 Y181.624
N18245 G1 Y179.044
N18250 G1 Y176.465
N18255 G1 Y173.887
N18260 G1 Y171.311
N18265 G1 Y168.736
N18270 G1 Y168.266
N18275 G2 X429.746 Y167.923 I-3 J0
N18280 G1 X429.6 Y166.65
N18285 G1 X429.599 Y166.642
N18290 G1 X429.45 Y165.377
N18295 G1 X429.449 Y165.369
N18300 G1 X429.298 Y164.112
N18305 G1 X429.297 Y164.103
N18310 G1 X429.143 Y162.854
N18315 G1 X429.142 Y162.845
N18320 G1 X428.985 Y161.604
N18325 G1 X428.984 Y161.595
N18330 G1 X428.825 Y160.363
N18335 G1 X428.824 Y160.353
N18340 G1 X428.661 Y159.129
N18345 G1 X428.66 Y159.119
N18350 G1 X428.495 Y157.903
N18355 G1 X428.494 Y157.893
N18360 G1 X428.326 Y156.685
N18365 G1 X428.325 Y156.675
N18370 G1 X428.154 Y155.475
N18375 G1 X428.153 Y155.465
N18380 G1 X427.979 Y154.273
N18385 G1 X427.978 Y154.262
N18390 G1 X427.801 Y153.079
N18395 G1 X427.799 Y153.068
N18400 G1 X427.62 Y151.893
N18405 G1 X427.618 Y151.882
N18410 G1 X427.435 Y150.715
N18415 G1 X427.433 Y150.704
N18420 G1 X427.247 Y149.545
N18425 G1 X427.245 Y149.534
N18430 G1 X427.056 Y148.383
N18435 G1 X427.054 Y148.372
N18440 G1 X426.862 Y147.23
N18445 G1 X426.86 Y147.218
N18450 G1 X426.664 Y146.084
N18455 G1 X426.661 Y146.072
N18460 G1 X426.462 Y144.947
N18465 G1 X426.46 Y144.934
N18470 G1 X426.257 Y143.818
N18475 G1 X426.254 Y143.805
N18480 G1 X426.048 Y142.697
N18485 G1 X426.045 Y142.683
N18490 G1 X425.835 Y141.585
N18495 G1 X425.832 Y141.57
N18500 G1 X425.618 Y140.48
N18505 G1 X425.615 Y140.466
N18510 G1 X425.397 Y139.384
N18515 G1 X425.394 Y139.369
N18520 G1 X425.172 Y138.296
N18525 G1 X425.169 Y138.281
N18530 G1 X424.942 Y137.217
N18535 G1 X424.939 Y137.201
N18540 G1 X424.709 Y136.146
N18545 G1 X424.705 Y136.129
N18550 G1 X424.47 Y135.083
N18555 G1 X424.466 Y135.066
N18560 G1 X424.227 Y134.028
N18565 G1 X424.223 Y134.011
N18570 G1 X423.98 Y132.982
N18575 G1 X423.975 Y132.964
N18580 G1 X423.727 Y131.945
N18585 G1 X423.722 Y131.926
N18590 G1 X423.469 Y130.916
N18595 G1 X423.464 Y130.896
N18600 G1 X423.206 Y129.895
N18605 G1 X423.201 Y129.874
N18610 G1 X422.938 Y128.883
N18615 G1 X422.932 Y128.861
N18620 G1 X422.663 Y127.879
N18625 G1 X422.657 Y127.857
N18630 G1 X422.383 Y126.884
N18635 G1 X422.378 Y126.867
N18640 G1 X422.246 Y126.408
N18645 G1 X422.242 Y126.395
N18650 G1 X422.048 Y125.729
N18655 G1 X422.043 Y125.713
N18660 G1 X421.845 Y125.051
N18665 G1 X421.84 Y125.034
N18670 G1 X421.639 Y124.378
N18675 G1 X421.634 Y124.361
N18680 G1 X421.43 Y123.709
N18685 G1 X421.424 Y123.691
N18690 G1 X421.218 Y123.044
N18695 G1 X421.212 Y123.025
N18700 G1 X421.002 Y122.383
N18705 G1 X420.996 Y122.364
N18710 G1 X420.783 Y121.726
N18715 G1 X420.777 Y121.707
N18720 G1 X420.56 Y121.073
N18725 G1 X420.554 Y121.053
N18730 G1 X420.334 Y120.425
N18735 G1 X420.327 Y120.404
N18740 G1 X420.104 Y119.78
