%
(OutlineBottom1)
(OutlineBottom1)
(T1 D=6 CR=0 - ZMIN=-14 - flat end mill)
N10 G90 G94
N15 G17
N20 G21
N25 G28 G91 Z0
N30 G90

(OutlineBottom1)
N35 T1 M6
N40 S14000 M3
N45 G54
N50 G0 X96.198 Y126.749
N55 G0 G43 Z15 H1
N60 G0 Z1
N65 G1 Z-2 F333.3
N70 G1 Z-5.9
N75 G1 X96.2 Y126.742 Z-5.994 F1000
N80 G1 X96.205 Y126.72 Z-6.085
N85 G1 X96.214 Y126.685 Z-6.172
N90 G1 X96.226 Y126.638 Z-6.253
N95 G1 X96.24 Y126.578 Z-6.324
N100 G1 X96.258 Y126.509 Z-6.385
N105 G1 X96.277 Y126.431 Z-6.435
N110 G1 X96.298 Y126.346 Z-6.471
N115 G1 X96.32 Y126.258 Z-6.493
N120 G1 X96.343 Y126.167 Z-6.5
N125 G1 X96.489 Y125.584
N130 G3 X97.216 Y125.148 I0.582 J0.145
N135 G1 X97.242 Y125.154 F420
N140 G1 X97.652 Y125.253
N145 G1 X97.711 Y125.266
N150 G1 X98.126 Y125.357
N155 G1 X98.184 Y125.369
N160 G1 X98.604 Y125.452
N165 G1 X98.662 Y125.463
N170 G1 X99.087 Y125.539
N175 G1 X99.143 Y125.548
N180 G1 X99.574 Y125.616
N185 G1 X99.629 Y125.625
N190 G1 X100.065 Y125.685
N195 G1 X100.12 Y125.692
N200 G1 X100.56 Y125.745
N205 G1 X100.613 Y125.751
N210 G1 X101.044 Y125.795
N215 G2 X101.733 Y125.786 I0.305 J-2.984
N220 G1 X101.929 Y125.761
N225 G1 X102.101 Y125.744
N230 G1 X102.304 Y125.73
N235 G1 X102.537 Y125.721
N240 G1 X102.8 Y125.717
N245 G1 X103.092 Y125.719
N250 G1 X103.414 Y125.729
N255 G1 X103.765 Y125.746
N260 G1 X104.146 Y125.772
N265 G1 X104.554 Y125.808
N270 G1 X104.99 Y125.853
N275 G1 X105.452 Y125.908
N280 G1 X105.989 Y125.982
N285 G1 X106.543 Y126.066
N290 G1 X107.112 Y126.161
N295 G1 X107.695 Y126.267
N300 G1 X108.291 Y126.384
N305 G1 X108.899 Y126.511
N310 G1 X109.517 Y126.648
N315 G1 X110.15 Y126.796
N320 G1 X110.292 Y126.831
N325 G1 X110.894 Y126.981
N330 G1 X111.486 Y127.135
N335 G1 X112.074 Y127.296
N340 G1 X112.658 Y127.461
N345 G1 X113.238 Y127.632
N350 G1 X113.814 Y127.807
N355 G1 X114.385 Y127.987
N360 G1 X114.952 Y128.172
N365 G1 X115.514 Y128.361
N370 G1 X116.07 Y128.555
N375 G1 X116.622 Y128.752
N380 G1 X117.168 Y128.954
N385 G1 X117.709 Y129.16
N390 G1 X118.245 Y129.37
N395 G1 X118.774 Y129.584
N400 G1 X119.298 Y129.801
N405 G1 X119.816 Y130.023
N410 G1 X120.327 Y130.248
N415 G1 X120.833 Y130.477
N420 G1 X121.332 Y130.709
N425 G1 X121.824 Y130.946
N430 G1 X122.309 Y131.186
N435 G1 X122.788 Y131.429
N440 G1 X123.259 Y131.676
N445 G1 X123.723 Y131.927
N450 G1 X124.18 Y132.182
N455 G1 X124.629 Y132.44
N460 G1 X125.072 Y132.703
N465 G1 X125.39 Y132.897
N470 G1 X125.776 Y133.139
N475 G1 X126.153 Y133.383
N480 G1 X126.524 Y133.631
N485 G1 X126.89 Y133.883
N490 G1 X127.25 Y134.139
N495 G1 X127.604 Y134.4
N500 G1 X127.954 Y134.665
N505 G1 X128.297 Y134.934
N510 G1 X128.635 Y135.207
N515 G1 X128.968 Y135.485
N520 G1 X129.295 Y135.767
N525 G1 X129.617 Y136.054
N530 G1 X129.933 Y136.344
N535 G1 X130.244 Y136.64
N540 G1 X130.549 Y136.94
N545 G1 X130.849 Y137.244
N550 G1 X131.143 Y137.553
N555 G1 X131.432 Y137.866
N560 G1 X131.717 Y138.187
N565 G1 X131.911 Y138.411
N570 G1 X132.19 Y138.744
N575 G1 X132.46 Y139.076
N580 G1 X132.723 Y139.413
N585 G1 X132.979 Y139.752
N590 G1 X133.229 Y140.095
N595 G1 X133.472 Y140.441
N600 G1 X133.709 Y140.791
N605 G1 X133.939 Y141.144
N610 G1 X134.163 Y141.501
N615 G1 X134.38 Y141.862
N620 G1 X134.592 Y142.226
N625 G1 X134.797 Y142.594
N630 G1 X134.995 Y142.965
N635 G1 X135.188 Y143.341
N640 G1 X135.375 Y143.72
N645 G1 X135.555 Y144.103
N650 G1 X135.729 Y144.49
N655 G1 X135.897 Y144.881
N660 G1 X136.059 Y145.276
N665 G1 X136.215 Y145.675
N670 G1 X136.365 Y146.078
N675 G1 X136.509 Y146.488
N680 G1 X136.621 Y146.823
N685 G1 X136.762 Y147.266
N690 G1 X136.894 Y147.709
N695 G1 X137.019 Y148.154
N700 G1 X137.136 Y148.602
N705 G1 X137.245 Y149.053
N710 G1 X137.347 Y149.507
N715 G1 X137.442 Y149.963
N720 G1 X137.529 Y150.422
N725 G1 X137.608 Y150.884
N730 G1 X137.681 Y151.348
N735 G1 X137.746 Y151.816
N740 G1 X137.803 Y152.285
N745 G1 X137.854 Y152.758
N750 G1 X137.897 Y153.233
N755 G1 X137.932 Y153.711
N760 G1 X137.961 Y154.191
N765 G1 X137.981 Y154.674
N770 G1 X137.995 Y155.159
N775 G1 X138.001 Y155.647
N780 G1 X137.999 Y156.137
N785 G1 X137.991 Y156.63
N790 G1 X137.974 Y157.125
N795 G1 X137.95 Y157.622
N800 G1 X137.919 Y158.123
N805 G1 X137.884 Y158.567
N810 G1 X137.836 Y159.09
N815 G1 X137.781 Y159.612
N820 G1 X137.717 Y160.132
N825 G1 X137.646 Y160.652
N830 G1 X137.567 Y161.171
N835 G1 X137.48 Y161.689
N840 G1 X137.386 Y162.206
N845 G1 X137.284 Y162.721
N850 G1 X137.175 Y163.235
N855 G1 X137.059 Y163.747
N860 G1 X136.935 Y164.257
N865 G1 X136.804 Y164.765
N870 G1 X136.666 Y165.271
N875 G1 X136.521 Y165.774
N880 G1 X136.369 Y166.276
N885 G1 X136.21 Y166.776
N890 G1 X136.043 Y167.273
N895 G1 X135.87 Y167.768
N900 G1 X135.689 Y168.261
N905 G1 X135.501 Y168.751
N910 G1 X135.307 Y169.239
N915 G1 X135.105 Y169.725
N920 G1 X134.895 Y170.211
N925 G1 X134.738 Y170.561
N930 G1 X134.515 Y171.045
N935 G1 X134.286 Y171.521
N940 G1 X134.051 Y171.994
N945 G1 X133.81 Y172.464
N950 G1 X133.561 Y172.929
N955 G1 X133.307 Y173.39
N960 G1 X133.046 Y173.848
N965 G1 X132.779 Y174.302
N970 G1 X132.505 Y174.752
N975 G1 X132.225 Y175.198
N980 G1 X131.939 Y175.64
N985 G1 X131.646 Y176.078
N990 G1 X131.342 Y176.519
N995 G1 X131.303 Y176.575
N1000 G1 X130.991 Y177.011
N1005 G1 X130.679 Y177.436
N1010 G1 X130.362 Y177.855
N1015 G1 X130.038 Y178.27
N1020 G1 X129.709 Y178.679
N1025 G1 X129.375 Y179.084
N1030 G1 X129.035 Y179.484
N1035 G1 X128.689 Y179.879
N1040 G1 X128.337 Y180.269
N1045 G1 X127.977 Y180.657
N1050 G1 X127.774 Y180.871
N1055 G3 X125.646 Y181.778 I-2.128 J-2.043
N1060 G1 X90.253
N1065 G2 X81.303 Y190.728 I0 J8.95
N1070 G1 Y226.54
N1075 G2 X87.252 Y234.972 I8.95 J0
N1080 G1 X87.651 Y235.114
N1085 G1 X88.032 Y235.251
N1090 G1 X88.398 Y235.385
N1095 G1 X88.749 Y235.518
N1100 G1 X89.086 Y235.65
N1105 G1 X89.412 Y235.782
N1110 G1 X89.726 Y235.916
N1115 G1 X90.031 Y236.052
N1120 G1 X90.326 Y236.189
N1125 G1 X90.612 Y236.33
N1130 G1 X90.898 Y236.478
N1135 G1 X91.03 Y236.549
N1140 G1 X91.298 Y236.699
N1145 G1 X91.553 Y236.849
N1150 G1 X91.802 Y237.004
N1155 G1 X92.046 Y237.162
N1160 G1 X92.285 Y237.326
N1165 G1 X92.52 Y237.494
N1170 G1 X92.75 Y237.668
N1175 G1 X92.978 Y237.848
N1180 G1 X93.202 Y238.033
N1185 G1 X93.423 Y238.225
N1190 G1 X93.642 Y238.424
N1195 G1 X93.858 Y238.629
N1200 G1 X94.072 Y238.842
N1205 G1 X94.286 Y239.064
N1210 G1 X94.465 Y239.257
N1215 G1 X94.69 Y239.51
N1220 G1 X94.91 Y239.769
N1225 G1 X95.128 Y240.038
N1230 G1 X95.344 Y240.316
N1235 G1 X95.558 Y240.603
N1240 G1 X95.77 Y240.901
N1245 G1 X95.98 Y241.208
N1250 G1 X96.188 Y241.525
N1255 G1 X96.395 Y241.853
N1260 G1 X96.535 Y242.086
N1265 G1 X96.588 Y242.292
N1270 G1 X96.734 Y242.895
N1275 G1 X96.857 Y243.429
N1280 G1 X96.97 Y243.945
N1285 G1 X97.077 Y244.459
N1290 G1 X97.178 Y244.972
N1295 G1 X97.272 Y245.482
N1300 G1 X97.36 Y245.991
N1305 G1 X97.441 Y246.498
N1310 G1 X97.516 Y247.003
N1315 G1 X97.585 Y247.507
N1320 G1 X97.647 Y248.008
N1325 G1 X97.703 Y248.508
N1330 G1 X97.751 Y249.005
N1335 G1 X97.794 Y249.501
N1340 G1 X97.829 Y249.995
N1345 G1 X97.858 Y250.487
N1350 G1 X97.881 Y250.978
N1355 G1 X97.896 Y251.466
N1360 G1 X97.905 Y251.952
N1365 G1 X97.907 Y252.437
N1370 G1 X97.902 Y252.92
N1375 G1 X97.89 Y253.401
N1380 G1 X97.871 Y253.88
N1385 G1 X97.845 Y254.357
N1390 G1 X97.811 Y254.832
N1395 G1 X97.771 Y255.31
N1400 G1 X97.741 Y255.615
N1405 G1 X97.691 Y256.068
N1410 G1 X97.634 Y256.515
N1415 G1 X97.572 Y256.959
N1420 G1 X97.502 Y257.4
N1425 G1 X97.426 Y257.839
N1430 G1 X97.344 Y258.274
N1435 G1 X97.255 Y258.707
N1440 G1 X97.159 Y259.137
N1445 G1 X97.057 Y259.564
N1450 G1 X96.949 Y259.989
N1455 G1 X96.833 Y260.411
N1460 G1 X96.712 Y260.83
N1465 G1 X96.583 Y261.247
N1470 G1 X96.448 Y261.661
N1475 G1 X96.306 Y262.072
N1480 G1 X96.158 Y262.481
N1485 G1 X96.003 Y262.888
N1490 G1 X95.841 Y263.292
N1495 G1 X95.672 Y263.693
N1500 G1 X95.497 Y264.092
N1505 G1 X95.31 Y264.497
N1510 G1 X95.279 Y264.564
N1515 G1 X95.078 Y264.978
N1520 G1 X94.875 Y265.379
N1525 G1 X94.665 Y265.777
N1530 G1 X94.448 Y266.171
N1535 G1 X94.225 Y266.561
N1540 G1 X93.995 Y266.948
N1545 G1 X93.758 Y267.332
N1550 G1 X93.514 Y267.713
N1555 G1 X93.263 Y268.09
N1560 G1 X93.005 Y268.465
N1565 G1 X92.74 Y268.836
N1570 G1 X92.468 Y269.204
N1575 G1 X92.189 Y269.57
N1580 G1 X91.902 Y269.933
N1585 G1 X91.609 Y270.292
N1590 G1 X91.308 Y270.649
N1595 G1 X90.999 Y271.003
N1600 G1 X90.684 Y271.355
N1605 G1 X90.36 Y271.704
N1610 G1 X90.025 Y272.055
N1615 G1 X89.904 Y272.178
N1620 G1 X89.537 Y272.545
N1625 G1 X89.168 Y272.903
N1630 G1 X88.792 Y273.257
N1635 G1 X88.408 Y273.607
N1640 G1 X88.016 Y273.953
N1645 G1 X87.616 Y274.294
N1650 G1 X87.209 Y274.633
N1655 G1 X86.794 Y274.967
N1660 G1 X86.371 Y275.297
N1665 G1 X85.94 Y275.624
N1670 G1 X85.502 Y275.946
N1675 G1 X85.055 Y276.265
N1680 G1 X84.601 Y276.58
N1685 G1 X84.138 Y276.891
N1690 G1 X83.668 Y277.198
N1695 G1 X83.19 Y277.502
N1700 G1 X82.701 Y277.802
N1705 G1 X82.353 Y278.011
N1710 G1 X81.803 Y278.332
N1715 G1 X81.248 Y278.646
N1720 G1 X80.686 Y278.954
N1725 G1 X80.116 Y279.256
N1730 G1 X79.538 Y279.552
N1735 G1 X78.953 Y279.842
N1740 G1 X78.36 Y280.126
N1745 G1 X77.76 Y280.405
N1750 G1 X77.152 Y280.678
N1755 G1 X76.538 Y280.944
N1760 G1 X75.916 Y281.205
N1765 G1 X75.287 Y281.46
N1770 G1 X74.651 Y281.709
N1775 G1 X74.009 Y281.952
N1780 G1 X73.359 Y282.188
N1785 G1 X72.703 Y282.419
N1790 G1 X72.041 Y282.644
N1795 G1 X71.372 Y282.862
N1800 G1 X70.696 Y283.074
N1805 G1 X70.015 Y283.28
N1810 G1 X69.327 Y283.479
N1815 G1 X68.634 Y283.672
N1820 G1 X67.935 Y283.858
N1825 G1 X67.251 Y284.033
N1830 G1 X66.535 Y284.208
N1835 G1 X65.814 Y284.376
N1840 G1 X65.09 Y284.536
N1845 G1 X64.362 Y284.69
N1850 G1 X63.63 Y284.836
N1855 G1 X62.89 Y284.976
N1860 G1 X62.754 Y285.001
N1865 G1 X61.392 Y285.189
N1870 G1 X61.378 Y285.191
N1875 G1 X59.966 Y285.392
N1880 G1 X59.952 Y285.394
N1885 G1 X58.553 Y285.6
N1890 G1 X58.539 Y285.602
N1895 G1 X57.155 Y285.813
N1900 G1 X57.14 Y285.815
N1905 G1 X55.77 Y286.031
N1910 G1 X55.754 Y286.034
N1915 G1 X54.4 Y286.255
N1920 G1 X54.383 Y286.258
N1925 G1 X53.043 Y286.484
N1930 G1 X53.033 Y286.486
N1935 G1 X52.831 Y286.521
N1940 G1 X52.823 Y286.522
N1945 G1 X51.796 Y286.703
N1950 G1 X51.782 Y286.705
N1955 G1 X50.766 Y286.889
N1960 G1 X50.751 Y286.892
N1965 G1 X49.745 Y287.078
N1970 G1 X49.73 Y287.081
N1975 G1 X48.735 Y287.272
N1980 G1 X48.718 Y287.275
N1985 G1 X47.734 Y287.469
N1990 G1 X47.717 Y287.472
N1995 G1 X46.744 Y287.67
N2000 G1 X46.726 Y287.674
N2005 G1 X45.763 Y287.876
N2010 G1 X45.745 Y287.88
N2015 G1 X44.793 Y288.085
N2020 G1 X44.774 Y288.089
N2025 G1 X43.834 Y288.299
N2030 G1 X43.813 Y288.304
N2035 G1 X42.884 Y288.518
N2040 G1 X42.863 Y288.523
N2045 G1 X41.945 Y288.742
N2050 G1 X41.922 Y288.747
N2055 G1 X41.017 Y288.971
N2060 G1 X40.993 Y288.977
N2065 G1 X40.099 Y289.205
N2070 G1 X40.079 Y289.21
N2075 G1 X39.581 Y289.341
N2080 G1 X39.566 Y289.345
N2085 G1 X39.034 Y289.488
N2090 G1 X39.017 Y289.492
N2095 G1 X38.49 Y289.637
N2100 G1 X38.473 Y289.641
N2105 G1 X37.952 Y289.788
N2110 G1 X37.935 Y289.793
N2115 G1 X37.419 Y289.941
N2120 G1 X37.401 Y289.946
N2125 G1 X36.892 Y290.096
N2130 G1 X36.873 Y290.101
N2135 G1 X36.369 Y290.253
N2140 G1 X36.35 Y290.259
N2145 G1 X35.852 Y290.412
N2150 G1 X35.832 Y290.418
N2155 G1 X35.34 Y290.574
N2160 G1 X35.319 Y290.58
N2165 G1 X34.833 Y290.738
N2170 G1 X34.812 Y290.745
N2175 G1 X34.332 Y290.904
N2180 G1 X34.31 Y290.912
N2185 G1 X33.836 Y291.074
N2190 G1 X33.813 Y291.082
N2195 G1 X33.345 Y291.246
N2200 G1 X33.321 Y291.254
N2205 G1 X32.86 Y291.42
N2210 G1 X32.835 Y291.429
N2215 G1 X32.38 Y291.598
N2220 G1 X32.354 Y291.608
N2225 G1 X31.905 Y291.779
N2230 G1 X31.878 Y291.789
N2235 G1 X31.436 Y291.962
N2240 G1 X31.407 Y291.974
N2245 G1 X30.972 Y292.15
N2250 G1 X30.942 Y292.162
N2255 G1 X30.514 Y292.341
N2260 G1 X30.482 Y292.354
N2265 G1 X30.061 Y292.535
N2270 G1 X30.028 Y292.55
N2275 G1 X29.613 Y292.734
N2280 G1 X29.579 Y292.75
N2285 G1 X29.171 Y292.937
N2290 G1 X29.135 Y292.954
N2295 G1 X28.734 Y293.145
N2300 G1 X28.696 Y293.163
N2305 G1 X28.302 Y293.357
N2310 G1 X28.262 Y293.377
N2315 G1 X27.876 Y293.575
N2320 G1 X27.834 Y293.596
N2325 G1 X27.455 Y293.798
N2330 G1 X27.411 Y293.822
N2335 G1 X27.04 Y294.027
N2340 G1 X26.994 Y294.053
N2345 G1 X26.63 Y294.263
N2350 G1 X26.588 Y294.287
N2355 G1 X26.331 Y294.442
N2360 G1 X26.293 Y294.465
N2365 G1 X26.024 Y294.631
N2370 G1 X25.983 Y294.657
N2375 G1 X25.72 Y294.825
N2380 G1 X25.677 Y294.853
N2385 G1 X25.42 Y295.024
N2390 G1 X25.376 Y295.054
N2395 G1 X25.125 Y295.227
N2400 G1 X25.08 Y295.26
N2405 G1 X24.835 Y295.436
N2410 G1 X24.787 Y295.47
N2415 G1 X24.549 Y295.649
N2420 G1 X24.499 Y295.687
N2425 G1 X24.267 Y295.868
N2430 G1 X24.216 Y295.909
N2435 G1 X23.991 Y296.094
N2440 G1 X23.938 Y296.138
N2445 G1 X23.719 Y296.325
N2450 G1 X23.664 Y296.374
N2455 G1 X23.452 Y296.564
N2460 G1 X23.395 Y296.617
N2465 G1 X23.191 Y296.811
N2470 G1 X23.132 Y296.869
N2475 G1 X22.935 Y297.066
N2480 G1 X22.895 Y297.106
N2485 G1 X22.836 Y297.168
N2490 G1 X22.8 Y297.207
N2495 G1 X22.638 Y297.382
N2500 G1 X22.583 Y297.441
N2505 G1 X22.428 Y297.618
N2510 G1 X22.373 Y297.683
N2515 G1 X22.224 Y297.862
N2520 G1 X22.169 Y297.931
N2525 G1 X22.027 Y298.113
N2530 G1 X21.97 Y298.187
N2535 G1 X21.836 Y298.371
N2540 G1 X21.779 Y298.451
N2545 G1 X21.652 Y298.638
N2550 G1 X21.595 Y298.723
N2555 G1 X21.475 Y298.912
N2560 G1 X21.426 Y298.993
N2565 G1 X21.338 Y299.142
N2570 G1 X21.269 Y299.264
N2575 G1 X21.089 Y299.604
N2580 G1 X21 Y299.785
N2585 G1 X20.848 Y300.125
N2590 G1 X20.769 Y300.32
N2595 G1 X20.645 Y300.661
N2600 G1 X20.578 Y300.866
N2605 G1 X20.481 Y301.207
N2610 G1 X20.453 Y301.313
N2615 G1 X20.429 Y301.421
N2620 G1 X20.358 Y301.761
N2625 G1 X20.337 Y301.871
N2630 G1 X20.321 Y301.98
N2635 G1 X20.276 Y302.321
N2640 G1 X20.264 Y302.431
N2645 G1 X20.256 Y302.541
N2650 G1 X20.236 Y302.882
N2655 G1 X20.232 Y303.1
N2660 G1 X20.237 Y303.441
N2665 G1 X20.248 Y303.653
N2670 G1 X20.278 Y303.994
N2675 G1 X20.303 Y304.198
N2680 G1 X20.356 Y304.538
N2685 G1 X20.393 Y304.731
N2690 G1 X20.469 Y305.071
N2695 G1 X20.516 Y305.252
N2700 G1 X20.615 Y305.592
N2705 G1 X20.66 Y305.734
N2710 G1 X20.74 Y305.966
N2715 G1 X20.78 Y306.074
N2720 G1 X20.87 Y306.306
N2725 G1 X20.912 Y306.408
N2730 G1 X21.013 Y306.641
N2735 G1 X21.057 Y306.737
N2740 G1 X21.167 Y306.97
N2745 G1 X21.213 Y307.061
N2750 G1 X21.334 Y307.295
N2755 G1 X21.38 Y307.381
N2760 G1 X21.511 Y307.615
N2765 G1 X21.558 Y307.696
N2770 G1 X21.7 Y307.932
N2775 G1 X21.747 Y308.007
N2780 G1 X21.899 Y308.244
N2785 G1 X21.946 Y308.316
N2790 G1 X22.111 Y308.557
N2795 G1 X22.159 Y308.625
N2800 G1 X22.335 Y308.868
N2805 G1 X22.382 Y308.931
N2810 G1 X22.571 Y309.178
N2815 G1 X22.618 Y309.238
N2820 G1 X22.82 Y309.489
N2825 G1 X22.867 Y309.545
N2830 G1 X23.083 Y309.801
N2835 G1 X23.132 Y309.857
N2840 G1 X23.388 Y310.144
N2845 G1 X23.438 Y310.199
N2850 G1 X23.708 Y310.487
N2855 G1 X23.756 Y310.537
N2860 G1 X24.04 Y310.827
N2865 G1 X24.087 Y310.874
N2870 G1 X24.385 Y311.164
N2875 G1 X24.431 Y311.208
N2880 G1 X24.743 Y311.5
N2885 G1 X24.787 Y311.54
N2890 G1 X25.114 Y311.833
N2895 G1 X25.156 Y311.871
N2900 G1 X25.497 Y312.166
N2905 G1 X25.538 Y312.201
N2910 G1 X25.894 Y312.498
N2915 G1 X25.921 Y312.52
N2920 G1 X26.063 Y312.635
N2925 G1 X26.09 Y312.657
N2930 G1 X26.473 Y312.962
N2935 G1 X26.511 Y312.992
N2940 G1 X26.914 Y313.302
N2945 G1 X26.951 Y313.33
N2950 G1 X27.375 Y313.646
N2955 G1 X27.412 Y313.672
N2960 G1 X27.857 Y313.994
N2965 G1 X27.892 Y314.019
N2970 G1 X28.36 Y314.346
N2975 G1 X28.394 Y314.37
N2980 G1 X28.885 Y314.703
N2985 G1 X28.918 Y314.726
N2990 G1 X29.432 Y315.065
N2995 G1 X29.464 Y315.086
N3000 G1 X30.003 Y315.432
N3005 G1 X30.034 Y315.452
N3010 G1 X30.598 Y315.804
N3015 G1 X30.629 Y315.823
N3020 G1 X31.219 Y316.182
N3025 G1 X31.248 Y316.2
N3030 G1 X31.865 Y316.566
N3035 G1 X31.894 Y316.582
N3040 G1 X32.539 Y316.956
N3045 G1 X32.567 Y316.971
N3050 G1 X33.242 Y317.352
N3055 G1 X33.268 Y317.367
N3060 G1 X33.973 Y317.755
N3065 G1 X33.999 Y317.769
N3070 G1 X34.736 Y318.166
N3075 G1 X34.762 Y318.18
N3080 G1 X35.616 Y318.628
N3085 G1 X35.642 Y318.642
N3090 G1 X36.525 Y319.095
N3095 G1 X36.55 Y319.108
N3100 G1 X37.463 Y319.565
N3105 G1 X37.486 Y319.577
N3110 G1 X38.428 Y320.038
N3115 G1 X38.449 Y320.049
N3120 G1 X39.415 Y320.513
N3125 G1 X39.435 Y320.523
N3130 G1 X40.402 Y320.979
N3135 G1 X40.422 Y320.988
N3140 G1 X41.387 Y321.434
N3145 G1 X41.407 Y321.444
N3150 G1 X42.371 Y321.88
N3155 G1 X42.386 Y321.888
N3160 G1 X42.869 Y322.103
N3165 G1 X42.883 Y322.109
N3170 G1 X43.68 Y322.46
N3175 G1 X43.698 Y322.468
N3180 G1 X44.495 Y322.813
N3185 G1 X44.514 Y322.821
N3190 G1 X45.312 Y323.16
N3195 G1 X45.331 Y323.168
N3200 G1 X46.13 Y323.501
N3205 G1 X46.149 Y323.509
N3210 G1 X46.948 Y323.835
N3215 G1 X46.968 Y323.844
N3220 G1 X47.768 Y324.163
N3225 G1 X47.789 Y324.172
N3230 G1 X48.59 Y324.485
N3235 G1 X48.611 Y324.493
N3240 G1 X49.413 Y324.8
N3245 G1 X49.435 Y324.808
N3250 G1 X50.237 Y325.108
N3255 G1 X50.26 Y325.116
N3260 G1 X51.063 Y325.41
N3265 G1 X51.086 Y325.418
N3270 G1 X51.891 Y325.704
N3275 G1 X51.915 Y325.712
N3280 G1 X52.721 Y325.992
N3285 G1 X52.745 Y326
N3290 G1 X53.553 Y326.272
N3295 G1 X53.578 Y326.28
N3300 G1 X54.385 Y326.544
N3305 G1 X54.41 Y326.552
N3310 G1 X55.216 Y326.808
N3315 G1 X55.241 Y326.816
N3320 G1 X56.046 Y327.064
N3325 G1 X56.072 Y327.072
N3330 G1 X56.876 Y327.312
N3335 G1 X56.902 Y327.319
N3340 G1 X57.706 Y327.551
N3345 G1 X57.732 Y327.559
N3350 G1 X58.536 Y327.782
N3355 G1 X58.563 Y327.79
N3360 G1 X59.367 Y328.005
N3365 G1 X59.394 Y328.013
N3370 G1 X60.198 Y328.22
N3375 G1 X60.226 Y328.227
N3380 G1 X61.031 Y328.427
N3385 G1 X61.059 Y328.434
N3390 G1 X61.865 Y328.626
N3395 G1 X61.894 Y328.632
N3400 G1 X62.701 Y328.816
N3405 G1 X62.73 Y328.822
N3410 G1 X63.539 Y328.998
N3415 G1 X63.568 Y329.004
N3420 G1 X64.379 Y329.173
N3425 G1 X64.408 Y329.178
N3430 G1 X65.222 Y329.339
N3435 G1 X65.251 Y329.344
N3440 G1 X66.068 Y329.497
N3445 G1 X66.097 Y329.502
N3450 G1 X66.917 Y329.647
N3455 G1 X66.946 Y329.652
N3460 G1 X67.77 Y329.789
N3465 G1 X67.799 Y329.793
N3470 G1 X68.627 Y329.922
N3475 G1 X68.656 Y329.927
N3480 G1 X69.489 Y330.048
N3485 G1 X69.518 Y330.052
N3490 G1 X70.355 Y330.166
N3495 G1 X70.385 Y330.17
N3500 G1 X71.228 Y330.276
N3505 G1 X71.257 Y330.279
N3510 G1 X72.106 Y330.378
N3515 G1 X72.135 Y330.381
N3520 G1 X72.991 Y330.472
N3525 G1 X73.019 Y330.475
N3530 G1 X73.882 Y330.558
N3535 G1 X73.911 Y330.56
N3540 G1 X74.781 Y330.636
N3545 G1 X74.81 Y330.638
N3550 G1 X75.689 Y330.706
N3555 G1 X75.717 Y330.708
N3560 G1 X76.605 Y330.768
N3565 G1 X76.632 Y330.77
N3570 G1 X77.531 Y330.823
N3575 G1 X77.552 Y330.824
N3580 G1 X78.076 Y330.851
N3585 G1 X78.097 Y330.852
N3590 G1 X79.018 Y330.893
N3595 G1 X79.044 Y330.894
N3600 G1 X79.984 Y330.928
N3605 G1 X80.01 Y330.929
N3610 G1 X81.07 Y330.958
N3615 G1 X81.097 Y330.959
N3620 G1 X82.154 Y330.978
N3625 G1 X82.18
N3630 G1 X83.234 Y330.988
N3635 G1 X83.258
N3640 G1 X84.311 Y330.99
N3645 G1 X84.334
N3650 G1 X85.384 Y330.984
N3655 G1 X85.405
N3660 G1 X86.452 Y330.97
N3665 G1 X86.472
N3670 G1 X87.517 Y330.95
N3675 G1 X87.535 Y330.949
N3680 G1 X88.577 Y330.923
N3685 G1 X88.595 Y330.922
N3690 G1 X89.635 Y330.89
N3695 G1 X89.652 Y330.889
N3700 G1 X90.69 Y330.851
N3705 G1 X90.707 Y330.85
N3710 G1 X91.742 Y330.806
N3715 G1 X91.76 Y330.805
N3720 G1 X92.793 Y330.755
N3725 G1 X92.811 Y330.754
N3730 G1 X93.841 Y330.697
N3735 G1 X93.859 Y330.696
N3740 G1 X94.887 Y330.634
N3745 G1 X94.905 Y330.633
N3750 G1 X95.931 Y330.564
N3755 G1 X95.95 Y330.563
N3760 G1 X96.973 Y330.488
N3765 G1 X96.992 Y330.487
N3770 G1 X98.013 Y330.406
N3775 G1 X98.032 Y330.404
N3780 G1 X99.052 Y330.317
N3785 G1 X99.071 Y330.315
N3790 G1 X100.088 Y330.221
N3795 G1 X100.108 Y330.219
N3800 G1 X101.123 Y330.119
N3805 G1 X101.143 Y330.117
N3810 G1 X102.157 Y330.011
N3815 G1 X102.177 Y330.008
N3820 G1 X103.189 Y329.895
N3825 G1 X103.209 Y329.893
N3830 G1 X104.22 Y329.773
N3835 G1 X104.241 Y329.77
N3840 G1 X105.249 Y329.643
N3845 G1 X105.269 Y329.641
N3850 G1 X106.27 Y329.507
N3855 G1 X106.291 Y329.505
N3860 G1 X107.286 Y329.365
N3865 G1 X107.307 Y329.362
N3870 G1 X108.295 Y329.216
N3875 G1 X108.317 Y329.213
N3880 G1 X109.299 Y329.061
N3885 G1 X109.321 Y329.057
N3890 G1 X110.296 Y328.899
N3895 G1 X110.318 Y328.895
N3900 G1 X111.288 Y328.73
N3905 G1 X111.311 Y328.726
N3910 G1 X112.275 Y328.554
N3915 G1 X112.298 Y328.55
N3920 G1 X113.258 Y328.372
N3925 G1 X113.281 Y328.367
N3930 G1 X114.236 Y328.182
N3935 G1 X114.26 Y328.177
N3940 G1 X115.211 Y327.984
N3945 G1 X115.235 Y327.979
N3950 G1 X116.184 Y327.779
N3955 G1 X116.208 Y327.774
N3960 G1 X117.155 Y327.565
N3965 G1 X117.181 Y327.56
N3970 G1 X118.128 Y327.343
N3975 G1 X118.154 Y327.337
N3980 G1 X119.105 Y327.11
N3985 G1 X119.132 Y327.104
N3990 G1 X120.09 Y326.866
N3995 G1 X120.117 Y326.86
N4000 G1 X121.088 Y326.609
N4005 G1 X121.114 Y326.603
N4010 G1 X122.101 Y326.339
N4015 G1 X122.125 Y326.333
N4020 G1 X123.128 Y326.056
N4025 G1 X123.152 Y326.049
N4030 G1 X124.172 Y325.759
N4035 G1 X124.195 Y325.752
N4040 G1 X125.235 Y325.447
N4045 G1 X125.257 Y325.44
N4050 G1 X126.318 Y325.119
N4055 G1 X126.339 Y325.113
N4060 G1 X127.424 Y324.777
N4065 G1 X127.443 Y324.77
N4070 G1 X128.461 Y324.447
N4075 G1 X128.479 Y324.442
N4080 G1 X129.496 Y324.112
N4085 G1 X129.512 Y324.107
N4090 G1 X130.522 Y323.773
N4095 G1 X130.536 Y323.768
N4100 G1 X131.538 Y323.432
N4105 G1 X131.551 Y323.427
N4110 G1 X132.547 Y323.088
N4115 G1 X132.558 Y323.084
N4120 G1 X133.547 Y322.742
N4125 G1 X133.557 Y322.739
N4130 G1 X134.539 Y322.395
N4135 G1 X134.548 Y322.392
N4140 G1 X135.525 Y322.048
N4145 G1 X135.532 Y322.045
N4150 G1 X136.503 Y321.7
N4155 G1 X136.509 Y321.698
N4160 G1 X137.476 Y321.351
N4165 G1 X137.48 Y321.35
N4170 G1 X138.442 Y321.004
N4175 G1 X138.445 Y321.002
N4180 G1 X139.403 Y320.657
N4185 G1 X139.405 Y320.656
N4190 G1 X140.358 Y320.311
N4195 G1 X141.308 Y319.967
N4200 G1 X142.253 Y319.624
N4205 G1 X143.194 Y319.284
N4210 G1 X144.131 Y318.947
N4215 G1 X145.064 Y318.612
N4220 G1 X145.994 Y318.281
N4225 G1 X146.92 Y317.953
N4230 G1 X147.845 Y317.63
N4235 G1 X148.766 Y317.31
N4240 G1 X149.686 Y316.995
N4245 G1 X150.604 Y316.684
N4250 G1 X151.52 Y316.378
N4255 G1 X152.435 Y316.078
N4260 G1 X153.35 Y315.784
N4265 G1 X154.264 Y315.495
N4270 G1 X155.177 Y315.212
N4275 G1 X156.088 Y314.936
N4280 G1 X156.994 Y314.669
N4285 G1 X157.894 Y314.411
N4290 G1 X158.791 Y314.16
N4295 G1 X159.684 Y313.918
N4300 G1 X160.576 Y313.684
N4305 G1 X161.468 Y313.458
N4310 G1 X162.361 Y313.24
N4315 G1 X163.257 Y313.03
N4320 G1 X164.157 Y312.828
N4325 G1 X165.061 Y312.632
N4330 G1 X165.97 Y312.445
N4335 G1 X166.884 Y312.264
N4340 G1 X167.801 Y312.091
N4345 G1 X168.723 Y311.926
N4350 G1 X169.649 Y311.768
N4355 G1 X170.578 Y311.618
N4360 G1 X171.512 Y311.475
N4365 G1 X172.45 Y311.34
N4370 G1 X173.392 Y311.212
N4375 G1 X174.338 Y311.092
N4380 G1 X175.288 Y310.979
N4385 G1 X176.242 Y310.874
N4390 G1 X177.199 Y310.777
N4395 G1 X178.16 Y310.687
N4400 G1 X179.125 Y310.605
N4405 G1 X180.093 Y310.53
N4410 G1 X181.065 Y310.464
N4415 G1 X182.04 Y310.404
N4420 G1 X183.019 Y310.353
N4425 G1 X184.005 Y310.309
N4430 G1 X184.362 Y310.295
N4435 G1 X185.331 Y310.263
N4440 G1 X186.293 Y310.238
N4445 G1 X187.254 Y310.221
N4450 G1 X188.213 Y310.211
N4455 G1 X189.169 Y310.208
N4460 G1 X190.123 Y310.213
N4465 G1 X191.075 Y310.224
N4470 G1 X192.024 Y310.243
N4475 G1 X192.971 Y310.269
N4480 G1 X193.915 Y310.301
N4485 G1 X194.857 Y310.34
N4490 G1 X195.795 Y310.387
N4495 G1 X196.731 Y310.439
N4500 G1 X197.665 Y310.498
N4505 G1 X198.595 Y310.564
N4510 G1 X199.522 Y310.636
N4515 G1 X200.446 Y310.714
N4520 G1 X201.367 Y310.799
N4525 G1 X202.284 Y310.889
N4530 G1 X203.198 Y310.986
N4535 G1 X204.108 Y311.089
N4540 G1 X205.015 Y311.197
N4545 G1 X205.918 Y311.311
N4550 G1 X206.817 Y311.432
N4555 G1 X207.713 Y311.557
N4560 G1 X208.604 Y311.688
N4565 G1 X209.491 Y311.825
N4570 G1 X210.374 Y311.967
N4575 G1 X211.253 Y312.114
N4580 G1 X212.127 Y312.267
N4585 G1 X212.997 Y312.425
N4590 G1 X213.863 Y312.588
N4595 G1 X214.724 Y312.755
N4600 G1 X215.58 Y312.928
N4605 G1 X216.432 Y313.106
N4610 G1 X217.28 Y313.29
N4615 G1 X218.123 Y313.479
N4620 G1 X218.963 Y313.674
N4625 G1 X219.799 Y313.876
N4630 G1 X220.633 Y314.083
N4635 G1 X221.457 Y314.297
N4640 G1 X222.273 Y314.515
N4645 G1 X223.084 Y314.741
N4650 G1 X223.896 Y314.975
N4655 G1 X224.712 Y315.219
N4660 G1 X225.533 Y315.472
N4665 G1 X226.36 Y315.736
N4670 G1 X227.196 Y316.01
N4675 G1 X227.752 Y316.198
N4680 G1 X228.605 Y316.492
N4685 G1 X229.472 Y316.8
N4690 G1 X230.355 Y317.122
N4695 G1 X231.26 Y317.46
N4700 G1 X232.189 Y317.816
N4705 G1 X233.147 Y318.191
N4710 G1 X234.142 Y318.589
N4715 G1 X235.181 Y319.014
N4720 G1 X236.275 Y319.47
N4725 G1 X237.443 Y319.966
N4730 G1 X238.851 Y320.574
N4735 G1 X240.402 Y321.254
N4740 G1 X242.179 Y322.043
N4745 G1 X242.546 Y322.207
N4750 G1 X244.045 Y322.878
N4755 G1 X245.509 Y323.535
N4760 G1 X245.511 Y323.536
N4765 G1 X246.95 Y324.179
N4770 G1 X246.955 Y324.182
N4775 G1 X248.376 Y324.814
N4780 G1 X248.385 Y324.818
N4785 G1 X249.796 Y325.44
N4790 G1 X249.808 Y325.445
N4795 G1 X251.218 Y326.06
N4800 G1 X251.232 Y326.066
N4805 G1 X252.636 Y326.67
N4810 G1 X252.65 Y326.676
N4815 G1 X254.063 Y327.275
N4820 G1 X254.077 Y327.281
N4825 G1 X255.497 Y327.874
N4830 G1 X255.511 Y327.88
N4835 G1 X256.911 Y328.457
N4840 G1 X256.925 Y328.463
N4845 G1 X258.361 Y329.047
N4850 G1 X258.373 Y329.052
N4855 G1 X259.43 Y329.476
N4860 G1 X259.442 Y329.481
N4865 G1 X260.916 Y330.065
N4870 G1 X260.93 Y330.071
N4875 G1 X262.405 Y330.648
N4880 G1 X262.419 Y330.653
N4885 G1 X263.897 Y331.222
N4890 G1 X263.911 Y331.227
N4895 G1 X265.39 Y331.788
N4900 G1 X265.404 Y331.793
N4905 G1 X266.884 Y332.346
N4910 G1 X266.898 Y332.352
N4915 G1 X268.38 Y332.897
N4920 G1 X268.394 Y332.902
N4925 G1 X269.877 Y333.439
N4930 G1 X269.891 Y333.444
N4935 G1 X271.375 Y333.973
N4940 G1 X271.389 Y333.978
N4945 G1 X272.874 Y334.499
N4950 G1 X272.888 Y334.504
N4955 G1 X274.374 Y335.017
N4960 G1 X274.388 Y335.022
N4965 G1 X275.875 Y335.527
N4970 G1 X275.889 Y335.532
N4975 G1 X277.376 Y336.029
N4980 G1 X277.391 Y336.034
N4985 G1 X278.879 Y336.522
N4990 G1 X278.893 Y336.527
N4995 G1 X280.382 Y337.007
N5000 G1 X280.39 Y337.01
N5005 G1 X280.66 Y337.096
N5010 G1 X280.667 Y337.098
N5015 G1 X281.855 Y337.474
N5020 G1 X281.867 Y337.478
N5025 G1 X283.053 Y337.847
N5030 G1 X283.065 Y337.851
N5035 G1 X284.248 Y338.215
N5040 G1 X284.26 Y338.219
N5045 G1 X285.442 Y338.576
N5050 G1 X285.454 Y338.58
N5055 G1 X286.634 Y338.931
N5060 G1 X286.646 Y338.935
N5065 G1 X287.824 Y339.281
N5070 G1 X287.836 Y339.284
N5075 G1 X289.011 Y339.624
N5080 G1 X289.024 Y339.627
N5085 G1 X290.197 Y339.961
N5090 G1 X290.21 Y339.964
N5095 G1 X291.381 Y340.292
N5100 G1 X291.394 Y340.295
N5105 G1 X292.563 Y340.616
N5110 G1 X292.576 Y340.62
N5115 G1 X293.742 Y340.935
N5120 G1 X293.755 Y340.938
N5125 G1 X294.92 Y341.247
N5130 G1 X294.933 Y341.251
N5135 G1 X296.096 Y341.553
N5140 G1 X296.109 Y341.557
N5145 G1 X297.269 Y341.853
N5150 G1 X297.282 Y341.857
N5155 G1 X298.44 Y342.147
N5160 G1 X298.454 Y342.15
N5165 G1 X299.61 Y342.435
N5170 G1 X299.623 Y342.438
N5175 G1 X300.777 Y342.716
N5180 G1 X300.79 Y342.719
N5185 G1 X301.942 Y342.991
N5190 G1 X301.955 Y342.994
N5195 G1 X303.104 Y343.259
N5200 G1 X303.118 Y343.263
N5205 G1 X304.265 Y343.522
N5210 G1 X304.279 Y343.525
N5215 G1 X305.423 Y343.778
N5220 G1 X305.438 Y343.781
N5225 G1 X306.579 Y344.027
N5230 G1 X306.594 Y344.03
N5235 G1 X307.733 Y344.27
N5240 G1 X307.748 Y344.273
N5245 G1 X308.885 Y344.507
N5250 G1 X308.9 Y344.51
N5255 G1 X310.034 Y344.737
N5260 G1 X310.049 Y344.74
N5265 G1 X311.182 Y344.96
N5270 G1 X311.197 Y344.963
N5275 G1 X312.326 Y345.177
N5280 G1 X312.342 Y345.18
N5285 G1 X313.469 Y345.387
N5290 G1 X313.485 Y345.39
N5295 G1 X314.609 Y345.591
N5300 G1 X314.625 Y345.594
N5305 G1 X315.747 Y345.788
N5310 G1 X315.764 Y345.79
N5315 G1 X316.883 Y345.978
N5320 G1 X316.9 Y345.981
N5325 G1 X318.017 Y346.161
N5330 G1 X318.033 Y346.164
N5335 G1 X319.148 Y346.337
N5340 G1 X319.165 Y346.34
N5345 G1 X320.276 Y346.507
N5350 G1 X320.294 Y346.509
N5355 G1 X321.403 Y346.669
N5360 G1 X321.42 Y346.672
N5365 G1 X322.527 Y346.825
N5370 G1 X322.545 Y346.827
N5375 G1 X323.649 Y346.973
N5380 G1 X323.667 Y346.975
N5385 G1 X324.768 Y347.114
N5390 G1 X324.786 Y347.116
N5395 G1 X325.885 Y347.248
N5400 G1 X325.904 Y347.25
N5405 G1 X327 Y347.375
N5410 G1 X327.018 Y347.377
N5415 G1 X328.112 Y347.494
N5420 G1 X328.131 Y347.496
N5425 G1 X329.222 Y347.606
N5430 G1 X329.241 Y347.608
N5435 G1 X330.329 Y347.71
N5440 G1 X330.349 Y347.712
N5445 G1 X331.434 Y347.807
N5450 G1 X331.454 Y347.809
N5455 G1 X332.537 Y347.896
N5460 G1 X332.558 Y347.898
N5465 G1 X333.637 Y347.978
N5470 G1 X333.658 Y347.979
N5475 G1 X334.735 Y348.051
N5480 G1 X334.757 Y348.052
N5485 G1 X335.831 Y348.117
N5490 G1 X335.852 Y348.118
N5495 G1 X336.924 Y348.174
N5500 G1 X336.946 Y348.175
N5505 G1 X338.015 Y348.224
N5510 G1 X338.037 Y348.225
N5515 G1 X339.103 Y348.265
N5520 G1 X339.12
N5525 G1 X339.638 Y348.282
N5530 G1 X339.653 Y348.283
N5535 G1 X340.477 Y348.305
N5540 G1 X340.495
N5545 G1 X341.317 Y348.323
N5550 G1 X341.335
N5555 G1 X342.153 Y348.336
N5560 G1 X342.172
N5565 G1 X342.987 Y348.343
N5570 G1 X343.006
N5575 G1 X343.819 Y348.346
N5580 G1 X343.838
N5585 G1 X344.648 Y348.343
N5590 G1 X344.668 Y348.342
N5595 G1 X345.476 Y348.334
N5600 G1 X345.497 Y348.333
N5605 G1 X346.301 Y348.319
N5610 G1 X346.323
N5615 G1 X347.125 Y348.299
N5620 G1 X347.148 Y348.298
N5625 G1 X347.947 Y348.272
N5630 G1 X347.971 Y348.271
N5635 G1 X348.768 Y348.239
N5640 G1 X348.792 Y348.237
N5645 G1 X349.587 Y348.199
N5650 G1 X349.611 Y348.198
N5655 G1 X350.404 Y348.152
N5660 G1 X350.429 Y348.151
N5665 G1 X351.219 Y348.099
N5670 G1 X351.246 Y348.097
N5675 G1 X352.034 Y348.039
N5680 G1 X352.06 Y348.037
N5685 G1 X352.846 Y347.971
N5690 G1 X352.873 Y347.969
N5695 G1 X353.657 Y347.896
N5700 G1 X353.685 Y347.894
N5705 G1 X354.467 Y347.814
N5710 G1 X354.495 Y347.811
N5715 G1 X355.275 Y347.724
N5720 G1 X355.304 Y347.721
N5725 G1 X356.082 Y347.627
N5730 G1 X356.111 Y347.623
N5735 G1 X356.888 Y347.522
N5740 G1 X356.917 Y347.518
N5745 G1 X357.692 Y347.409
N5750 G1 X357.721 Y347.404
N5755 G1 X358.495 Y347.288
N5760 G1 X358.524 Y347.283
N5765 G1 X359.296 Y347.159
N5770 G1 X359.326 Y347.154
N5775 G1 X360.097 Y347.021
N5780 G1 X360.127 Y347.016
N5785 G1 X360.896 Y346.876
N5790 G1 X360.926 Y346.871
N5795 G1 X361.693 Y346.723
N5800 G1 X361.724 Y346.717
N5805 G1 X362.49 Y346.561
N5810 G1 X362.52 Y346.555
N5815 G1 X363.285 Y346.391
N5820 G1 X363.315 Y346.384
N5825 G1 X364.079 Y346.212
N5830 G1 X364.109 Y346.206
N5835 G1 X364.871 Y346.026
N5840 G1 X364.901 Y346.018
N5845 G1 X365.663 Y345.831
N5850 G1 X365.681 Y345.826
N5855 G1 X365.871 Y345.778
N5860 G1 X365.889 Y345.773
N5865 G1 X366.642 Y345.577
N5870 G1 X366.671 Y345.569
N5875 G1 X367.419 Y345.367
N5880 G1 X367.448 Y345.358
N5885 G1 X368.192 Y345.149
N5890 G1 X368.221 Y345.14
N5895 G1 X368.96 Y344.924
N5900 G1 X368.988 Y344.916
N5905 G1 X369.723 Y344.693
N5910 G1 X369.751 Y344.684
N5915 G1 X370.48 Y344.455
N5920 G1 X370.508 Y344.446
N5925 G1 X371.232 Y344.211
N5930 G1 X371.259 Y344.202
N5935 G1 X371.979 Y343.96
N5940 G1 X372.005 Y343.951
N5945 G1 X372.719 Y343.705
N5950 G1 X372.745 Y343.695
N5955 G1 X373.453 Y343.443
N5960 G1 X373.479 Y343.434
N5965 G1 X374.182 Y343.177
N5970 G1 X374.207 Y343.167
N5975 G1 X374.903 Y342.905
N5980 G1 X374.928 Y342.896
N5985 G1 X375.618 Y342.629
N5990 G1 X375.642 Y342.62
N5995 G1 X376.326 Y342.348
N6000 G1 X376.35 Y342.339
N6005 G1 X377.027 Y342.064
N6010 G1 X377.05 Y342.055
N6015 G1 X377.721 Y341.776
N6020 G1 X377.743 Y341.767
N6025 G1 X378.407 Y341.485
N6030 G1 X378.428 Y341.476
N6035 G1 X379.085 Y341.191
N6040 G1 X379.105 Y341.182
N6045 G1 X379.754 Y340.894
N6050 G1 X379.775 Y340.885
N6055 G1 X380.416 Y340.595
N6060 G1 X380.436 Y340.586
N6065 G1 X381.069 Y340.294
N6070 G1 X381.089 Y340.285
N6075 G1 X381.715 Y339.991
N6080 G1 X381.736 Y339.981
N6085 G1 X382.353 Y339.685
N6090 G1 X382.376 Y339.674
N6095 G1 X382.985 Y339.376
N6100 G1 X383.009 Y339.364
N6105 G1 X383.61 Y339.063
N6110 G1 X383.635 Y339.051
N6115 G1 X384.229 Y338.747
N6120 G1 X384.254 Y338.734
N6125 G1 X384.84 Y338.427
N6130 G1 X384.866 Y338.413
N6135 G1 X385.444 Y338.103
N6140 G1 X385.471 Y338.088
N6145 G1 X386.041 Y337.775
N6150 G1 X386.069 Y337.759
N6155 G1 X386.631 Y337.442
N6160 G1 X386.661 Y337.425
N6165 G1 X387.213 Y337.105
N6170 G1 X387.245 Y337.087
N6175 G1 X387.789 Y336.763
N6180 G1 X387.818 Y336.745
N6185 G1 X388.232 Y336.492
N6190 G1 X388.261 Y336.474
N6195 G1 X388.791 Y336.142
N6200 G1 X388.824 Y336.121
N6205 G1 X389.353 Y335.78
N6210 G1 X389.385 Y335.759
N6215 G1 X389.914 Y335.408
N6220 G1 X389.946 Y335.387
N6225 G1 X390.475 Y335.027
N6230 G1 X390.506 Y335.005
N6235 G1 X391.035 Y334.635
N6240 G1 X391.066 Y334.613
N6245 G1 X391.596 Y334.232
N6250 G1 X391.626 Y334.21
N6255 G1 X392.157 Y333.819
N6260 G1 X392.186 Y333.797
N6265 G1 X392.719 Y333.394
N6270 G1 X392.747 Y333.372
N6275 G1 X393.282 Y332.958
N6280 G1 X393.31 Y332.936
N6285 G1 X393.846 Y332.509
N6290 G1 X393.874 Y332.487
N6295 G1 X394.413 Y332.048
N6300 G1 X394.44 Y332.026
N6305 G1 X394.983 Y331.573
N6310 G1 X395.009 Y331.552
N6315 G1 X395.556 Y331.085
N6320 G1 X395.582 Y331.063
N6325 G1 X396.134 Y330.582
N6330 G1 X396.158 Y330.56
N6335 G1 X396.716 Y330.063
N6340 G1 X396.74 Y330.041
N6345 G1 X397.305 Y329.527
N6350 G1 X397.329 Y329.505
N6355 G1 X397.963 Y328.915
N6360 G1 X397.988 Y328.892
N6365 G1 X398.63 Y328.28
N6370 G1 X398.653 Y328.258
N6375 G1 X399.305 Y327.623
N6380 G1 X399.327 Y327.602
N6385 G1 X399.991 Y326.943
N6390 G1 X400.012 Y326.922
N6395 G1 X400.689 Y326.236
N6400 G1 X400.709 Y326.215
N6405 G1 X401.402 Y325.5
N6410 G1 X401.421 Y325.48
N6415 G1 X402.134 Y324.731
N6420 G1 X402.151 Y324.713
N6425 G1 X402.887 Y323.926
N6430 G1 X402.903 Y323.91
N6435 G1 X403.668 Y323.079
N6440 G1 X403.681 Y323.066
N6445 G1 X404.28 Y322.408
N6450 G1 X404.288 Y322.398
N6455 G1 X404.764 Y321.871
N6460 G1 X404.771 Y321.864
N6465 G1 X405.243 Y321.338
N6470 G1 X405.249 Y321.332
N6475 G1 X405.717 Y320.807
N6480 G1 X405.722 Y320.801
N6485 G1 X406.186 Y320.278
N6490 G1 X406.19 Y320.273
N6495 G1 X406.652 Y319.751
N6500 G1 X406.655 Y319.747
N6505 G1 X407.115 Y319.226
N6510 G1 X407.118 Y319.222
N6515 G1 X407.576 Y318.702
N6520 G1 X407.582 Y318.694
N6525 G1 X408.037 Y318.174
N6530 G1 X408.046 Y318.163
N6535 G1 X408.497 Y317.641
N6540 G1 X408.51 Y317.626
N6545 G1 X408.957 Y317.103
N6550 G1 X408.972 Y317.085
N6555 G1 X409.412 Y316.561
N6560 G1 X409.429 Y316.54
N6565 G1 X409.859 Y316.019
N6570 G1 X409.878 Y315.997
N6575 G1 X410.298 Y315.477
N6580 G1 X410.317 Y315.453
N6585 G1 X410.729 Y314.934
N6590 G1 X410.749 Y314.908
N6595 G1 X411.151 Y314.388
N6600 G1 X411.172 Y314.362
N6605 G1 X411.566 Y313.84
N6610 G1 X411.587 Y313.812
N6615 G1 X411.974 Y313.289
N6620 G1 X411.996 Y313.259
N6625 G1 X412.375 Y312.732
N6630 G1 X412.397 Y312.701
N6635 G1 X412.77 Y312.17
N6640 G1 X412.792 Y312.138
N6645 G1 X413.158 Y311.601
N6650 G1 X413.18 Y311.569
N6655 G1 X413.539 Y311.026
N6660 G1 X413.561 Y310.992
N6665 G1 X413.915 Y310.442
N6670 G1 X413.937 Y310.409
N6675 G1 X414.285 Y309.851
N6680 G1 X414.306 Y309.817
N6685 G1 X414.65 Y309.251
N6690 G1 X414.67 Y309.217
N6695 G1 X415.009 Y308.643
N6700 G1 X415.028 Y308.609
N6705 G1 X415.362 Y308.025
N6710 G1 X415.381 Y307.991
N6715 G1 X415.711 Y307.397
N6720 G1 X415.729 Y307.364
N6725 G1 X416.054 Y306.76
N6730 G1 X416.072 Y306.727
N6735 G1 X416.393 Y306.112
N6740 G1 X416.41 Y306.079
N6745 G1 X416.727 Y305.454
N6750 G1 X416.743 Y305.421
N6755 G1 X417.056 Y304.784
N6760 G1 X417.071 Y304.752
N6765 G1 X417.381 Y304.104
N6770 G1 X417.395 Y304.073
N6775 G1 X417.701 Y303.412
N6780 G1 X417.715 Y303.381
N6785 G1 X418.017 Y302.709
N6790 G1 X418.031 Y302.678
N6795 G1 X418.33 Y301.993
N6800 G1 X418.342 Y301.963
N6805 G1 X418.638 Y301.265
N6810 G1 X418.645 Y301.249
N6815 G1 X418.684 Y301.156
N6820 G1 X418.69 Y301.139
N6825 G1 X418.985 Y300.42
N6830 G1 X418.996 Y300.391
N6835 G1 X419.289 Y299.655
N6840 G1 X419.3 Y299.626
N6845 G1 X419.591 Y298.871
N6850 G1 X419.602 Y298.844
N6855 G1 X419.892 Y298.069
N6860 G1 X419.902 Y298.042
N6865 G1 X420.19 Y297.249
N6870 G1 X420.2 Y297.222
N6875 G1 X420.487 Y296.408
N6880 G1 X420.496 Y296.382
N6885 G1 X420.782 Y295.547
N6890 G1 X420.79 Y295.521
N6895 G1 X421.075 Y294.665
N6900 G1 X421.083 Y294.64
N6905 G1 X421.366 Y293.762
N6910 G1 X421.374 Y293.737
N6915 G1 X421.656 Y292.836
N6920 G1 X421.663 Y292.812
N6925 G1 X421.944 Y291.888
N6930 G1 X421.951 Y291.864
N6935 G1 X422.23 Y290.916
N6940 G1 X422.237 Y290.893
N6945 G1 X422.515 Y289.92
N6950 G1 X422.521 Y289.898
N6955 G1 X422.798 Y288.9
N6960 G1 X422.804 Y288.878
N6965 G1 X423.08 Y287.854
N6970 G1 X423.085 Y287.832
N6975 G1 X423.36 Y286.782
N6980 G1 X423.365 Y286.761
N6985 G1 X423.638 Y285.684
N6990 G1 X423.643 Y285.663
N6995 G1 X423.914 Y284.558
N7000 G1 X423.919 Y284.538
N7005 G1 X424.189 Y283.404
N7010 G1 X424.194 Y283.384
N7015 G1 X424.462 Y282.222
N7020 G1 X424.467 Y282.202
N7025 G1 X424.734 Y281.01
N7030 G1 X424.738 Y280.991
N7035 G1 X425.003 Y279.768
N7040 G1 X425.007 Y279.75
N7045 G1 X425.271 Y278.496
N7050 G1 X425.275 Y278.477
N7055 G1 X425.537 Y277.191
N7060 G1 X425.541 Y277.174
N7065 G1 X425.802 Y275.855
N7070 G1 X425.805 Y275.838
N7075 G1 X426.064 Y274.486
N7080 G1 X426.067 Y274.469
N7085 G1 X426.324 Y273.083
N7090 G1 X426.327 Y273.066
N7095 G1 X426.61 Y271.49
N7100 G1 X426.613 Y271.472
N7105 G1 X426.891 Y269.868
N7110 G1 X426.894 Y269.851
N7115 G1 X427.167 Y268.217
N7120 G1 X427.17 Y268.201
N7125 G1 X427.438 Y266.538
N7130 G1 X427.44 Y266.522
N7135 G1 X427.704 Y264.831
N7140 G1 X427.706 Y264.815
N7145 G1 X427.965 Y263.094
N7150 G1 X427.967 Y263.078
N7155 G1 X428.221 Y261.327
N7160 G1 X428.223 Y261.313
N7165 G1 X428.473 Y259.532
N7170 G1 X428.475 Y259.517
N7175 G1 X428.72 Y257.706
N7180 G1 X428.721 Y257.692
N7185 G1 X428.962 Y255.851
N7190 G1 X428.963 Y255.837
N7195 G1 X429.199 Y253.965
N7200 G1 X429.201 Y253.952
N7205 G1 X429.432 Y252.049
N7210 G1 X429.433 Y252.037
N7215 G1 X429.66 Y250.103
N7220 G1 X429.661 Y250.094
N7225 G1 X429.747 Y249.343
N7230 G2 X429.766 Y249.002 I-2.981 J-0.341
N7235 G1 Y156.194
N7240 G1 X429.77 Y155.327
N7245 G1 Y155.302
N7250 G1 X429.767 Y154.43
N7255 G1 Y154.404
N7260 G1 X429.756 Y153.535
N7265 G1 X429.755 Y153.509
N7270 G1 X429.737 Y152.641
N7275 G1 X429.736 Y152.615
N7280 G1 X429.71 Y151.748
N7285 G1 X429.709 Y151.722
N7290 G1 X429.676 Y150.857
N7295 G1 X429.675 Y150.831
N7300 G1 X429.634 Y149.968
N7305 G1 X429.632 Y149.941
N7310 G1 X429.584 Y149.08
N7315 G1 X429.582 Y149.054
N7320 G1 X429.526 Y148.194
N7325 G1 X429.524 Y148.167
N7330 G1 X429.46 Y147.31
N7335 G1 X429.458 Y147.283
N7340 G1 X429.386 Y146.427
N7345 G1 X429.384 Y146.399
N7350 G1 X429.305 Y145.546
N7355 G1 X429.302 Y145.518
N7360 G1 X429.215 Y144.666
N7365 G1 X429.212 Y144.638
N7370 G1 X429.117 Y143.788
N7375 G1 X429.114 Y143.76
N7380 G1 X429.011 Y142.911
N7385 G1 X429.008 Y142.883
N7390 G1 X428.897 Y142.037
N7395 G1 X428.894 Y142.012
N7400 G1 X428.802 Y141.356
N7405 G1 X428.799 Y141.331
N7410 G1 X428.678 Y140.512
N7415 G1 X428.674 Y140.485
N7420 G1 X428.546 Y139.668
N7425 G1 X428.541 Y139.641
N7430 G1 X428.405 Y138.827
N7435 G1 X428.401 Y138.799
N7440 G1 X428.258 Y137.988
N7445 G1 X428.253 Y137.96
N7450 G1 X428.102 Y137.151
N7455 G1 X428.097 Y137.123
N7460 G1 X427.939 Y136.317
N7465 G1 X427.933 Y136.289
N7470 G1 X427.768 Y135.485
N7475 G1 X427.762 Y135.457
N7480 G1 X427.589 Y134.655
N7485 G1 X427.583 Y134.627
N7490 G1 X427.402 Y133.828
N7495 G1 X427.396 Y133.8
N7500 G1 X427.208 Y133.004
N7505 G1 X427.201 Y132.976
N7510 G1 X427.006 Y132.182
N7515 G1 X426.999 Y132.154
N7520 G1 X426.796 Y131.362
N7525 G1 X426.789 Y131.334
N7530 G1 X426.578 Y130.545
N7535 G1 X426.571 Y130.517
N7540 G1 X426.353 Y129.731
N7545 G1 X426.345 Y129.702
N7550 G1 X426.119 Y128.919
N7555 G1 X426.111 Y128.89
N7560 G1 X425.878 Y128.109
N7565 G1 X425.87 Y128.081
N7570 G1 X425.629 Y127.302
N7575 G1 X425.62 Y127.274
N7580 G1 X425.372 Y126.498
N7585 G1 X425.363 Y126.47
N7590 G1 X425.107 Y125.696
N7595 G1 X425.098 Y125.668
N7600 G1 X424.834 Y124.897
N7605 G1 X424.824 Y124.869
N7610 G1 X424.553 Y124.1
N7615 G1 X424.543 Y124.072
N7620 G1 X424.265 Y123.306
N7625 G1 X424.254 Y123.278
N7630 G1 X423.968 Y122.514
N7635 G1 X423.957 Y122.487
N7640 G1 X423.663 Y121.726
N7645 G1 X423.652 Y121.698
N7650 G1 X423.351 Y120.939
N7655 G1 X423.343 Y120.921
N7660 G1 X423.235 Y120.653
N7665 G1 X423.227 Y120.634
N7670 G1 X422.904 Y119.853
N7675 G1 X422.892 Y119.825
N7680 G1 X422.561 Y119.048
N7685 G1 X422.549 Y119.02
N7690 G1 X422.211 Y118.247
N7695 G1 X422.198 Y118.219
N7700 G1 X421.852 Y117.45
N7705 G1 X421.839 Y117.422
N7710 G1 X421.485 Y116.656
N7715 G1 X421.472 Y116.629
N7720 G1 X421.11 Y115.867
N7725 G1 X421.097 Y115.84
N7730 G1 X420.728 Y115.082
N7735 G1 X420.714 Y115.054
N7740 G1 X420.337 Y114.3
N7745 G1 X420.323 Y114.273
N7750 G1 X419.939 Y113.522
N7755 G1 X419.925 Y113.495
N7760 G1 X419.532 Y112.748
N7765 G1 X419.518 Y112.722
N7770 G1 X419.117 Y111.978
N7775 G1 X419.103 Y111.952
N7780 G1 X418.695 Y111.212
N7785 G1 X418.68 Y111.185
N7790 G1 X418.264 Y110.449
N7795 G1 X418.249 Y110.423
N7800 G1 X417.825 Y109.69
N7805 G1 X417.81 Y109.664
N7810 G1 X417.379 Y108.934
N7815 G1 X417.363 Y108.908
N7820 G1 X416.924 Y108.182
N7825 G1 X416.908 Y108.156
N7830 G1 X416.461 Y107.433
N7835 G1 X416.445 Y107.408
N7840 G1 X415.99 Y106.688
N7845 G1 X415.974 Y106.663
N7850 G1 X415.511 Y105.946
N7855 G1 X415.495 Y105.922
N7860 G1 X415.024 Y105.208
N7865 G1 X415.008 Y105.184
N7870 G1 X414.529 Y104.473
N7875 G1 X414.513 Y104.449
N7880 G1 X414.026 Y103.742
N7885 G1 X414.009 Y103.718
N7890 G1 X413.515 Y103.014
N7895 G1 X413.498 Y102.99
N7900 G1 X412.995 Y102.289
N7905 G1 X412.978 Y102.266
N7910 G1 X412.467 Y101.567
N7915 G1 X412.45 Y101.544
N7920 G1 X411.931 Y100.849
N7925 G1 X411.914 Y100.826
N7930 G1 X411.387 Y100.134
N7935 G1 X411.37 Y100.111
N7940 G1 X410.835 Y99.422
N7945 G1 X410.817 Y99.4
N7950 G1 X410.274 Y98.713
N7955 G1 X410.256 Y98.691
N7960 G1 X409.705 Y98.007
N7965 G1 X409.687 Y97.986
N7970 G1 X409.127 Y97.305
N7975 G1 X409.11 Y97.284
N7980 G1 X408.542 Y96.605
N7985 G1 X408.524 Y96.584
N7990 G1 X407.947 Y95.909
N7995 G1 X407.929 Y95.888
N8000 G1 X407.345 Y95.216
N8005 G1 X407.327 Y95.195
N8010 G1 X406.734 Y94.526
N8015 G1 X406.715 Y94.505
N8020 G1 X406.114 Y93.838
N8025 G1 X406.1 Y93.823
N8030 G1 X405.752 Y93.443
N8035 G1 X405.738 Y93.427
N8040 G1 X405.119 Y92.76
N8045 G1 X405.101 Y92.741
N8050 G1 X404.474 Y92.077
N8055 G1 X404.455 Y92.058
N8060 G1 X403.82 Y91.397
N8065 G1 X403.802 Y91.378
N8070 G1 X403.158 Y90.721
N8075 G1 X403.147 Y90.709
N8080 G1 X403.124 Y90.686
N8085 G1 X402.799 Y90.277
N8090 G1 X402.778 Y90.251
N8095 G1 X402.347 Y89.72
N8100 G1 X402.325 Y89.694
N8105 G1 X401.889 Y89.17
N8110 G1 X401.866 Y89.143
N8115 G1 X401.425 Y88.625
N8120 G1 X401.402 Y88.599
N8125 G1 X400.955 Y88.086
N8130 G1 X400.932 Y88.06
N8135 G1 X400.48 Y87.554
N8140 G1 X400.457 Y87.528
N8145 G1 X400 Y87.028
N8150 G1 X399.976 Y87.002
N8155 G1 X399.514 Y86.508
N8160 G1 X399.49 Y86.482
N8165 G1 X399.022 Y85.994
N8170 G1 X398.997 Y85.969
N8175 G1 X398.525 Y85.486
N8180 G1 X398.5 Y85.461
N8185 G1 X398.022 Y84.985
N8190 G1 X397.996 Y84.96
N8195 G1 X397.513 Y84.49
N8200 G1 X397.487 Y84.465
N8205 G1 X396.999 Y84.001
N8210 G1 X396.973 Y83.976
N8215 G1 X396.479 Y83.518
N8220 G1 X396.453 Y83.494
N8225 G1 X395.954 Y83.042
N8230 G1 X395.927 Y83.018
N8235 G1 X395.423 Y82.573
N8240 G1 X395.396 Y82.549
N8245 G1 X394.887 Y82.109
N8250 G1 X394.86 Y82.086
N8255 G1 X394.345 Y81.653
N8260 G1 X394.318 Y81.63
N8265 G1 X393.798 Y81.203
N8270 G1 X393.77 Y81.18
N8275 G1 X393.246 Y80.759
N8280 G1 X393.218 Y80.737
N8285 G1 X392.688 Y80.322
N8290 G1 X392.659 Y80.3
N8295 G1 X392.124 Y79.891
N8300 G1 X392.095 Y79.869
N8305 G1 X391.554 Y79.466
N8310 G1 X391.525 Y79.445
N8315 G1 X390.979 Y79.048
N8320 G1 X390.95 Y79.027
N8325 G1 X390.398 Y78.636
N8330 G1 X390.37 Y78.616
N8335 G1 X389.869 Y78.27
N8340 G1 X389.84 Y78.25
N8345 G1 X389.247 Y77.85
N8350 G1 X389.216 Y77.829
N8355 G1 X388.617 Y77.436
N8360 G1 X388.586 Y77.416
N8365 G1 X387.982 Y77.031
N8370 G1 X387.951 Y77.011
N8375 G1 X387.343 Y76.633
N8380 G1 X387.311 Y76.614
N8385 G1 X386.698 Y76.243
N8390 G1 X386.666 Y76.224
N8395 G1 X386.048 Y75.861
N8400 G1 X386.016 Y75.843
N8405 G1 X385.392 Y75.487
N8410 G1 X385.36 Y75.469
N8415 G1 X384.732 Y75.121
N8420 G1 X384.7 Y75.103
N8425 G1 X384.067 Y74.762
N8430 G1 X384.034 Y74.745
N8435 G1 X383.396 Y74.411
N8440 G1 X383.364 Y74.394
N8445 G1 X382.72 Y74.067
N8450 G1 X382.688 Y74.051
N8455 G1 X382.039 Y73.731
N8460 G1 X382.006 Y73.716
N8465 G1 X381.352 Y73.403
N8470 G1 X381.32 Y73.388
N8475 G1 X380.66 Y73.082
N8480 G1 X380.628 Y73.067
N8485 G1 X379.963 Y72.768
N8490 G1 X379.931 Y72.754
N8495 G1 X379.26 Y72.462
N8500 G1 X379.228 Y72.449
N8505 G1 X378.552 Y72.164
N8510 G1 X378.52 Y72.15
N8515 G1 X377.839 Y71.872
N8520 G1 X377.807 Y71.86
N8525 G1 X377.12 Y71.588
N8530 G1 X377.088 Y71.576
N8535 G1 X376.395 Y71.312
N8540 G1 X376.364 Y71.3
N8545 G1 X375.665 Y71.043
N8550 G1 X375.634 Y71.031
N8555 G1 X374.93 Y70.781
N8560 G1 X374.898 Y70.77
N8565 G1 X374.188 Y70.526
N8570 G1 X374.157 Y70.515
N8575 G1 X373.441 Y70.278
N8580 G1 X373.41 Y70.268
N8585 G1 X372.688 Y70.038
N8590 G1 X372.657 Y70.029
N8595 G1 X371.93 Y69.805
N8600 G1 X371.899 Y69.796
N8605 G1 X371.165 Y69.58
N8610 G1 X371.134 Y69.571
N8615 G1 X370.395 Y69.361
N8620 G1 X370.364 Y69.353
N8625 G1 X369.619 Y69.15
N8630 G1 X369.588 Y69.142
N8635 G1 X368.837 Y68.946
N8640 G1 X368.806 Y68.938
N8645 G1 X368.049 Y68.749
N8650 G1 X368.018 Y68.742
N8655 G1 X367.254 Y68.559
N8660 G1 X367.226 Y68.553
N8665 G1 X366.531 Y68.394
N8670 G1 X366.502 Y68.388
N8675 G1 X365.725 Y68.218
N8680 G1 X365.695 Y68.212
N8685 G1 X364.91 Y68.049
N8690 G1 X364.88 Y68.043
N8695 G1 X364.087 Y67.887
N8700 G1 X364.056 Y67.881
N8705 G1 X363.167 Y67.715
N8710 G1 X363.135 Y67.71
N8715 G1 X362.239 Y67.553
N8720 G1 X362.207 Y67.548
N8725 G1 X361.305 Y67.4
N8730 G1 X361.273 Y67.395
N8735 G1 X360.365 Y67.256
N8740 G1 X360.334 Y67.252
N8745 G1 X359.419 Y67.122
N8750 G1 X359.388 Y67.117
N8755 G1 X358.467 Y66.996
N8760 G1 X358.437 Y66.992
N8765 G1 X357.509 Y66.88
N8770 G1 X357.479 Y66.877
N8775 G1 X356.544 Y66.773
N8780 G1 X356.515 Y66.77
N8785 G1 X355.574 Y66.675
N8790 G1 X355.544 Y66.672
N8795 G1 X354.597 Y66.586
N8800 G1 X354.568 Y66.584
N8805 G1 X353.613 Y66.506
N8810 G1 X353.584 Y66.504
N8815 G1 X352.623 Y66.436
N8820 G1 X352.595 Y66.434
N8825 G1 X351.626 Y66.374
N8830 G1 X351.598 Y66.372
N8835 G1 X350.623 Y66.321
N8840 G1 X350.595 Y66.319
N8845 G1 X349.613 Y66.277
N8850 G1 X349.586 Y66.276
N8855 G1 X348.596 Y66.242
N8860 G1 X348.569 Y66.241
N8865 G1 X347.572 Y66.216
N8870 G1 X347.546 Y66.215
N8875 G1 X346.541 Y66.199
N8880 G1 X346.515 Y66.198
N8885 G1 X345.504 Y66.19
N8890 G1 X345.478
N8895 G1 X344.459 Y66.191
N8900 G1 X344.434
N8905 G1 X343.407 Y66.2
N8910 G1 X343.382 Y66.201
N8915 G1 X342.347 Y66.219
N8920 G1 X342.323
N8925 G1 X341.281 Y66.246
N8930 G1 X341.257 Y66.247
N8935 G1 X340.207 Y66.282
N8940 G1 X340.183 Y66.283
N8945 G1 X339.125 Y66.327
N8950 G1 X339.101 Y66.328
N8955 G1 X338.036 Y66.381
N8960 G1 X338.012 Y66.382
N8965 G1 X336.939 Y66.444
N8970 G1 X336.916 Y66.445
N8975 G1 X335.834 Y66.516
N8980 G1 X335.811 Y66.517
N8985 G1 X334.721 Y66.596
N8990 G1 X334.699 Y66.598
N8995 G1 X333.6 Y66.686
N9000 G1 X333.584 Y66.687
N9005 G1 X333.066 Y66.731
N9010 G1 X333.05 Y66.733
N9015 G1 X331.903 Y66.837
N9020 G1 X331.881 Y66.839
N9025 G1 X330.736 Y66.952
N9030 G1 X330.715 Y66.954
N9035 G1 X329.571 Y67.074
N9040 G1 X329.55 Y67.077
N9045 G1 X328.41 Y67.205
N9050 G1 X328.389 Y67.208
N9055 G1 X327.251 Y67.344
N9060 G1 X327.23 Y67.346
N9065 G1 X326.094 Y67.491
N9070 G1 X326.073 Y67.493
N9075 G1 X324.94 Y67.645
N9080 G1 X324.919 Y67.648
N9085 G1 X323.789 Y67.808
N9090 G1 X323.768 Y67.811
N9095 G1 X322.64 Y67.979
N9100 G1 X322.619 Y67.982
N9105 G1 X321.494 Y68.157
N9110 G1 X321.472 Y68.161
N9115 G1 X320.349 Y68.344
N9120 G1 X320.328 Y68.347
N9125 G1 X319.207 Y68.539
N9130 G1 X319.186 Y68.542
N9135 G1 X318.068 Y68.741
N9140 G1 X318.047 Y68.745
N9145 G1 X316.93 Y68.952
N9150 G1 X316.909 Y68.956
N9155 G1 X315.795 Y69.171
N9160 G1 X315.774 Y69.175
N9165 G1 X314.662 Y69.398
N9170 G1 X314.641 Y69.402
N9175 G1 X313.531 Y69.633
N9180 G1 X313.51 Y69.637
N9185 G1 X312.402 Y69.876
N9190 G1 X312.381 Y69.88
N9195 G1 X311.275 Y70.127
N9200 G1 X311.254 Y70.132
N9205 G1 X310.15 Y70.386
N9210 G1 X310.129 Y70.391
N9215 G1 X309.026 Y70.653
N9220 G1 X309.005 Y70.659
N9225 G1 X307.905 Y70.929
N9230 G1 X307.884 Y70.934
N9235 G1 X306.785 Y71.213
N9240 G1 X306.764 Y71.218
N9245 G1 X305.666 Y71.504
N9250 G1 X305.645 Y71.51
N9255 G1 X304.55 Y71.805
N9260 G1 X304.529 Y71.81
N9265 G1 X303.434 Y72.113
N9270 G1 X303.413 Y72.119
N9275 G1 X302.32 Y72.43
N9280 G1 X302.299 Y72.436
N9285 G1 X301.208 Y72.755
N9290 G1 X301.187 Y72.761
N9295 G1 X300.096 Y73.088
N9300 G1 X300.075 Y73.094
N9305 G1 X298.986 Y73.43
N9310 G1 X298.965 Y73.436
N9315 G1 X297.876 Y73.78
N9320 G1 X297.855 Y73.787
N9325 G1 X296.767 Y74.139
N9330 G1 X296.746 Y74.146
N9335 G1 X295.658 Y74.507
N9340 G1 X295.638 Y74.514
N9345 G1 X294.549 Y74.884
N9350 G1 X294.529 Y74.891
N9355 G1 X293.441 Y75.269
N9360 G1 X293.42 Y75.276
N9365 G1 X292.331 Y75.664
N9370 G1 X292.311 Y75.672
N9375 G1 X291.22 Y76.069
N9380 G1 X291.199 Y76.076
N9385 G1 X290.106 Y76.483
N9390 G1 X290.086 Y76.491
N9395 G1 X288.988 Y76.909
N9400 G1 X288.968 Y76.917
N9405 G1 X287.863 Y77.346
N9410 G1 X287.843 Y77.354
N9415 G1 X286.728 Y77.798
N9420 G1 X286.708 Y77.806
N9425 G1 X285.576 Y78.265
N9430 G1 X285.556 Y78.273
N9435 G1 X284.406 Y78.749
N9440 G1 X284.388 Y78.757
N9445 G1 X283.218 Y79.25
N9450 G1 X283.2 Y79.258
N9455 G1 X282.008 Y79.77
N9460 G1 X281.99 Y79.777
N9465 G1 X280.64 Y80.367
N9470 G1 X280.623 Y80.375
N9475 G1 X279.396 Y80.92
N9480 G1 X279.382 Y80.927
N9485 G1 X278.171 Y81.473
N9490 G1 X278.158 Y81.479
N9495 G1 X276.963 Y82.024
N9500 G1 X276.951 Y82.03
N9505 G1 X275.771 Y82.576
N9510 G1 X275.76 Y82.581
N9515 G1 X274.595 Y83.125
N9520 G1 X274.585 Y83.13
N9525 G1 X273.432 Y83.673
N9530 G1 X273.424 Y83.678
N9535 G1 X272.284 Y84.22
N9540 G1 X272.276 Y84.223
N9545 G1 X271.148 Y84.763
N9550 G1 X271.142 Y84.766
N9555 G1 X270.025 Y85.305
N9560 G1 X270.02 Y85.307
N9565 G1 X268.914 Y85.843
N9570 G1 X268.91 Y85.845
N9575 G1 X267.814 Y86.378
N9580 G1 X267.811 Y86.38
N9585 G1 X266.725 Y86.909
N9590 G1 X266.722 Y86.911
N9595 G1 X265.646 Y87.437
N9600 G1 X265.644 Y87.438
N9605 G1 X264.576 Y87.961
N9610 G1 X263.516 Y88.481
N9615 G1 X262.465 Y88.996
N9620 G1 X261.423 Y89.507
N9625 G1 X260.388 Y90.012
N9630 G1 X259.362 Y90.513
N9635 G1 X258.342 Y91.009
N9640 G1 X257.33 Y91.499
N9645 G1 X256.325 Y91.984
N9650 G1 X255.325 Y92.463
N9655 G1 X254.332 Y92.936
N9660 G1 X253.345 Y93.404
N9665 G1 X252.363 Y93.865
N9670 G1 X251.387 Y94.32
N9675 G1 X250.416 Y94.769
N9680 G1 X249.45 Y95.211
N9685 G1 X248.488 Y95.646
N9690 G1 X247.531 Y96.075
N9695 G1 X246.577 Y96.497
N9700 G1 X245.628 Y96.912
N9705 G1 X244.683 Y97.32
N9710 G1 X243.741 Y97.721
N9715 G1 X242.803 Y98.114
N9720 G1 X241.868 Y98.501
N9725 G1 X240.937 Y98.879
N9730 G1 X240.008 Y99.25
N9735 G1 X239.082 Y99.614
N9740 G1 X238.158 Y99.97
N9745 G1 X237.237 Y100.318
N9750 G1 X236.319 Y100.658
N9755 G1 X235.403 Y100.99
N9760 G1 X234.488 Y101.314
N9765 G1 X233.576 Y101.63
N9770 G1 X232.665 Y101.938
N9775 G1 X231.757 Y102.238
N9780 G1 X230.849 Y102.529
N9785 G1 X229.944 Y102.812
N9790 G1 X229.039 Y103.086
N9795 G1 X228.127 Y103.355
N9800 G1 X227.469 Y103.544
N9805 G1 X226.812 Y103.727
N9810 G1 X226.157 Y103.906
N9815 G1 X225.505 Y104.079
N9820 G1 X224.856 Y104.246
N9825 G1 X224.209 Y104.408
N9830 G1 X223.565 Y104.564
N9835 G1 X222.924 Y104.715
N9840 G1 X222.285 Y104.86
N9845 G1 X221.648 Y104.999
N9850 G1 X221.014 Y105.132
N9855 G1 X220.382 Y105.259
N9860 G1 X219.753 Y105.381
N9865 G1 X219.126 Y105.496
N9870 G1 X218.502 Y105.605
N9875 G1 X217.88 Y105.707
N9880 G1 X217.261 Y105.804
N9885 G1 X216.643 Y105.894
N9890 G1 X216.029 Y105.977
N9895 G1 X215.416 Y106.054
N9900 G1 X214.805 Y106.125
N9905 G1 X214.197 Y106.189
N9910 G1 X213.591 Y106.246
N9915 G1 X212.987 Y106.296
N9920 G1 X212.385 Y106.34
N9925 G1 X211.784 Y106.376
N9930 G1 X211.186 Y106.406
N9935 G1 X210.588 Y106.428
N9940 G1 X209.992 Y106.443
N9945 G1 X209.397 Y106.451
N9950 G1 X208.804
N9955 G1 X208.211 Y106.443
N9960 G1 X207.61 Y106.428
N9965 G1 X207.262 Y106.415
N9970 G1 X206.654 Y106.387
N9975 G1 X206.044 Y106.352
N9980 G1 X205.429 Y106.308
N9985 G1 X204.808 Y106.257
N9990 G1 X204.181 Y106.197
N9995 G1 X203.547 Y106.129
N10000 G1 X202.906 Y106.052
N10005 G1 X202.259 Y105.967
N10010 G1 X201.604 Y105.873
N10015 G1 X200.941 Y105.77
N10020 G1 X200.194 Y105.644
N10025 G1 X199.439 Y105.508
N10030 G1 X198.676 Y105.361
N10035 G1 X197.903 Y105.202
N10040 G1 X197.12 Y105.032
N10045 G1 X196.326 Y104.849
N10050 G1 X195.521 Y104.655
N10055 G1 X194.704 Y104.449
N10060 G1 X193.874 Y104.23
N10065 G1 X193.031 Y103.998
N10070 G1 X192.172 Y103.752
N10075 G1 X191.298 Y103.494
N10080 G1 X190.408 Y103.221
N10085 G1 X189.499 Y102.934
N10090 G1 X188.57 Y102.631
N10095 G1 X187.619 Y102.313
N10100 G1 X186.642 Y101.977
N10105 G1 X186.344 Y101.873
N10110 G1 X185.313 Y101.508
N10115 G1 X184.238 Y101.119
N10120 G1 X183.106 Y100.7
N10125 G1 X181.866 Y100.232
N10130 G1 X180.649 Y99.765
N10135 G1 X179.451 Y99.299
N10140 G1 X178.27 Y98.834
N10145 G1 X177.105 Y98.371
N10150 G1 X175.954 Y97.911
N10155 G1 X174.816 Y97.454
N10160 G1 X173.69 Y97
N10165 G1 X172.575 Y96.551
N10170 G1 X172.573
N10175 G1 X171.469 Y96.107
N10180 G1 X171.465 Y96.105
N10185 G1 X170.371 Y95.667
N10190 G1 X170.366 Y95.665
N10195 G1 X169.281 Y95.233
N10200 G1 X169.274 Y95.23
N10205 G1 X168.198 Y94.805
N10210 G1 X168.189 Y94.801
N10215 G1 X167.121 Y94.383
N10220 G1 X167.111 Y94.379
N10225 G1 X166.049 Y93.967
N10230 G1 X166.038 Y93.963
N10235 G1 X164.984 Y93.559
N10240 G1 X164.972 Y93.555
N10245 G1 X163.924 Y93.158
N10250 G1 X163.912 Y93.153
N10255 G1 X162.87 Y92.765
N10260 G1 X162.857 Y92.76
N10265 G1 X161.821 Y92.379
N10270 G1 X161.807 Y92.374
N10275 G1 X160.778 Y92.001
N10280 G1 X160.763 Y91.995
N10285 G1 X159.739 Y91.631
N10290 G1 X159.723 Y91.625
N10295 G1 X158.704 Y91.269
N10300 G1 X158.688 Y91.263
N10305 G1 X157.675 Y90.915
N10310 G1 X157.657 Y90.909
N10315 G1 X156.649 Y90.569
N10320 G1 X156.631 Y90.563
N10325 G1 X155.628 Y90.232
N10330 G1 X155.609 Y90.226
N10335 G1 X154.61 Y89.904
N10340 G1 X154.59 Y89.898
N10345 G1 X153.596 Y89.585
N10350 G1 X153.576 Y89.578
N10355 G1 X152.585 Y89.274
N10360 G1 X152.564 Y89.268
N10365 G1 X151.578 Y88.972
N10370 G1 X151.556 Y88.966
N10375 G1 X150.574 Y88.68
N10380 G1 X150.554 Y88.674
N10385 G1 X149.774 Y88.453
N10390 G1 X149.756 Y88.448
N10395 G1 X148.986 Y88.235
N10400 G1 X148.967 Y88.23
N10405 G1 X148.2 Y88.023
N10410 G1 X148.18 Y88.018
N10415 G1 X147.414 Y87.817
N10420 G1 X147.395 Y87.812
N10425 G1 X146.63 Y87.617
N10430 G1 X146.61 Y87.612
N10435 G1 X145.848 Y87.423
N10440 G1 X145.827 Y87.418
N10445 G1 X145.066 Y87.235
N10450 G1 X145.044 Y87.23
N10455 G1 X144.285 Y87.053
N10460 G1 X144.263 Y87.048
N10465 G1 X143.506 Y86.878
N10470 G1 X143.483 Y86.873
N10475 G1 X142.727 Y86.709
N10480 G1 X142.704 Y86.704
N10485 G1 X141.95 Y86.547
N10490 G1 X141.926 Y86.542
N10495 G1 X141.173 Y86.392
N10500 G1 X141.149 Y86.387
N10505 G1 X140.398 Y86.243
N10510 G1 X140.373 Y86.238
N10515 G1 X139.623 Y86.101
N10520 G1 X139.598 Y86.096
N10525 G1 X138.849 Y85.966
N10530 G1 X138.824 Y85.961
N10535 G1 X138.077 Y85.837
N10540 G1 X138.051 Y85.833
N10545 G1 X137.305 Y85.716
N10550 G1 X137.278 Y85.712
N10555 G1 X136.534 Y85.602
N10560 G1 X136.507 Y85.599
N10565 G1 X135.763 Y85.496
N10570 G1 X135.736 Y85.492
N10575 G1 X134.994 Y85.396
N10580 G1 X134.966 Y85.393
N10585 G1 X134.225 Y85.304
N10590 G1 X134.197 Y85.301
N10595 G1 X133.457 Y85.22
N10600 G1 X133.428 Y85.217
N10605 G1 X132.69 Y85.143
N10610 G1 X132.66 Y85.14
N10615 G1 X131.923 Y85.074
N10620 G1 X131.893 Y85.072
N10625 G1 X131.158 Y85.013
N10630 G1 X131.127 Y85.01
N10635 G1 X130.392 Y84.959
N10640 G1 X130.362 Y84.957
N10645 G1 X129.628 Y84.914
N10650 G1 X129.597 Y84.912
N10655 G1 X128.864 Y84.876
N10660 G1 X128.832 Y84.875
N10665 G1 X128.101 Y84.847
N10670 G1 X128.069 Y84.846
N10675 G1 X127.338 Y84.825
N10680 G1 X127.306
N10685 G1 X126.576 Y84.813
N10690 G1 X126.543 Y84.812
N10695 G1 X125.815 Y84.808
N10700 G1 X125.794
N10705 G1 X125.626
N10710 G1 X125.607
N10715 G1 X124.915 Y84.814
N10720 G1 X124.883
N10725 G1 X124.194 Y84.827
N10730 G1 X124.161 Y84.828
N10735 G1 X123.474 Y84.848
N10740 G1 X123.441 Y84.849
N10745 G1 X122.755 Y84.876
N10750 G1 X122.722 Y84.878
N10755 G1 X122.038 Y84.913
N10760 G1 X122.005 Y84.915
N10765 G1 X121.322 Y84.957
N10770 G1 X121.289 Y84.96
N10775 G1 X120.608 Y85.01
N10780 G1 X120.574 Y85.013
N10785 G1 X119.895 Y85.07
N10790 G1 X119.862 Y85.073
N10795 G1 X119.184 Y85.139
N10800 G1 X119.15 Y85.142
N10805 G1 X118.475 Y85.215
N10810 G1 X118.441 Y85.219
N10815 G1 X117.767 Y85.299
N10820 G1 X117.733 Y85.304
N10825 G1 X117.061 Y85.392
N10830 G1 X117.026 Y85.397
N10835 G1 X116.356 Y85.493
N10840 G1 X116.321 Y85.498
N10845 G1 X115.653 Y85.602
N10850 G1 X115.618 Y85.607
N10855 G1 X114.952 Y85.719
N10860 G1 X114.917 Y85.725
N10865 G1 X114.252 Y85.844
N10870 G1 X114.217 Y85.85
N10875 G1 X113.554 Y85.977
N10880 G1 X113.519 Y85.984
N10885 G1 X112.858 Y86.119
N10890 G1 X112.824 Y86.126
N10895 G1 X112.165 Y86.269
N10900 G1 X112.13 Y86.276
N10905 G1 X111.473 Y86.427
N10910 G1 X111.438 Y86.435
N10915 G1 X110.783 Y86.593
N10920 G1 X110.749 Y86.601
N10925 G1 X110.095 Y86.767
N10930 G1 X110.061 Y86.776
N10935 G1 X109.409 Y86.95
N10940 G1 X109.375 Y86.959
N10945 G1 X108.725 Y87.141
N10950 G1 X108.691 Y87.151
N10955 G1 X108.043 Y87.34
N10960 G1 X108.008 Y87.35
N10965 G1 X107.362 Y87.548
N10970 G1 X107.328 Y87.558
N10975 G1 X106.683 Y87.764
N10980 G1 X106.648 Y87.775
N10985 G1 X106.005 Y87.988
N10990 G1 X105.971 Y88
N10995 G1 X105.329 Y88.221
N11000 G1 X105.296 Y88.233
N11005 G1 X104.686 Y88.451
N11010 G1 X104.654 Y88.463
N11015 G1 X104.012 Y88.701
N11020 G1 X103.978 Y88.714
N11025 G1 X103.338 Y88.96
N11030 G1 X103.305 Y88.973
N11035 G1 X102.667 Y89.227
N11040 G1 X102.634 Y89.24
N11045 G1 X101.998 Y89.503
N11050 G1 X101.965 Y89.516
N11055 G1 X101.33 Y89.787
N11060 G1 X101.307 Y89.797
N11065 G1 X101.097 Y89.888
N11070 G1 X100.718 Y90.023
N11075 G1 X100.677 Y90.038
N11080 G1 X100.204 Y90.214
N11085 G1 X100.162 Y90.23
N11090 G1 X99.694 Y90.412
N11095 G1 X99.652 Y90.429
N11100 G1 X99.188 Y90.618
N11105 G1 X99.146 Y90.635
N11110 G1 X98.686 Y90.83
N11115 G1 X98.643 Y90.849
N11120 G1 X98.189 Y91.05
N11125 G1 X98.146 Y91.07
N11130 G1 X97.696 Y91.277
N11135 G1 X97.652 Y91.298
N11140 G1 X97.207 Y91.512
N11145 G1 X97.181 Y91.525
N11150 G1 X97.085 Y91.573
N11155 G1 X97.06 Y91.585
N11160 G1 X96.657 Y91.789
N11165 G1 X96.616 Y91.81
N11170 G1 X96.218 Y92.019
N11175 G1 X96.177 Y92.041
N11180 G1 X95.784 Y92.256
N11185 G1 X95.742 Y92.279
N11190 G1 X95.355 Y92.498
N11195 G1 X95.313 Y92.523
N11200 G1 X94.93 Y92.747
N11205 G1 X94.888 Y92.773
N11210 G1 X94.511 Y93.003
N11215 G1 X94.469 Y93.029
N11220 G1 X94.097 Y93.264
N11225 G1 X94.054 Y93.292
N11230 G1 X93.688 Y93.533
N11235 G1 X93.645 Y93.562
N11240 G1 X93.284 Y93.808
N11245 G1 X93.241 Y93.838
N11250 G1 X92.886 Y94.089
N11255 G1 X92.842 Y94.121
N11260 G1 X92.493 Y94.378
N11265 G1 X92.449 Y94.41
N11270 G1 X92.105 Y94.673
N11275 G1 X92.062 Y94.707
N11280 G1 X91.724 Y94.976
N11285 G1 X91.697 Y94.997
N11290 G1 X91.63 Y95.051
N11295 G1 X91.606 Y95.071
N11300 G1 X91.303 Y95.322
N11305 G1 X91.263 Y95.356
N11310 G1 X90.966 Y95.611
N11315 G1 X90.926 Y95.646
N11320 G1 X90.636 Y95.905
N11325 G1 X90.596 Y95.941
N11330 G1 X90.312 Y96.204
N11335 G1 X90.272 Y96.242
N11340 G1 X89.993 Y96.508
N11345 G1 X89.954 Y96.547
N11350 G1 X89.682 Y96.817
N11355 G1 X89.642 Y96.857
N11360 G1 X89.377 Y97.132
N11365 G1 X89.337 Y97.173
N11370 G1 X89.078 Y97.451
N11375 G1 X89.039 Y97.494
N11380 G1 X88.786 Y97.776
N11385 G1 X88.747 Y97.82
N11390 G1 X88.5 Y98.106
N11395 G1 X88.462 Y98.151
N11400 G1 X88.222 Y98.441
N11405 G1 X88.184 Y98.488
N11410 G1 X87.95 Y98.781
N11415 G1 X87.913 Y98.83
N11420 G1 X87.685 Y99.127
N11425 G1 X87.648 Y99.177
N11430 G1 X87.428 Y99.479
N11435 G1 X87.391 Y99.53
N11440 G1 X87.178 Y99.836
N11445 G1 X87.142 Y99.888
N11450 G1 X86.935 Y100.198
N11455 G1 X86.905 Y100.244
N11460 G1 X86.763 Y100.466
N11465 G1 X86.734 Y100.512
N11470 G1 X86.55 Y100.81
N11475 G1 X86.518 Y100.863
N11480 G1 X86.341 Y101.164
N11485 G1 X86.31 Y101.219
N11490 G1 X86.14 Y101.521
N11495 G1 X86.11 Y101.577
N11500 G1 X85.948 Y101.882
N11505 G1 X85.918 Y101.94
N11510 G1 X85.763 Y102.246
N11515 G1 X85.734 Y102.305
N11520 G1 X85.587 Y102.614
N11525 G1 X85.559 Y102.674
N11530 G1 X85.419 Y102.985
N11535 G1 X85.392 Y103.047
N11540 G1 X85.259 Y103.36
N11545 G1 X85.233 Y103.422
N11550 G1 X85.108 Y103.738
N11555 G1 X85.083 Y103.801
N11560 G1 X84.965 Y104.119
N11565 G1 X84.942 Y104.184
N11570 G1 X84.831 Y104.503
N11575 G1 X84.809 Y104.57
N11580 G1 X84.707 Y104.891
N11585 G1 X84.686 Y104.959
N11590 G1 X84.591 Y105.283
N11595 G1 X84.575 Y105.34
N11600 G1 X84.516 Y105.554
N11605 G1 X84.501 Y105.611
N11610 G1 X84.422 Y105.927
N11615 G1 X84.406 Y105.996
N11620 G1 X84.334 Y106.312
N11625 G1 X84.319 Y106.381
N11630 G1 X84.255 Y106.698
N11635 G1 X84.242 Y106.768
N11640 G1 X84.186 Y107.085
N11645 G1 X84.174 Y107.157
N11650 G1 X84.126 Y107.474
N11655 G1 X84.116 Y107.546
N11660 G1 X84.075 Y107.863
N11665 G1 X84.067 Y107.936
N11670 G1 X84.034 Y108.254
N11675 G1 X84.028 Y108.328
N11680 G1 X84.003 Y108.646
N11685 G1 X83.998 Y108.72
N11690 G1 X83.981 Y109.038
N11695 G1 X83.978 Y109.114
N11700 G1 X83.969 Y109.432
N11705 G1 X83.968 Y109.504
N11710 G1 X83.967 Y109.794
N11715 G1 X83.968 Y109.867
N11720 G1 X83.975 Y110.181
N11725 G1 X83.977 Y110.257
N11730 G1 X83.992 Y110.569
N11735 G1 X83.996 Y110.646
N11740 G1 X84.018 Y110.956
N11745 G1 X84.025 Y111.032
N11750 G1 X84.055 Y111.341
N11755 G1 X84.063 Y111.418
N11760 G1 X84.101 Y111.725
N11765 G1 X84.112 Y111.801
N11770 G1 X84.157 Y112.107
N11775 G1 X84.17 Y112.183
N11780 G1 X84.223 Y112.487
N11785 G1 X84.237 Y112.563
N11790 G1 X84.299 Y112.865
N11795 G1 X84.315 Y112.94
N11800 G1 X84.384 Y113.24
N11805 G1 X84.402 Y113.316
N11810 G1 X84.479 Y113.614
N11815 G1 X84.5 Y113.69
N11820 G1 X84.584 Y113.986
N11825 G1 X84.606 Y114.061
N11830 G1 X84.699 Y114.355
N11835 G1 X84.723 Y114.428
N11840 G1 X84.819 Y114.709
N11845 G1 X84.845 Y114.782
N11850 G1 X84.954 Y115.076
N11855 G1 X84.983 Y115.15
N11860 G1 X85.099 Y115.441
N11865 G1 X85.13 Y115.514
N11870 G1 X85.254 Y115.8
N11875 G1 X85.286 Y115.873
N11880 G1 X85.418 Y116.155
N11885 G1 X85.452 Y116.226
N11890 G1 X85.59 Y116.505
N11895 G1 X85.626 Y116.575
N11900 G1 X85.772 Y116.849
N11905 G1 X85.81 Y116.918
N11910 G1 X85.963 Y117.189
N11915 G1 X86.002 Y117.257
N11920 G1 X86.162 Y117.524
N11925 G1 X86.203 Y117.59
N11930 G1 X86.37 Y117.853
N11935 G1 X86.413 Y117.918
N11940 G1 X86.587 Y118.178
N11945 G1 X86.631 Y118.241
N11950 G1 X86.813 Y118.497
N11955 G1 X86.858 Y118.559
N11960 G1 X87.047 Y118.811
N11965 G1 X87.092 Y118.869
N11970 G1 X87.269 Y119.093
N11975 G1 X87.315 Y119.151
N11980 G1 X87.524 Y119.402
N11985 G1 X87.575 Y119.462
N11990 G1 X87.79 Y119.707
N11995 G1 X87.841 Y119.765
N12000 G1 X88.063 Y120.006
N12005 G1 X88.116 Y120.061
N12010 G1 X88.344 Y120.297
N12015 G1 X88.398 Y120.351
N12020 G1 X88.632 Y120.58
N12025 G1 X88.687 Y120.633
N12030 G1 X88.928 Y120.857
N12035 G1 X88.983 Y120.908
N12040 G1 X89.231 Y121.127
N12045 G1 X89.287 Y121.176
N12050 G1 X89.541 Y121.39
N12055 G1 X89.598 Y121.436
N12060 G1 X89.859 Y121.646
N12065 G1 X89.916 Y121.69
N12070 G1 X90.183 Y121.894
N12075 G1 X90.241 Y121.937
N12080 G1 X90.515 Y122.136
N12085 G1 X90.554 Y122.164
N12090 G1 X90.645 Y122.228
N12095 G1 X90.685 Y122.256
N12100 G1 X90.985 Y122.459
N12105 G1 X91.047 Y122.5
N12110 G1 X91.352 Y122.695
N12115 G1 X91.414 Y122.734
N12120 G1 X91.725 Y122.923
N12125 G1 X91.787 Y122.96
N12130 G1 X92.104 Y123.142
N12135 G1 X92.166 Y123.177
N12140 G1 X92.488 Y123.353
N12145 G1 X92.55 Y123.385
N12150 G1 X92.878 Y123.554
N12155 G1 X92.94 Y123.585
N12160 G1 X93.274 Y123.748
N12165 G1 X93.335 Y123.777
N12170 G1 X93.675 Y123.932
N12175 G1 X93.736 Y123.96
N12180 G1 X94.082 Y124.109
N12185 G1 X94.143 Y124.134
N12190 G1 X94.495 Y124.277
N12195 G1 X94.555 Y124.301
N12200 G1 X94.912 Y124.437
N12205 G1 X94.972 Y124.459
N12210 G1 X95.336 Y124.589
N12215 G1 X95.395 Y124.609
N12220 G1 X95.764 Y124.732
N12225 G1 X95.823 Y124.751
N12230 G1 X96.198 Y124.867
N12235 G1 X96.232 Y124.878
N12240 G1 X96.283 Y124.893
N12245 G1 X96.318 Y124.903
N12250 G1 X96.717 Y125.017
N12255 G1 X96.778 Y125.033
N12260 G1 X97.183 Y125.139
N12265 G1 X97.216 Y125.148
N12270 G3 X97.653 Y125.875 I-0.145 J0.582 F1000
N12275 G1 X97.507 Y126.457
N12280 G1 X97.485 Y126.548 Z-6.493
N12285 G1 X97.463 Y126.637 Z-6.471
N12290 G1 X97.441 Y126.722 Z-6.435
N12295 G1 X97.422 Y126.799 Z-6.385
N12300 G1 X97.405 Y126.869 Z-6.324
N12305 G1 X97.39 Y126.928 Z-6.253
N12310 G1 X97.378 Y126.976 Z-6.172
N12315 G1 X97.369 Y127.011 Z-6.085
N12320 G1 X97.364 Y127.032 Z-5.994
N12325 G1 X97.362 Y127.039 Z-5.9
N12330 G1 X96.198 Y126.749 F420
N12335 G1 Z-8.4 F333.3
N12340 G1 X96.2 Y126.742 Z-8.494 F1000
N12345 G1 X96.205 Y126.72 Z-8.585
N12350 G1 X96.214 Y126.685 Z-8.672
N12355 G1 X96.226 Y126.638 Z-8.753
N12360 G1 X96.24 Y126.578 Z-8.824
N12365 G1 X96.258 Y126.509 Z-8.885
N12370 G1 X96.277 Y126.431 Z-8.935
N12375 G1 X96.298 Y126.346 Z-8.971
N12380 G1 X96.32 Y126.258 Z-8.993
N12385 G1 X96.343 Y126.167 Z-9
N12390 G1 X96.489 Y125.584
N12395 G3 X97.216 Y125.148 I0.582 J0.145
N12400 G1 X97.242 Y125.154 F420
N12405 G1 X97.652 Y125.253
N12410 G1 X97.711 Y125.266
N12415 G1 X98.126 Y125.357
N12420 G1 X98.184 Y125.369
N12425 G1 X98.604 Y125.452
N12430 G1 X98.662 Y125.463
N12435 G1 X99.087 Y125.539
N12440 G1 X99.143 Y125.548
N12445 G1 X99.574 Y125.616
N12450 G1 X99.629 Y125.625
N12455 G1 X100.065 Y125.685
N12460 G1 X100.12 Y125.692
N12465 G1 X100.56 Y125.745
N12470 G1 X100.613 Y125.751
N12475 G1 X101.044 Y125.795
N12480 G2 X101.733 Y125.786 I0.305 J-2.984
N12485 G1 X101.929 Y125.761
N12490 G1 X102.101 Y125.744
N12495 G1 X102.304 Y125.73
N12500 G1 X102.537 Y125.721
N12505 G1 X102.8 Y125.717
N12510 G1 X103.092 Y125.719
N12515 G1 X103.414 Y125.729
N12520 G1 X103.765 Y125.746
N12525 G1 X104.146 Y125.772
N12530 G1 X104.554 Y125.808
N12535 G1 X104.99 Y125.853
N12540 G1 X105.452 Y125.908
N12545 G1 X105.989 Y125.982
N12550 G1 X106.543 Y126.066
N12555 G1 X107.112 Y126.161
N12560 G1 X107.695 Y126.267
N12565 G1 X108.291 Y126.384
N12570 G1 X108.899 Y126.511
N12575 G1 X109.517 Y126.648
N12580 G1 X110.15 Y126.796
N12585 G1 X110.292 Y126.831
N12590 G1 X110.894 Y126.981
N12595 G1 X111.486 Y127.135
N12600 G1 X112.074 Y127.296
N12605 G1 X112.658 Y127.461
N12610 G1 X113.238 Y127.632
N12615 G1 X113.814 Y127.807
N12620 G1 X114.385 Y127.987
N12625 G1 X114.952 Y128.172
N12630 G1 X115.514 Y128.361
N12635 G1 X116.07 Y128.555
N12640 G1 X116.622 Y128.752
N12645 G1 X117.168 Y128.954
N12650 G1 X117.709 Y129.16
N12655 G1 X118.245 Y129.37
N12660 G1 X118.774 Y129.584
N12665 G1 X119.298 Y129.801
N12670 G1 X119.816 Y130.023
N12675 G1 X120.327 Y130.248
N12680 G1 X120.833 Y130.477
N12685 G1 X121.332 Y130.709
N12690 G1 X121.824 Y130.946
N12695 G1 X122.309 Y131.186
N12700 G1 X122.788 Y131.429
N12705 G1 X123.259 Y131.676
N12710 G1 X123.723 Y131.927
N12715 G1 X124.18 Y132.182
N12720 G1 X124.629 Y132.44
N12725 G1 X125.072 Y132.703
N12730 G1 X125.39 Y132.897
N12735 G1 X125.776 Y133.139
N12740 G1 X126.153 Y133.383
N12745 G1 X126.524 Y133.631
N12750 G1 X126.89 Y133.883
N12755 G1 X127.25 Y134.139
N12760 G1 X127.604 Y134.4
N12765 G1 X127.954 Y134.665
N12770 G1 X128.297 Y134.934
N12775 G1 X128.635 Y135.207
N12780 G1 X128.968 Y135.485
N12785 G1 X129.295 Y135.767
N12790 G1 X129.617 Y136.054
N12795 G1 X129.933 Y136.344
N12800 G1 X130.244 Y136.64
N12805 G1 X130.549 Y136.94
N12810 G1 X130.849 Y137.244
N12815 G1 X131.143 Y137.553
N12820 G1 X131.432 Y137.866
N12825 G1 X131.717 Y138.187
N12830 G1 X131.911 Y138.411
N12835 G1 X132.19 Y138.744
N12840 G1 X132.46 Y139.076
N12845 G1 X132.723 Y139.413
N12850 G1 X132.979 Y139.752
N12855 G1 X133.229 Y140.095
N12860 G1 X133.472 Y140.441
N12865 G1 X133.709 Y140.791
N12870 G1 X133.939 Y141.144
N12875 G1 X134.163 Y141.501
N12880 G1 X134.38 Y141.862
N12885 G1 X134.592 Y142.226
N12890 G1 X134.797 Y142.594
N12895 G1 X134.995 Y142.965
N12900 G1 X135.188 Y143.341
N12905 G1 X135.375 Y143.72
N12910 G1 X135.555 Y144.103
N12915 G1 X135.729 Y144.49
N12920 G1 X135.897 Y144.881
N12925 G1 X136.059 Y145.276
N12930 G1 X136.215 Y145.675
N12935 G1 X136.365 Y146.078
N12940 G1 X136.509 Y146.488
N12945 G1 X136.621 Y146.823
N12950 G1 X136.762 Y147.266
N12955 G1 X136.894 Y147.709
N12960 G1 X137.019 Y148.154
N12965 G1 X137.136 Y148.602
N12970 G1 X137.245 Y149.053
N12975 G1 X137.347 Y149.507
N12980 G1 X137.442 Y149.963
N12985 G1 X137.529 Y150.422
N12990 G1 X137.608 Y150.884
N12995 G1 X137.681 Y151.348
N13000 G1 X137.746 Y151.816
N13005 G1 X137.803 Y152.285
N13010 G1 X137.854 Y152.758
N13015 G1 X137.897 Y153.233
N13020 G1 X137.932 Y153.711
N13025 G1 X137.961 Y154.191
N13030 G1 X137.981 Y154.674
N13035 G1 X137.995 Y155.159
N13040 G1 X138.001 Y155.647
N13045 G1 X137.999 Y156.137
N13050 G1 X137.991 Y156.63
N13055 G1 X137.974 Y157.125
N13060 G1 X137.95 Y157.622
N13065 G1 X137.919 Y158.123
N13070 G1 X137.884 Y158.567
N13075 G1 X137.836 Y159.09
N13080 G1 X137.781 Y159.612
N13085 G1 X137.717 Y160.132
N13090 G1 X137.646 Y160.652
N13095 G1 X137.567 Y161.171
N13100 G1 X137.48 Y161.689
N13105 G1 X137.386 Y162.206
N13110 G1 X137.284 Y162.721
N13115 G1 X137.175 Y163.235
N13120 G1 X137.059 Y163.747
N13125 G1 X136.935 Y164.257
N13130 G1 X136.804 Y164.765
N13135 G1 X136.666 Y165.271
N13140 G1 X136.521 Y165.774
N13145 G1 X136.369 Y166.276
N13150 G1 X136.21 Y166.776
N13155 G1 X136.043 Y167.273
N13160 G1 X135.87 Y167.768
N13165 G1 X135.689 Y168.261
N13170 G1 X135.501 Y168.751
N13175 G1 X135.307 Y169.239
N13180 G1 X135.105 Y169.725
N13185 G1 X134.895 Y170.211
N13190 G1 X134.738 Y170.561
N13195 G1 X134.515 Y171.045
N13200 G1 X134.286 Y171.521
N13205 G1 X134.051 Y171.994
N13210 G1 X133.81 Y172.464
N13215 G1 X133.561 Y172.929
N13220 G1 X133.307 Y173.39
N13225 G1 X133.046 Y173.848
N13230 G1 X132.779 Y174.302
N13235 G1 X132.505 Y174.752
N13240 G1 X132.225 Y175.198
N13245 G1 X131.939 Y175.64
N13250 G1 X131.646 Y176.078
N13255 G1 X131.342 Y176.519
N13260 G1 X131.303 Y176.575
N13265 G1 X130.991 Y177.011
N13270 G1 X130.679 Y177.436
N13275 G1 X130.362 Y177.855
N13280 G1 X130.038 Y178.27
N13285 G1 X129.709 Y178.679
N13290 G1 X129.375 Y179.084
N13295 G1 X129.035 Y179.484
N13300 G1 X128.689 Y179.879
N13305 G1 X128.337 Y180.269
N13310 G1 X127.977 Y180.657
N13315 G1 X127.774 Y180.871
N13320 G3 X125.646 Y181.778 I-2.128 J-2.043
N13325 G1 X90.253
N13330 G2 X81.303 Y190.728 I0 J8.95
N13335 G1 Y226.54
N13340 G2 X87.252 Y234.972 I8.95 J0
N13345 G1 X87.651 Y235.114
N13350 G1 X88.032 Y235.251
N13355 G1 X88.398 Y235.385
N13360 G1 X88.749 Y235.518
N13365 G1 X89.086 Y235.65
N13370 G1 X89.412 Y235.782
N13375 G1 X89.726 Y235.916
N13380 G1 X90.031 Y236.052
N13385 G1 X90.326 Y236.189
N13390 G1 X90.612 Y236.33
N13395 G1 X90.898 Y236.478
N13400 G1 X91.03 Y236.549
N13405 G1 X91.298 Y236.699
N13410 G1 X91.553 Y236.849
N13415 G1 X91.802 Y237.004
N13420 G1 X92.046 Y237.162
N13425 G1 X92.285 Y237.326
N13430 G1 X92.52 Y237.494
N13435 G1 X92.75 Y237.668
N13440 G1 X92.978 Y237.848
N13445 G1 X93.202 Y238.033
N13450 G1 X93.423 Y238.225
N13455 G1 X93.642 Y238.424
N13460 G1 X93.858 Y238.629
N13465 G1 X94.072 Y238.842
N13470 G1 X94.286 Y239.064
N13475 G1 X94.465 Y239.257
N13480 G1 X94.69 Y239.51
N13485 G1 X94.91 Y239.769
N13490 G1 X95.128 Y240.038
N13495 G1 X95.344 Y240.316
N13500 G1 X95.558 Y240.603
N13505 G1 X95.77 Y240.901
N13510 G1 X95.98 Y241.208
N13515 G1 X96.188 Y241.525
N13520 G1 X96.395 Y241.853
N13525 G1 X96.535 Y242.086
N13530 G1 X96.588 Y242.292
N13535 G1 X96.734 Y242.895
N13540 G1 X96.857 Y243.429
N13545 G1 X96.97 Y243.945
N13550 G1 X97.077 Y244.459
N13555 G1 X97.178 Y244.972
N13560 G1 X97.272 Y245.482
N13565 G1 X97.36 Y245.991
N13570 G1 X97.441 Y246.498
N13575 G1 X97.516 Y247.003
N13580 G1 X97.585 Y247.507
N13585 G1 X97.647 Y248.008
N13590 G1 X97.703 Y248.508
N13595 G1 X97.751 Y249.005
N13600 G1 X97.794 Y249.501
N13605 G1 X97.829 Y249.995
N13610 G1 X97.858 Y250.487
N13615 G1 X97.881 Y250.978
N13620 G1 X97.896 Y251.466
N13625 G1 X97.905 Y251.952
N13630 G1 X97.907 Y252.437
N13635 G1 X97.902 Y252.92
N13640 G1 X97.89 Y253.401
N13645 G1 X97.871 Y253.88
N13650 G1 X97.845 Y254.357
N13655 G1 X97.811 Y254.832
N13660 G1 X97.771 Y255.31
N13665 G1 X97.741 Y255.615
N13670 G1 X97.691 Y256.068
N13675 G1 X97.634 Y256.515
N13680 G1 X97.572 Y256.959
N13685 G1 X97.502 Y257.4
N13690 G1 X97.426 Y257.839
N13695 G1 X97.344 Y258.274
N13700 G1 X97.255 Y258.707
N13705 G1 X97.159 Y259.137
N13710 G1 X97.057 Y259.564
N13715 G1 X96.949 Y259.989
N13720 G1 X96.833 Y260.411
N13725 G1 X96.712 Y260.83
N13730 G1 X96.583 Y261.247
N13735 G1 X96.448 Y261.661
N13740 G1 X96.306 Y262.072
N13745 G1 X96.158 Y262.481
N13750 G1 X96.003 Y262.888
N13755 G1 X95.841 Y263.292
N13760 G1 X95.672 Y263.693
N13765 G1 X95.497 Y264.092
N13770 G1 X95.31 Y264.497
N13775 G1 X95.279 Y264.564
N13780 G1 X95.078 Y264.978
N13785 G1 X94.875 Y265.379
N13790 G1 X94.665 Y265.777
N13795 G1 X94.448 Y266.171
N13800 G1 X94.225 Y266.561
N13805 G1 X93.995 Y266.948
N13810 G1 X93.758 Y267.332
N13815 G1 X93.514 Y267.713
N13820 G1 X93.263 Y268.09
N13825 G1 X93.005 Y268.465
N13830 G1 X92.74 Y268.836
N13835 G1 X92.468 Y269.204
N13840 G1 X92.189 Y269.57
N13845 G1 X91.902 Y269.933
N13850 G1 X91.609 Y270.292
N13855 G1 X91.308 Y270.649
N13860 G1 X90.999 Y271.003
N13865 G1 X90.684 Y271.355
N13870 G1 X90.36 Y271.704
N13875 G1 X90.025 Y272.055
N13880 G1 X89.904 Y272.178
N13885 G1 X89.537 Y272.545
N13890 G1 X89.168 Y272.903
N13895 G1 X88.792 Y273.257
N13900 G1 X88.408 Y273.607
N13905 G1 X88.016 Y273.953
N13910 G1 X87.616 Y274.294
N13915 G1 X87.209 Y274.633
N13920 G1 X86.794 Y274.967
N13925 G1 X86.371 Y275.297
N13930 G1 X85.94 Y275.624
N13935 G1 X85.502 Y275.946
N13940 G1 X85.055 Y276.265
N13945 G1 X84.601 Y276.58
N13950 G1 X84.138 Y276.891
N13955 G1 X83.668 Y277.198
N13960 G1 X83.19 Y277.502
N13965 G1 X82.701 Y277.802
N13970 G1 X82.353 Y278.011
N13975 G1 X81.803 Y278.332
N13980 G1 X81.248 Y278.646
N13985 G1 X80.686 Y278.954
N13990 G1 X80.116 Y279.256
N13995 G1 X79.538 Y279.552
N14000 G1 X78.953 Y279.842
N14005 G1 X78.36 Y280.126
N14010 G1 X77.76 Y280.405
N14015 G1 X77.152 Y280.678
N14020 G1 X76.538 Y280.944
N14025 G1 X75.916 Y281.205
N14030 G1 X75.287 Y281.46
N14035 G1 X74.651 Y281.709
N14040 G1 X74.009 Y281.952
N14045 G1 X73.359 Y282.188
N14050 G1 X72.703 Y282.419
N14055 G1 X72.041 Y282.644
N14060 G1 X71.372 Y282.862
N14065 G1 X70.696 Y283.074
N14070 G1 X70.015 Y283.28
N14075 G1 X69.327 Y283.479
N14080 G1 X68.634 Y283.672
N14085 G1 X67.935 Y283.858
N14090 G1 X67.251 Y284.033
N14095 G1 X66.535 Y284.208
N14100 G1 X65.814 Y284.376
N14105 G1 X65.09 Y284.536
N14110 G1 X64.362 Y284.69
N14115 G1 X63.63 Y284.836
N14120 G1 X62.89 Y284.976
N14125 G1 X62.754 Y285.001
N14130 G1 X61.392 Y285.189
N14135 G1 X61.378 Y285.191
N14140 G1 X59.966 Y285.392
N14145 G1 X59.952 Y285.394
N14150 G1 X58.553 Y285.6
N14155 G1 X58.539 Y285.602
N14160 G1 X57.155 Y285.813
N14165 G1 X57.14 Y285.815
N14170 G1 X55.77 Y286.031
N14175 G1 X55.754 Y286.034
N14180 G1 X54.4 Y286.255
N14185 G1 X54.383 Y286.258
N14190 G1 X53.043 Y286.484
N14195 G1 X53.033 Y286.486
N14200 G1 X52.831 Y286.521
N14205 G1 X52.823 Y286.522
N14210 G1 X51.796 Y286.703
N14215 G1 X51.782 Y286.705
N14220 G1 X50.766 Y286.889
N14225 G1 X50.751 Y286.892
N14230 G1 X49.745 Y287.078
N14235 G1 X49.73 Y287.081
N14240 G1 X48.735 Y287.272
N14245 G1 X48.718 Y287.275
N14250 G1 X47.734 Y287.469
N14255 G1 X47.717 Y287.472
N14260 G1 X46.744 Y287.67
N14265 G1 X46.726 Y287.674
N14270 G1 X45.763 Y287.876
N14275 G1 X45.745 Y287.88
N14280 G1 X44.793 Y288.085
N14285 G1 X44.774 Y288.089
N14290 G1 X43.834 Y288.299
N14295 G1 X43.813 Y288.304
N14300 G1 X42.884 Y288.518
N14305 G1 X42.863 Y288.523
N14310 G1 X41.945 Y288.742
N14315 G1 X41.922 Y288.747
N14320 G1 X41.017 Y288.971
N14325 G1 X40.993 Y288.977
N14330 G1 X40.099 Y289.205
N14335 G1 X40.079 Y289.21
N14340 G1 X39.581 Y289.341
N14345 G1 X39.566 Y289.345
N14350 G1 X39.034 Y289.488
N14355 G1 X39.017 Y289.492
N14360 G1 X38.49 Y289.637
N14365 G1 X38.473 Y289.641
N14370 G1 X37.952 Y289.788
N14375 G1 X37.935 Y289.793
N14380 G1 X37.419 Y289.941
N14385 G1 X37.401 Y289.946
N14390 G1 X36.892 Y290.096
N14395 G1 X36.873 Y290.101
N14400 G1 X36.369 Y290.253
N14405 G1 X36.35 Y290.259
N14410 G1 X35.852 Y290.412
N14415 G1 X35.832 Y290.418
N14420 G1 X35.34 Y290.574
N14425 G1 X35.319 Y290.58
N14430 G1 X34.833 Y290.738
N14435 G1 X34.812 Y290.745
N14440 G1 X34.332 Y290.904
N14445 G1 X34.31 Y290.912
N14450 G1 X33.836 Y291.074
N14455 G1 X33.813 Y291.082
N14460 G1 X33.345 Y291.246
N14465 G1 X33.321 Y291.254
N14470 G1 X32.86 Y291.42
N14475 G1 X32.835 Y291.429
N14480 G1 X32.38 Y291.598
N14485 G1 X32.354 Y291.608
N14490 G1 X31.905 Y291.779
N14495 G1 X31.878 Y291.789
N14500 G1 X31.436 Y291.962
N14505 G1 X31.407 Y291.974
N14510 G1 X30.972 Y292.15
N14515 G1 X30.942 Y292.162
N14520 G1 X30.514 Y292.341
N14525 G1 X30.482 Y292.354
N14530 G1 X30.061 Y292.535
N14535 G1 X30.028 Y292.55
N14540 G1 X29.613 Y292.734
N14545 G1 X29.579 Y292.75
N14550 G1 X29.171 Y292.937
N14555 G1 X29.135 Y292.954
N14560 G1 X28.734 Y293.145
N14565 G1 X28.696 Y293.163
N14570 G1 X28.302 Y293.357
N14575 G1 X28.262 Y293.377
N14580 G1 X27.876 Y293.575
N14585 G1 X27.834 Y293.596
N14590 G1 X27.455 Y293.798
N14595 G1 X27.411 Y293.822
N14600 G1 X27.04 Y294.027
N14605 G1 X26.994 Y294.053
N14610 G1 X26.63 Y294.263
N14615 G1 X26.588 Y294.287
N14620 G1 X26.331 Y294.442
N14625 G1 X26.293 Y294.465
N14630 G1 X26.024 Y294.631
N14635 G1 X25.983 Y294.657
N14640 G1 X25.72 Y294.825
N14645 G1 X25.677 Y294.853
N14650 G1 X25.42 Y295.024
N14655 G1 X25.376 Y295.054
N14660 G1 X25.125 Y295.227
N14665 G1 X25.08 Y295.26
N14670 G1 X24.835 Y295.436
N14675 G1 X24.787 Y295.47
N14680 G1 X24.549 Y295.649
N14685 G1 X24.499 Y295.687
N14690 G1 X24.267 Y295.868
N14695 G1 X24.216 Y295.909
N14700 G1 X23.991 Y296.094
N14705 G1 X23.938 Y296.138
N14710 G1 X23.719 Y296.325
N14715 G1 X23.664 Y296.374
N14720 G1 X23.452 Y296.564
N14725 G1 X23.395 Y296.617
N14730 G1 X23.191 Y296.811
N14735 G1 X23.132 Y296.869
N14740 G1 X22.935 Y297.066
N14745 G1 X22.895 Y297.106
N14750 G1 X22.836 Y297.168
N14755 G1 X22.8 Y297.207
N14760 G1 X22.638 Y297.382
N14765 G1 X22.583 Y297.441
N14770 G1 X22.428 Y297.618
N14775 G1 X22.373 Y297.683
N14780 G1 X22.224 Y297.862
N14785 G1 X22.169 Y297.931
N14790 G1 X22.027 Y298.113
N14795 G1 X21.97 Y298.187
N14800 G1 X21.836 Y298.371
N14805 G1 X21.779 Y298.451
N14810 G1 X21.652 Y298.638
N14815 G1 X21.595 Y298.723
N14820 G1 X21.475 Y298.912
N14825 G1 X21.426 Y298.993
N14830 G1 X21.338 Y299.142
N14835 G1 X21.269 Y299.264
N14840 G1 X21.089 Y299.604
N14845 G1 X21 Y299.785
N14850 G1 X20.848 Y300.125
N14855 G1 X20.769 Y300.32
N14860 G1 X20.645 Y300.661
N14865 G1 X20.578 Y300.866
N14870 G1 X20.481 Y301.207
N14875 G1 X20.453 Y301.313
N14880 G1 X20.429 Y301.421
N14885 G1 X20.358 Y301.761
N14890 G1 X20.337 Y301.871
N14895 G1 X20.321 Y301.98
N14900 G1 X20.276 Y302.321
N14905 G1 X20.264 Y302.431
N14910 G1 X20.256 Y302.541
N14915 G1 X20.236 Y302.882
N14920 G1 X20.232 Y303.1
N14925 G1 X20.237 Y303.441
N14930 G1 X20.248 Y303.653
N14935 G1 X20.278 Y303.994
N14940 G1 X20.303 Y304.198
N14945 G1 X20.356 Y304.538
N14950 G1 X20.393 Y304.731
N14955 G1 X20.469 Y305.071
N14960 G1 X20.516 Y305.252
N14965 G1 X20.615 Y305.592
N14970 G1 X20.66 Y305.734
N14975 G1 X20.74 Y305.966
N14980 G1 X20.78 Y306.074
N14985 G1 X20.87 Y306.306
N14990 G1 X20.912 Y306.408
N14995 G1 X21.013 Y306.641
N15000 G1 X21.057 Y306.737
N15005 G1 X21.167 Y306.97
N15010 G1 X21.213 Y307.061
N15015 G1 X21.334 Y307.295
N15020 G1 X21.38 Y307.381
N15025 G1 X21.511 Y307.615
N15030 G1 X21.558 Y307.696
N15035 G1 X21.7 Y307.932
N15040 G1 X21.747 Y308.007
N15045 G1 X21.899 Y308.244
N15050 G1 X21.946 Y308.316
N15055 G1 X22.111 Y308.557
N15060 G1 X22.159 Y308.625
N15065 G1 X22.335 Y308.868
N15070 G1 X22.382 Y308.931
N15075 G1 X22.571 Y309.178
N15080 G1 X22.618 Y309.238
N15085 G1 X22.82 Y309.489
N15090 G1 X22.867 Y309.545
N15095 G1 X23.083 Y309.801
N15100 G1 X23.132 Y309.857
N15105 G1 X23.388 Y310.144
N15110 G1 X23.438 Y310.199
N15115 G1 X23.708 Y310.487
N15120 G1 X23.756 Y310.537
N15125 G1 X24.04 Y310.827
N15130 G1 X24.087 Y310.874
N15135 G1 X24.385 Y311.164
N15140 G1 X24.431 Y311.208
N15145 G1 X24.743 Y311.5
N15150 G1 X24.787 Y311.54
N15155 G1 X25.114 Y311.833
N15160 G1 X25.156 Y311.871
N15165 G1 X25.497 Y312.166
N15170 G1 X25.538 Y312.201
N15175 G1 X25.894 Y312.498
N15180 G1 X25.921 Y312.52
N15185 G1 X26.063 Y312.635
N15190 G1 X26.09 Y312.657
N15195 G1 X26.473 Y312.962
N15200 G1 X26.511 Y312.992
N15205 G1 X26.914 Y313.302
N15210 G1 X26.951 Y313.33
N15215 G1 X27.375 Y313.646
N15220 G1 X27.412 Y313.672
N15225 G1 X27.857 Y313.994
N15230 G1 X27.892 Y314.019
N15235 G1 X28.36 Y314.346
N15240 G1 X28.394 Y314.37
N15245 G1 X28.885 Y314.703
N15250 G1 X28.918 Y314.726
N15255 G1 X29.432 Y315.065
N15260 G1 X29.464 Y315.086
N15265 G1 X30.003 Y315.432
N15270 G1 X30.034 Y315.452
N15275 G1 X30.598 Y315.804
N15280 G1 X30.629 Y315.823
N15285 G1 X31.219 Y316.182
N15290 G1 X31.248 Y316.2
N15295 G1 X31.865 Y316.566
N15300 G1 X31.894 Y316.582
N15305 G1 X32.539 Y316.956
N15310 G1 X32.567 Y316.971
N15315 G1 X33.242 Y317.352
N15320 G1 X33.268 Y317.367
N15325 G1 X33.973 Y317.755
N15330 G1 X33.999 Y317.769
N15335 G1 X34.736 Y318.166
N15340 G1 X34.762 Y318.18
N15345 G1 X35.616 Y318.628
N15350 G1 X35.642 Y318.642
N15355 G1 X36.525 Y319.095
N15360 G1 X36.55 Y319.108
N15365 G1 X37.463 Y319.565
N15370 G1 X37.486 Y319.577
N15375 G1 X38.428 Y320.038
N15380 G1 X38.449 Y320.049
N15385 G1 X39.415 Y320.513
N15390 G1 X39.435 Y320.523
N15395 G1 X40.402 Y320.979
N15400 G1 X40.422 Y320.988
N15405 G1 X41.387 Y321.434
N15410 G1 X41.407 Y321.444
N15415 G1 X42.371 Y321.88
N15420 G1 X42.386 Y321.888
N15425 G1 X42.869 Y322.103
N15430 G1 X42.883 Y322.109
N15435 G1 X43.68 Y322.46
N15440 G1 X43.698 Y322.468
N15445 G1 X44.495 Y322.813
N15450 G1 X44.514 Y322.821
N15455 G1 X45.312 Y323.16
N15460 G1 X45.331 Y323.168
N15465 G1 X46.13 Y323.501
N15470 G1 X46.149 Y323.509
N15475 G1 X46.948 Y323.835
N15480 G1 X46.968 Y323.844
N15485 G1 X47.768 Y324.163
N15490 G1 X47.789 Y324.172
N15495 G1 X48.59 Y324.485
N15500 G1 X48.611 Y324.493
N15505 G1 X49.413 Y324.8
N15510 G1 X49.435 Y324.808
N15515 G1 X50.237 Y325.108
N15520 G1 X50.26 Y325.116
N15525 G1 X51.063 Y325.41
N15530 G1 X51.086 Y325.418
N15535 G1 X51.891 Y325.704
N15540 G1 X51.915 Y325.712
N15545 G1 X52.721 Y325.992
N15550 G1 X52.745 Y326
N15555 G1 X53.553 Y326.272
N15560 G1 X53.578 Y326.28
N15565 G1 X54.385 Y326.544
N15570 G1 X54.41 Y326.552
N15575 G1 X55.216 Y326.808
N15580 G1 X55.241 Y326.816
N15585 G1 X56.046 Y327.064
N15590 G1 X56.072 Y327.072
N15595 G1 X56.876 Y327.312
N15600 G1 X56.902 Y327.319
N15605 G1 X57.706 Y327.551
N15610 G1 X57.732 Y327.559
N15615 G1 X58.536 Y327.782
N15620 G1 X58.563 Y327.79
N15625 G1 X59.367 Y328.005
N15630 G1 X59.394 Y328.013
N15635 G1 X60.198 Y328.22
N15640 G1 X60.226 Y328.227
N15645 G1 X61.031 Y328.427
N15650 G1 X61.059 Y328.434
N15655 G1 X61.865 Y328.626
N15660 G1 X61.894 Y328.632
N15665 G1 X62.701 Y328.816
N15670 G1 X62.73 Y328.822
N15675 G1 X63.539 Y328.998
N15680 G1 X63.568 Y329.004
N15685 G1 X64.379 Y329.173
N15690 G1 X64.408 Y329.178
N15695 G1 X65.222 Y329.339
N15700 G1 X65.251 Y329.344
N15705 G1 X66.068 Y329.497
N15710 G1 X66.097 Y329.502
N15715 G1 X66.917 Y329.647
N15720 G1 X66.946 Y329.652
N15725 G1 X67.77 Y329.789
N15730 G1 X67.799 Y329.793
N15735 G1 X68.627 Y329.922
N15740 G1 X68.656 Y329.927
N15745 G1 X69.489 Y330.048
N15750 G1 X69.518 Y330.052
N15755 G1 X70.355 Y330.166
N15760 G1 X70.385 Y330.17
N15765 G1 X71.228 Y330.276
N15770 G1 X71.257 Y330.279
N15775 G1 X72.106 Y330.378
N15780 G1 X72.135 Y330.381
N15785 G1 X72.991 Y330.472
N15790 G1 X73.019 Y330.475
N15795 G1 X73.882 Y330.558
N15800 G1 X73.911 Y330.56
N15805 G1 X74.781 Y330.636
N15810 G1 X74.81 Y330.638
N15815 G1 X75.689 Y330.706
N15820 G1 X75.717 Y330.708
N15825 G1 X76.605 Y330.768
N15830 G1 X76.632 Y330.77
N15835 G1 X77.531 Y330.823
N15840 G1 X77.552 Y330.824
N15845 G1 X78.076 Y330.851
N15850 G1 X78.097 Y330.852
N15855 G1 X79.018 Y330.893
N15860 G1 X79.044 Y330.894
N15865 G1 X79.984 Y330.928
N15870 G1 X80.01 Y330.929
N15875 G1 X81.07 Y330.958
N15880 G1 X81.097 Y330.959
N15885 G1 X82.154 Y330.978
N15890 G1 X82.18
N15895 G1 X83.234 Y330.988
N15900 G1 X83.258
N15905 G1 X84.311 Y330.99
N15910 G1 X84.334
N15915 G1 X85.384 Y330.984
N15920 G1 X85.405
N15925 G1 X86.452 Y330.97
N15930 G1 X86.472
N15935 G1 X87.517 Y330.95
N15940 G1 X87.535 Y330.949
N15945 G1 X88.577 Y330.923
N15950 G1 X88.595 Y330.922
N15955 G1 X89.635 Y330.89
N15960 G1 X89.652 Y330.889
N15965 G1 X90.69 Y330.851
N15970 G1 X90.707 Y330.85
N15975 G1 X91.742 Y330.806
N15980 G1 X91.76 Y330.805
N15985 G1 X92.793 Y330.755
N15990 G1 X92.811 Y330.754
N15995 G1 X93.841 Y330.697
N16000 G1 X93.859 Y330.696
N16005 G1 X94.887 Y330.634
N16010 G1 X94.905 Y330.633
N16015 G1 X95.931 Y330.564
N16020 G1 X95.95 Y330.563
N16025 G1 X96.973 Y330.488
N16030 G1 X96.992 Y330.487
N16035 G1 X98.013 Y330.406
N16040 G1 X98.032 Y330.404
N16045 G1 X99.052 Y330.317
N16050 G1 X99.071 Y330.315
N16055 G1 X100.088 Y330.221
N16060 G1 X100.108 Y330.219
N16065 G1 X101.123 Y330.119
N16070 G1 X101.143 Y330.117
N16075 G1 X102.157 Y330.011
N16080 G1 X102.177 Y330.008
N16085 G1 X103.189 Y329.895
N16090 G1 X103.209 Y329.893
N16095 G1 X104.22 Y329.773
N16100 G1 X104.241 Y329.77
N16105 G1 X105.249 Y329.643
N16110 G1 X105.269 Y329.641
N16115 G1 X106.27 Y329.507
N16120 G1 X106.291 Y329.505
N16125 G1 X107.286 Y329.365
N16130 G1 X107.307 Y329.362
N16135 G1 X108.295 Y329.216
N16140 G1 X108.317 Y329.213
N16145 G1 X109.299 Y329.061
N16150 G1 X109.321 Y329.057
N16155 G1 X110.296 Y328.899
N16160 G1 X110.318 Y328.895
N16165 G1 X111.288 Y328.73
N16170 G1 X111.311 Y328.726
N16175 G1 X112.275 Y328.554
N16180 G1 X112.298 Y328.55
N16185 G1 X113.258 Y328.372
N16190 G1 X113.281 Y328.367
N16195 G1 X114.236 Y328.182
N16200 G1 X114.26 Y328.177
N16205 G1 X115.211 Y327.984
N16210 G1 X115.235 Y327.979
N16215 G1 X116.184 Y327.779
N16220 G1 X116.208 Y327.774
N16225 G1 X117.155 Y327.565
N16230 G1 X117.181 Y327.56
N16235 G1 X118.128 Y327.343
N16240 G1 X118.154 Y327.337
N16245 G1 X119.105 Y327.11
N16250 G1 X119.132 Y327.104
N16255 G1 X120.09 Y326.866
N16260 G1 X120.117 Y326.86
N16265 G1 X121.088 Y326.609
N16270 G1 X121.114 Y326.603
N16275 G1 X122.101 Y326.339
N16280 G1 X122.125 Y326.333
N16285 G1 X123.128 Y326.056
N16290 G1 X123.152 Y326.049
N16295 G1 X124.172 Y325.759
N16300 G1 X124.195 Y325.752
N16305 G1 X125.235 Y325.447
N16310 G1 X125.257 Y325.44
N16315 G1 X126.318 Y325.119
N16320 G1 X126.339 Y325.113
N16325 G1 X127.424 Y324.777
N16330 G1 X127.443 Y324.77
N16335 G1 X128.461 Y324.447
N16340 G1 X128.479 Y324.442
N16345 G1 X129.496 Y324.112
N16350 G1 X129.512 Y324.107
N16355 G1 X130.522 Y323.773
N16360 G1 X130.536 Y323.768
N16365 G1 X131.538 Y323.432
N16370 G1 X131.551 Y323.427
N16375 G1 X132.547 Y323.088
N16380 G1 X132.558 Y323.084
N16385 G1 X133.547 Y322.742
N16390 G1 X133.557 Y322.739
N16395 G1 X134.539 Y322.395
N16400 G1 X134.548 Y322.392
N16405 G1 X135.525 Y322.048
N16410 G1 X135.532 Y322.045
N16415 G1 X136.503 Y321.7
N16420 G1 X136.509 Y321.698
N16425 G1 X137.476 Y321.351
N16430 G1 X137.48 Y321.35
N16435 G1 X138.442 Y321.004
N16440 G1 X138.445 Y321.002
N16445 G1 X139.403 Y320.657
N16450 G1 X139.405 Y320.656
N16455 G1 X140.358 Y320.311
N16460 G1 X141.308 Y319.967
N16465 G1 X142.253 Y319.624
N16470 G1 X143.194 Y319.284
N16475 G1 X144.131 Y318.947
N16480 G1 X145.064 Y318.612
N16485 G1 X145.994 Y318.281
N16490 G1 X146.92 Y317.953
N16495 G1 X147.845 Y317.63
N16500 G1 X148.766 Y317.31
N16505 G1 X149.686 Y316.995
N16510 G1 X150.604 Y316.684
N16515 G1 X151.52 Y316.378
N16520 G1 X152.435 Y316.078
N16525 G1 X153.35 Y315.784
N16530 G1 X154.264 Y315.495
N16535 G1 X155.177 Y315.212
N16540 G1 X156.088 Y314.936
N16545 G1 X156.994 Y314.669
N16550 G1 X157.894 Y314.411
N16555 G1 X158.791 Y314.16
N16560 G1 X159.684 Y313.918
N16565 G1 X160.576 Y313.684
N16570 G1 X161.468 Y313.458
N16575 G1 X162.361 Y313.24
N16580 G1 X163.257 Y313.03
N16585 G1 X164.157 Y312.828
N16590 G1 X165.061 Y312.632
N16595 G1 X165.97 Y312.445
N16600 G1 X166.884 Y312.264
N16605 G1 X167.801 Y312.091
N16610 G1 X168.723 Y311.926
N16615 G1 X169.649 Y311.768
N16620 G1 X170.578 Y311.618
N16625 G1 X171.512 Y311.475
N16630 G1 X172.45 Y311.34
N16635 G1 X173.392 Y311.212
N16640 G1 X174.338 Y311.092
N16645 G1 X175.288 Y310.979
N16650 G1 X176.242 Y310.874
N16655 G1 X177.199 Y310.777
N16660 G1 X178.16 Y310.687
N16665 G1 X179.125 Y310.605
N16670 G1 X180.093 Y310.53
N16675 G1 X181.065 Y310.464
N16680 G1 X182.04 Y310.404
N16685 G1 X183.019 Y310.353
N16690 G1 X184.005 Y310.309
N16695 G1 X184.362 Y310.295
N16700 G1 X185.331 Y310.263
N16705 G1 X186.293 Y310.238
N16710 G1 X187.254 Y310.221
N16715 G1 X188.213 Y310.211
N16720 G1 X189.169 Y310.208
N16725 G1 X190.123 Y310.213
N16730 G1 X191.075 Y310.224
N16735 G1 X192.024 Y310.243
N16740 G1 X192.971 Y310.269
N16745 G1 X193.915 Y310.301
N16750 G1 X194.857 Y310.34
N16755 G1 X195.795 Y310.387
N16760 G1 X196.731 Y310.439
N16765 G1 X197.665 Y310.498
N16770 G1 X198.595 Y310.564
N16775 G1 X199.522 Y310.636
N16780 G1 X200.446 Y310.714
N16785 G1 X201.367 Y310.799
N16790 G1 X202.284 Y310.889
N16795 G1 X203.198 Y310.986
N16800 G1 X204.108 Y311.089
N16805 G1 X205.015 Y311.197
N16810 G1 X205.918 Y311.311
N16815 G1 X206.817 Y311.432
N16820 G1 X207.713 Y311.557
N16825 G1 X208.604 Y311.688
N16830 G1 X209.491 Y311.825
N16835 G1 X210.374 Y311.967
N16840 G1 X211.253 Y312.114
N16845 G1 X212.127 Y312.267
N16850 G1 X212.997 Y312.425
N16855 G1 X213.863 Y312.588
N16860 G1 X214.724 Y312.755
N16865 G1 X215.58 Y312.928
N16870 G1 X216.432 Y313.106
N16875 G1 X217.28 Y313.29
N16880 G1 X218.123 Y313.479
N16885 G1 X218.963 Y313.674
N16890 G1 X219.799 Y313.876
N16895 G1 X220.633 Y314.083
N16900 G1 X221.457 Y314.297
N16905 G1 X222.273 Y314.515
N16910 G1 X223.084 Y314.741
N16915 G1 X223.896 Y314.975
N16920 G1 X224.712 Y315.219
N16925 G1 X225.533 Y315.472
N16930 G1 X226.36 Y315.736
N16935 G1 X227.196 Y316.01
N16940 G1 X227.752 Y316.198
N16945 G1 X228.605 Y316.492
N16950 G1 X229.472 Y316.8
N16955 G1 X230.355 Y317.122
N16960 G1 X231.26 Y317.46
N16965 G1 X232.189 Y317.816
N16970 G1 X233.147 Y318.191
N16975 G1 X234.142 Y318.589
N16980 G1 X235.181 Y319.014
N16985 G1 X236.275 Y319.47
N16990 G1 X237.443 Y319.966
N16995 G1 X238.851 Y320.574
N17000 G1 X240.402 Y321.254
N17005 G1 X242.179 Y322.043
N17010 G1 X242.546 Y322.207
N17015 G1 X244.045 Y322.878
N17020 G1 X245.509 Y323.535
N17025 G1 X245.511 Y323.536
N17030 G1 X246.95 Y324.179
N17035 G1 X246.955 Y324.182
N17040 G1 X248.376 Y324.814
N17045 G1 X248.385 Y324.818
N17050 G1 X249.796 Y325.44
N17055 G1 X249.808 Y325.445
N17060 G1 X251.218 Y326.06
N17065 G1 X251.232 Y326.066
N17070 G1 X252.636 Y326.67
N17075 G1 X252.65 Y326.676
N17080 G1 X254.063 Y327.275
N17085 G1 X254.077 Y327.281
N17090 G1 X255.497 Y327.874
N17095 G1 X255.511 Y327.88
N17100 G1 X256.911 Y328.457
N17105 G1 X256.925 Y328.463
N17110 G1 X258.361 Y329.047
N17115 G1 X258.373 Y329.052
N17120 G1 X259.43 Y329.476
N17125 G1 X259.442 Y329.481
N17130 G1 X260.916 Y330.065
N17135 G1 X260.93 Y330.071
N17140 G1 X262.405 Y330.648
N17145 G1 X262.419 Y330.653
N17150 G1 X263.897 Y331.222
N17155 G1 X263.911 Y331.227
N17160 G1 X265.39 Y331.788
N17165 G1 X265.404 Y331.793
N17170 G1 X266.884 Y332.346
N17175 G1 X266.898 Y332.352
N17180 G1 X268.38 Y332.897
N17185 G1 X268.394 Y332.902
N17190 G1 X269.877 Y333.439
N17195 G1 X269.891 Y333.444
N17200 G1 X271.375 Y333.973
N17205 G1 X271.389 Y333.978
N17210 G1 X272.874 Y334.499
N17215 G1 X272.888 Y334.504
N17220 G1 X274.374 Y335.017
N17225 G1 X274.388 Y335.022
N17230 G1 X275.875 Y335.527
N17235 G1 X275.889 Y335.532
N17240 G1 X277.376 Y336.029
N17245 G1 X277.391 Y336.034
N17250 G1 X278.879 Y336.522
N17255 G1 X278.893 Y336.527
N17260 G1 X280.382 Y337.007
N17265 G1 X280.39 Y337.01
N17270 G1 X280.66 Y337.096
N17275 G1 X280.667 Y337.098
N17280 G1 X281.855 Y337.474
N17285 G1 X281.867 Y337.478
N17290 G1 X283.053 Y337.847
N17295 G1 X283.065 Y337.851
N17300 G1 X284.248 Y338.215
N17305 G1 X284.26 Y338.219
N17310 G1 X285.442 Y338.576
N17315 G1 X285.454 Y338.58
N17320 G1 X286.634 Y338.931
N17325 G1 X286.646 Y338.935
N17330 G1 X287.824 Y339.281
N17335 G1 X287.836 Y339.284
N17340 G1 X289.011 Y339.624
N17345 G1 X289.024 Y339.627
N17350 G1 X290.197 Y339.961
N17355 G1 X290.21 Y339.964
N17360 G1 X291.381 Y340.292
N17365 G1 X291.394 Y340.295
N17370 G1 X292.563 Y340.616
N17375 G1 X292.576 Y340.62
N17380 G1 X293.742 Y340.935
N17385 G1 X293.755 Y340.938
N17390 G1 X294.92 Y341.247
N17395 G1 X294.933 Y341.251
N17400 G1 X296.096 Y341.553
N17405 G1 X296.109 Y341.557
N17410 G1 X297.269 Y341.853
N17415 G1 X297.282 Y341.857
N17420 G1 X298.44 Y342.147
N17425 G1 X298.454 Y342.15
N17430 G1 X299.61 Y342.435
N17435 G1 X299.623 Y342.438
N17440 G1 X300.777 Y342.716
N17445 G1 X300.79 Y342.719
N17450 G1 X301.942 Y342.991
N17455 G1 X301.955 Y342.994
N17460 G1 X303.104 Y343.259
N17465 G1 X303.118 Y343.263
N17470 G1 X304.265 Y343.522
N17475 G1 X304.279 Y343.525
N17480 G1 X305.423 Y343.778
N17485 G1 X305.438 Y343.781
N17490 G1 X306.579 Y344.027
N17495 G1 X306.594 Y344.03
N17500 G1 X307.733 Y344.27
N17505 G1 X307.748 Y344.273
N17510 G1 X308.885 Y344.507
N17515 G1 X308.9 Y344.51
N17520 G1 X310.034 Y344.737
N17525 G1 X310.049 Y344.74
N17530 G1 X311.182 Y344.96
N17535 G1 X311.197 Y344.963
N17540 G1 X312.326 Y345.177
N17545 G1 X312.342 Y345.18
N17550 G1 X313.469 Y345.387
N17555 G1 X313.485 Y345.39
N17560 G1 X314.609 Y345.591
N17565 G1 X314.625 Y345.594
N17570 G1 X315.747 Y345.788
N17575 G1 X315.764 Y345.79
N17580 G1 X316.883 Y345.978
N17585 G1 X316.9 Y345.981
N17590 G1 X318.017 Y346.161
N17595 G1 X318.033 Y346.164
N17600 G1 X319.148 Y346.337
N17605 G1 X319.165 Y346.34
N17610 G1 X320.276 Y346.507
N17615 G1 X320.294 Y346.509
N17620 G1 X321.403 Y346.669
N17625 G1 X321.42 Y346.672
N17630 G1 X322.527 Y346.825
N17635 G1 X322.545 Y346.827
N17640 G1 X323.649 Y346.973
N17645 G1 X323.667 Y346.975
N17650 G1 X324.768 Y347.114
N17655 G1 X324.786 Y347.116
N17660 G1 X325.885 Y347.248
N17665 G1 X325.904 Y347.25
N17670 G1 X327 Y347.375
N17675 G1 X327.018 Y347.377
N17680 G1 X328.112 Y347.494
N17685 G1 X328.131 Y347.496
N17690 G1 X329.222 Y347.606
N17695 G1 X329.241 Y347.608
N17700 G1 X330.329 Y347.71
N17705 G1 X330.349 Y347.712
N17710 G1 X331.434 Y347.807
N17715 G1 X331.454 Y347.809
N17720 G1 X332.537 Y347.896
N17725 G1 X332.558 Y347.898
N17730 G1 X333.637 Y347.978
N17735 G1 X333.658 Y347.979
N17740 G1 X334.735 Y348.051
N17745 G1 X334.757 Y348.052
N17750 G1 X335.831 Y348.117
N17755 G1 X335.852 Y348.118
N17760 G1 X336.924 Y348.174
N17765 G1 X336.946 Y348.175
N17770 G1 X338.015 Y348.224
N17775 G1 X338.037 Y348.225
N17780 G1 X339.103 Y348.265
N17785 G1 X339.12
N17790 G1 X339.638 Y348.282
N17795 G1 X339.653 Y348.283
N17800 G1 X340.477 Y348.305
N17805 G1 X340.495
N17810 G1 X341.317 Y348.323
N17815 G1 X341.335
N17820 G1 X342.153 Y348.336
N17825 G1 X342.172
N17830 G1 X342.987 Y348.343
N17835 G1 X343.006
N17840 G1 X343.819 Y348.346
N17845 G1 X343.838
N17850 G1 X344.648 Y348.343
N17855 G1 X344.668 Y348.342
N17860 G1 X345.476 Y348.334
N17865 G1 X345.497 Y348.333
N17870 G1 X346.301 Y348.319
N17875 G1 X346.323
N17880 G1 X347.125 Y348.299
N17885 G1 X347.148 Y348.298
N17890 G1 X347.947 Y348.272
N17895 G1 X347.971 Y348.271
N17900 G1 X348.768 Y348.239
N17905 G1 X348.792 Y348.237
N17910 G1 X349.587 Y348.199
N17915 G1 X349.611 Y348.198
N17920 G1 X350.404 Y348.152
N17925 G1 X350.429 Y348.151
N17930 G1 X351.219 Y348.099
N17935 G1 X351.246 Y348.097
N17940 G1 X352.034 Y348.039
N17945 G1 X352.06 Y348.037
N17950 G1 X352.846 Y347.971
N17955 G1 X352.873 Y347.969
N17960 G1 X353.657 Y347.896
N17965 G1 X353.685 Y347.894
N17970 G1 X354.467 Y347.814
N17975 G1 X354.495 Y347.811
N17980 G1 X355.275 Y347.724
N17985 G1 X355.304 Y347.721
N17990 G1 X356.082 Y347.627
N17995 G1 X356.111 Y347.623
N18000 G1 X356.888 Y347.522
N18005 G1 X356.917 Y347.518
N18010 G1 X357.692 Y347.409
N18015 G1 X357.721 Y347.404
N18020 G1 X358.495 Y347.288
N18025 G1 X358.524 Y347.283
N18030 G1 X359.296 Y347.159
N18035 G1 X359.326 Y347.154
N18040 G1 X360.097 Y347.021
N18045 G1 X360.127 Y347.016
N18050 G1 X360.896 Y346.876
N18055 G1 X360.926 Y346.871
N18060 G1 X361.693 Y346.723
N18065 G1 X361.724 Y346.717
N18070 G1 X362.49 Y346.561
N18075 G1 X362.52 Y346.555
N18080 G1 X363.285 Y346.391
N18085 G1 X363.315 Y346.384
N18090 G1 X364.079 Y346.212
N18095 G1 X364.109 Y346.206
N18100 G1 X364.871 Y346.026
N18105 G1 X364.901 Y346.018
N18110 G1 X365.663 Y345.831
N18115 G1 X365.681 Y345.826
N18120 G1 X365.871 Y345.778
N18125 G1 X365.889 Y345.773
N18130 G1 X366.642 Y345.577
N18135 G1 X366.671 Y345.569
N18140 G1 X367.419 Y345.367
N18145 G1 X367.448 Y345.358
N18150 G1 X368.192 Y345.149
N18155 G1 X368.221 Y345.14
N18160 G1 X368.96 Y344.924
N18165 G1 X368.988 Y344.916
N18170 G1 X369.723 Y344.693
N18175 G1 X369.751 Y344.684
N18180 G1 X370.48 Y344.455
N18185 G1 X370.508 Y344.446
N18190 G1 X371.232 Y344.211
N18195 G1 X371.259 Y344.202
N18200 G1 X371.979 Y343.96
N18205 G1 X372.005 Y343.951
N18210 G1 X372.719 Y343.705
N18215 G1 X372.745 Y343.695
N18220 G1 X373.453 Y343.443
N18225 G1 X373.479 Y343.434
N18230 G1 X374.182 Y343.177
N18235 G1 X374.207 Y343.167
N18240 G1 X374.903 Y342.905
N18245 G1 X374.928 Y342.896
N18250 G1 X375.618 Y342.629
N18255 G1 X375.642 Y342.62
N18260 G1 X376.326 Y342.348
N18265 G1 X376.35 Y342.339
N18270 G1 X377.027 Y342.064
N18275 G1 X377.05 Y342.055
N18280 G1 X377.721 Y341.776
N18285 G1 X377.743 Y341.767
N18290 G1 X378.407 Y341.485
N18295 G1 X378.428 Y341.476
N18300 G1 X379.085 Y341.191
N18305 G1 X379.105 Y341.182
N18310 G1 X379.754 Y340.894
N18315 G1 X379.775 Y340.885
N18320 G1 X380.416 Y340.595
N18325 G1 X380.436 Y340.586
N18330 G1 X381.069 Y340.294
N18335 G1 X381.089 Y340.285
N18340 G1 X381.715 Y339.991
N18345 G1 X381.736 Y339.981
N18350 G1 X382.353 Y339.685
N18355 G1 X382.376 Y339.674
N18360 G1 X382.985 Y339.376
N18365 G1 X383.009 Y339.364
N18370 G1 X383.61 Y339.063
N18375 G1 X383.635 Y339.051
N18380 G1 X384.229 Y338.747
N18385 G1 X384.254 Y338.734
N18390 G1 X384.84 Y338.427
N18395 G1 X384.866 Y338.413
N18400 G1 X385.444 Y338.103
N18405 G1 X385.471 Y338.088
N18410 G1 X386.041 Y337.775
N18415 G1 X386.069 Y337.759
N18420 G1 X386.631 Y337.442
N18425 G1 X386.661 Y337.425
N18430 G1 X387.213 Y337.105
N18435 G1 X387.245 Y337.087
N18440 G1 X387.789 Y336.763
N18445 G1 X387.818 Y336.745
N18450 G1 X388.232 Y336.492
N18455 G1 X388.261 Y336.474
N18460 G1 X388.791 Y336.142
N18465 G1 X388.824 Y336.121
N18470 G1 X389.353 Y335.78
N18475 G1 X389.385 Y335.759
N18480 G1 X389.914 Y335.408
N18485 G1 X389.946 Y335.387
N18490 G1 X390.475 Y335.027
N18495 G1 X390.506 Y335.005
N18500 G1 X391.035 Y334.635
N18505 G1 X391.066 Y334.613
N18510 G1 X391.596 Y334.232
N18515 G1 X391.626 Y334.21
N18520 G1 X392.157 Y333.819
N18525 G1 X392.186 Y333.797
N18530 G1 X392.719 Y333.394
N18535 G1 X392.747 Y333.372
N18540 G1 X393.282 Y332.958
N18545 G1 X393.31 Y332.936
N18550 G1 X393.846 Y332.509
N18555 G1 X393.874 Y332.487
N18560 G1 X394.413 Y332.048
N18565 G1 X394.44 Y332.026
N18570 G1 X394.983 Y331.573
N18575 G1 X395.009 Y331.552
N18580 G1 X395.556 Y331.085
N18585 G1 X395.582 Y331.063
N18590 G1 X396.134 Y330.582
N18595 G1 X396.158 Y330.56
N18600 G1 X396.716 Y330.063
N18605 G1 X396.74 Y330.041
N18610 G1 X397.305 Y329.527
N18615 G1 X397.329 Y329.505
N18620 G1 X397.963 Y328.915
N18625 G1 X397.988 Y328.892
N18630 G1 X398.63 Y328.28
N18635 G1 X398.653 Y328.258
N18640 G1 X399.305 Y327.623
N18645 G1 X399.327 Y327.602
N18650 G1 X399.991 Y326.943
N18655 G1 X400.012 Y326.922
N18660 G1 X400.689 Y326.236
N18665 G1 X400.709 Y326.215
N18670 G1 X401.402 Y325.5
N18675 G1 X401.421 Y325.48
N18680 G1 X402.134 Y324.731
N18685 G1 X402.151 Y324.713
N18690 G1 X402.887 Y323.926
N18695 G1 X402.903 Y323.91
N18700 G1 X403.668 Y323.079
N18705 G1 X403.681 Y323.066
N18710 G1 X404.28 Y322.408
N18715 G1 X404.288 Y322.398
N18720 G1 X404.764 Y321.871
N18725 G1 X404.771 Y321.864
N18730 G1 X405.243 Y321.338
N18735 G1 X405.249 Y321.332
N18740 G1 X405.717 Y320.807
N18745 G1 X405.722 Y320.801
N18750 G1 X406.186 Y320.278
N18755 G1 X406.19 Y320.273
N18760 G1 X406.652 Y319.751
N18765 G1 X406.655 Y319.747
