%
(RoundedJack)
(RoundedJack)
(T1 D=6 CR=0 - ZMIN=-7 - flat end mill)
N10 G90 G94
N15 G17
N20 G21
N25 G28 G91 Z0
N30 G90

(RoundedJack)
N35 T1 M6
N40 S14000 M3
N45 G54
N50 G0 X342.268 Y264.967
N55 G0 G43 Z15 H1
N60 G0 Z0
N65 G1 Z-1.4 F1000
N70 G18 G3 X341.668 Z-2 I-0.6 K0
N75 G1 X341.262 F420
N80 G1 X341.194 Z-1.992
N85 G1 X341.13 Z-1.969
N90 G1 X341.066 Z-1.947
N95 G1 X340.998 Z-1.939
N100 G1 X338.11
N105 G17 G2 Y265.467 I0 J0.25
N110 G1 X338.178 Z-1.947
N115 G1 X338.242 Z-1.969
N120 G1 X338.306 Z-1.992
N125 G1 X338.374 Z-2
N130 G1 X345.287
N135 G1 X345.355 Z-1.992
N140 G1 X345.419 Z-1.969
N145 G1 X345.484 Z-1.947
N150 G1 X345.551 Z-1.939
N155 G1 X347.294
N160 G3 Y265.967 I0 J0.25
N165 G1 X347.226 Z-1.947
N170 G1 X347.162 Z-1.969
N175 G1 X347.098 Z-1.992
N180 G1 X347.03 Z-2
N185 G1 X337.242
N190 G1 X337.174 Z-1.992
N195 G1 X337.11 Z-1.969
N200 G1 X337.045 Z-1.947
N205 G1 X336.978 Z-1.939
N210 G1 X336.178
N215 G2 Y266.467 I0 J0.25
N220 G1 X336.245 Z-1.947
N225 G1 X336.31 Z-1.969
N230 G1 X336.374 Z-1.992
N235 G1 X336.442 Z-2
N240 G1 X338.271
N245 G1 X341.244 Z-2.027
N250 G1 X344.9 Z-2.003
N255 G1 X348.448 Z-2
N260 G1 X348.516 Z-1.992
N265 G1 X348.58 Z-1.969
N270 G1 X348.644 Z-1.947
N275 G1 X348.712 Z-1.939
N280 G1 X349.957
N285 G3 Y266.967 I0 J0.25
N290 G1 X349.889 Z-1.947
N295 G1 X349.825 Z-1.969
N300 G1 X349.76 Z-1.992
N305 G1 X349.693 Z-2
N310 G1 X346.654 Z-2.003
N315 G1 X345.269 Z-2.022
N320 G1 X342.305 Z-2.1
N325 G1 X340.976 Z-2.102
N330 G1 X339.09 Z-2.048
N335 G1 X338.412 Z-2.018
N340 G1 X337.366 Z-2
N345 G1 X335.822
N350 G1 X335.754 Z-1.992
N355 G1 X335.69 Z-1.969
N360 G1 X335.626 Z-1.947
N365 G1 X335.558 Z-1.939
N370 G1 X335.058
N375 G2 Y267.467 I0 J0.25
N380 G1 X335.126 Z-1.947
N385 G1 X335.19 Z-1.969
N390 G1 X335.254 Z-1.992
N395 G1 X335.322 Z-2
N400 G1 X336.67
N405 G1 X337.517 Z-2.019
N410 G1 X338.323 Z-2.071
N415 G1 X338.591 Z-2.093
N420 G1 X339.834 Z-2.182
N425 G1 X340.788 Z-2.227
N430 G1 X341.82 Z-2.235
N435 G1 X342.969 Z-2.205
N440 G1 X345.446 Z-2.082
N445 G1 X346.958 Z-2.02
N450 G1 X348.157 Z-2.002
N455 G1 X350.839 Z-2
N460 G1 X350.907 Z-1.992
N465 G1 X350.971 Z-1.969
N470 G1 X351.035 Z-1.947
N475 G1 X351.103 Z-1.939
N480 G1 X352.13
N485 G3 Y267.967 I0 J0.25
N490 G1 X352.063 Z-1.947
N495 G1 X351.998 Z-1.969
N500 G1 X351.934 Z-1.992
N505 G1 X351.867 Z-2
N510 G1 X349.338 Z-2.003
N515 G1 X348.283 Z-2.022
N520 G1 X347.036 Z-2.081
N525 G1 X345.647 Z-2.179
N530 G1 X343.383 Z-2.354
N535 G1 X342.342 Z-2.408
N540 G1 X341.431 Z-2.423
N545 G1 X340.612 Z-2.402
N550 G1 X339.819 Z-2.344
N555 G1 X338.621 Z-2.208
N560 G1 X338.297 Z-2.164
N565 G1 X337.501 Z-2.072
N570 G1 X336.84 Z-2.019
N575 G1 X336.185 Z-2
N580 G1 X334.905
N585 G1 X334.837 Z-1.992
N590 G1 X334.773 Z-1.969
N595 G1 X334.709 Z-1.947
N600 G1 X334.641 Z-1.939
N605 G1 X334.29
N610 G2 Y268.467 I0 J0.25
N615 G1 X334.358 Z-1.947
N620 G1 X334.422 Z-1.969
N625 G1 X334.486 Z-1.992
N630 G1 X334.554 Z-2
N635 G1 X335.696
N640 G1 X336.335 Z-2.018
N645 G1 X336.913 Z-2.072
N650 G1 X337.547 Z-2.163
N655 G1 X338.265 Z-2.292
N660 G1 X338.705 Z-2.379
N665 G1 X339.801 Z-2.562
N670 G1 X340.461 Z-2.632
N675 G1 X341.152 Z-2.667
N680 G1 X341.834 Z-2.669
N685 G1 X342.632 Z-2.637
N690 G1 X343.596 Z-2.562
N695 G1 X345.844 Z-2.315
N700 G1 X347.188 Z-2.176
N705 G1 X348.363 Z-2.082
N710 G1 X349.492 Z-2.022
N715 G1 X350.519 Z-2.002
N720 G1 X352.564 Z-2
N725 G1 X352.631 Z-1.992
N730 G1 X352.695 Z-1.969
N735 G1 X352.76 Z-1.947
N740 G1 X352.828 Z-1.939
N745 G1 X353.5
N750 G3 Y268.967 I0 J0.25
N755 G1 X353.432 Z-1.947
N760 G1 X353.368 Z-1.969
N765 G1 X353.304 Z-1.992
N770 G1 X353.236 Z-2
N775 G1 X351.358 Z-2.003
N780 G1 X350.607 Z-2.022
N785 G1 X349.577 Z-2.08
N790 G1 X348.483 Z-2.176
N795 G1 X347.324 Z-2.312
N800 G1 X346.116 Z-2.48
N805 G1 X344.684 Z-2.696
N810 G1 X343.648 Z-2.844
N815 G1 X342.526 Z-2.964
N820 G1 X341.839 Z-3.004
N825 G1 X341.247
N830 G1 X340.685 Z-2.97
N835 G1 X340.083 Z-2.891
N840 G1 X339.535 Z-2.791
N845 G1 X338.478 Z-2.522
N850 G1 X338.241 Z-2.455
N855 G1 X337.616 Z-2.294
N860 G1 X337.035 Z-2.167
N865 G1 X336.46 Z-2.072
N870 G1 X335.929 Z-2.018
N875 G1 X335.371 Z-2
N880 G1 X334.256
N885 G1 X334.188 Z-1.992
N890 G1 X334.124 Z-1.969
N895 G1 X334.059 Z-1.947
N900 G1 X333.992 Z-1.939
N905 G1 X333.737
N910 G2 Y269.467 I0 J0.25
N915 G1 X333.805 Z-1.947
N920 G1 X333.869 Z-1.969
N925 G1 X333.933 Z-1.992
N930 G1 X334.001 Z-2
N935 G1 X335.044
N940 G1 X335.602 Z-2.018
N945 G1 X336.099 Z-2.073
N950 G1 X336.626 Z-2.167
N955 G1 X337.147 Z-2.295
N960 G1 X337.674 Z-2.457
N965 G1 X338.225 Z-2.651
N970 G1 X338.84 Z-2.882
N975 G1 X339.223 Z-3.024
N980 G1 X339.815 Z-3.207
N985 G1 X340.248 Z-3.315
N990 G1 X340.704 Z-3.388
N995 G1 X341.189 Z-3.427
N1000 G1 X341.681 Z-3.433
N1005 G1 X342.297 Z-3.401
N1010 G1 X342.95 Z-3.329
N1015 G1 X343.73 Z-3.201
N1020 G1 X344.126 Z-3.129
N1025 G1 X345.159 Z-2.927
N1030 G1 X346.385 Z-2.685
N1035 G1 X347.519 Z-2.479
N1040 G1 X348.598 Z-2.31
N1045 G1 X349.646 Z-2.176
N1050 G1 X350.593 Z-2.087
N1055 G1 X351.488 Z-2.02
N1060 G1 X352.122 Z-2.003
N1065 G1 X353.884 Z-2
N1070 G1 X353.951 Z-1.992
N1075 G1 X354.016 Z-1.969
N1080 G1 X354.08 Z-1.947
N1085 G1 X354.148 Z-1.939
N1090 G1 X354.78
N1095 G3 Y269.967 I0 J0.25
N1100 G1 X354.713 Z-1.947
N1105 G1 X354.648 Z-1.969
N1110 G1 X354.584 Z-1.992
N1115 G1 X354.517 Z-2
N1120 G1 X352.768 Z-2.003
N1125 G1 X352.142 Z-2.022
N1130 G1 X351.431 Z-2.079
N1135 G1 X350.697 Z-2.177
N1140 G1 X349.726 Z-2.312
N1145 G1 X348.743 Z-2.479
N1150 G1 X347.733 Z-2.683
N1155 G1 X346.699 Z-2.921
N1160 G1 X345.643 Z-3.187
N1165 G1 X344.621 Z-3.454
N1170 G1 X343.751 Z-3.679
N1175 G1 X342.72 Z-3.897
N1180 G1 X342.164 Z-3.976
N1185 G1 X341.671 Z-4.01
N1190 G1 X341.225 Z-4.002
N1195 G1 X340.826 Z-3.96
N1200 G1 X340.448 Z-3.881
N1205 G1 X339.942 Z-3.719
N1210 G1 X339.558 Z-3.558
N1215 G1 X339.315 Z-3.438
N1220 G1 X338.866 Z-3.209
N1225 G1 X338.747 Z-3.146
N1230 G1 X338.234 Z-2.883
N1235 G1 X337.754 Z-2.658
N1240 G1 X337.268 Z-2.459
N1245 G1 X336.79 Z-2.296
N1250 G1 X336.303 Z-2.166
N1255 G1 X335.826 Z-2.075
N1260 G1 X335.329 Z-2.018
N1265 G1 X334.816 Z-2
N1270 G1 X333.786
N1275 G1 X333.719 Z-1.992
N1280 G1 X333.654 Z-1.969
N1285 G1 X333.59 Z-1.947
N1290 G1 X333.522 Z-1.939
N1295 G1 X333.34
N1300 G2 Y270.467 I0 J0.25
N1305 G1 X333.407 Z-1.947
N1310 G1 X333.472 Z-1.969
N1315 G1 X333.536 Z-1.992
N1320 G1 X333.604 Z-2
N1325 G1 X334.609
N1330 G1 X335.108 Z-2.018
N1335 G1 X335.59 Z-2.075
N1340 G1 X336.045 Z-2.166
N1345 G1 X336.509 Z-2.297
N1350 G1 X336.954 Z-2.458
N1355 G1 X337.407 Z-2.66
N1360 G1 X337.844 Z-2.892
N1365 G1 X338.269 Z-3.152
N1370 G1 X338.697 Z-3.447
N1375 G1 X339.183 Z-3.806
N1380 G1 X339.543 Z-4.077
N1385 G1 X339.916 Z-4.335
N1390 G1 X340.248 Z-4.518
N1395 G1 X340.519 Z-4.647
N1400 G1 X340.813 Z-4.745
N1405 G1 X341.112 Z-4.805
N1410 G1 X341.435 Z-4.831
N1415 G1 X341.774 Z-4.824
N1420 G1 X342.194 Z-4.772
N1425 G1 X342.658 Z-4.671
N1430 G1 X343.14 Z-4.523
N1435 G1 X343.561 Z-4.391
N1440 G1 X344.239 Z-4.148
N1445 G1 X344.408 Z-4.089
N1450 G1 X345.194 Z-3.805
N1455 G1 X346.123 Z-3.485
N1460 G1 X347.062 Z-3.185
N1465 G1 X348 Z-2.916
N1470 G1 X348.926 Z-2.682
N1475 G1 X349.855 Z-2.481
N1480 G1 X350.231 Z-2.412
N1485 G1 X350.676 Z-2.31
N1490 G1 X351.387 Z-2.175
N1495 G1 X352.09 Z-2.08
N1500 G1 X352.814 Z-2.021
N1505 G1 X353.433 Z-2.003
N1510 G1 X355.136 Z-2
N1515 G1 X355.204 Z-1.992
N1520 G1 X355.268 Z-1.969
N1525 G1 X355.332 Z-1.947
N1530 G1 X355.4 Z-1.939
N1535 G1 X355.996
N1540 G3 Y270.967 I0 J0.25
N1545 G1 X355.929 Z-1.947
N1550 G1 X355.864 Z-1.969
N1555 G1 X355.8 Z-1.992
N1560 G1 X355.733 Z-2
N1565 G1 X354.067 Z-2.003
N1570 G1 X353.436 Z-2.022
N1575 G1 X352.751 Z-2.079
N1580 G1 X352.043 Z-2.177
N1585 G1 X351.361 Z-2.309
N1590 G1 X350.682 Z-2.478
N1595 G1 X349.858 Z-2.727
N1600 G1 X349.147 Z-2.918
N1605 G1 X348.297 Z-3.183
N1610 G1 X347.461 Z-3.48
N1615 G1 X346.654 Z-3.802
N1620 G1 X345.876 Z-4.15
N1625 G1 X345.136 Z-4.518
N1630 G1 X344.438 Z-4.9
N1635 G1 X343.861 Z-5.251
N1640 G1 X343.773 Z-5.302
N1645 G1 X343.319 Z-5.611
N1650 G1 X343.153 Z-5.715
N1655 G1 X342.818 Z-5.976
N1660 G1 X342.581 Z-6.137
N1665 G1 X342.344 Z-6.358
N1670 G1 X342.138 Z-6.518
N1675 G1 X342.061 Z-6.564
N1680 G1 X341.958 Z-6.733
N1685 G1 X341.847 Z-6.881
N1690 G1 X341.733 Z-6.992
N1695 G1 X341.719 Z-7
N1700 G1 X341.529 Y270.963
N1705 G1 X341.339 Y270.967
N1710 G1 X341.276 Z-6.942
N1715 G1 X341.189 Z-6.833
N1720 G1 X341.088 Z-6.66
N1725 G1 X341.039 Z-6.562
N1730 G1 X340.879 Z-6.421
N1735 G1 X340.716 Z-6.223
N1740 G1 X340.648 Z-6.127
N1745 G1 X340.445 Z-5.908
N1750 G1 X340.285 Z-5.694
N1755 G1 X340.073 Z-5.439
N1760 G1 X339.958 Z-5.278
N1765 G1 X339.707 Z-4.958
N1770 G1 X339.637 Z-4.864
N1775 G1 X339.326 Z-4.477
N1780 G1 X339.009 Z-4.113
N1785 G1 X338.673 Z-3.769
N1790 G1 X338.319 Z-3.451
N1795 G1 X337.944 Z-3.157
N1800 G1 X337.55 Z-2.893
N1805 G1 X337.142 Z-2.661
N1810 G1 X336.717 Z-2.46
N1815 G1 X336.277 Z-2.294
N1820 G1 X335.838 Z-2.166
N1825 G1 X335.394 Z-2.075
N1830 G1 X334.926 Z-2.018
N1835 G1 X334.437 Z-2
N1840 G1 X333.448
N1845 G1 X333.38 Z-1.992
N1850 G1 X333.316 Z-1.969
N1855 G1 X333.251 Z-1.947
N1860 G1 X333.184 Z-1.939
N1865 G1 X333.054
N1870 G2 Y271.466 I0 J0.25
N1875 G1 X333.121 Z-1.947
N1880 G1 X333.186 Z-1.969
N1885 G1 X333.25 Z-1.992
N1890 G1 X333.318 Z-2
N1895 G1 X334.312
N1900 G1 X334.793 Z-2.019
N1905 G1 X335.237 Z-2.075
N1910 G1 X335.67 Z-2.166
N1915 G1 X336.1 Z-2.294
N1920 G1 X336.529 Z-2.461
N1925 G1 X336.938 Z-2.66
N1930 G1 X337.329 Z-2.892
N1935 G1 X337.704 Z-3.157
N1940 G1 X338.056 Z-3.451
N1945 G1 X338.382 Z-3.772
N1950 G1 X338.681 Z-4.117
N1955 G1 X338.947 Z-4.478
N1960 G1 X339.188 Z-4.868
N1965 G1 X339.394 Z-5.275
N1970 G1 X339.561 Z-5.692
N1975 G1 X339.686 Z-6.116
N1980 G1 X339.766 Z-6.551
N1985 G1 X339.795 Z-7
N1990 G1 X339.942 Y271.338
N1995 G1 X340.089 Y271.244
N2000 G1 X340.384 Y271.117
N2005 G1 X340.678 Y271.039
N2010 G1 X340.972 Y270.993
N2015 G1 X341.267 Y270.969
N2020 G1 X341.561 Y270.964
N2025 G1 X341.856 Y270.972
N2030 G1 X342.15 Y270.993
N2035 G1 X342.445 Y271.025
N2040 G1 X342.739 Y271.066
N2045 G1 X343.034 Y271.116
N2050 G1 X343.328 Y271.173
N2055 G1 X343.622 Y271.237
N2060 G1 X343.917 Y271.308
N2065 G1 X344.211 Y271.384
N2070 G1 X344.506 Y271.466
N2075 G1 X344.573 Z-6.566
N2080 G1 X344.77 Z-6.14
N2085 G1 X345.086 Z-5.715
N2090 G1 X345.499 Z-5.304
N2095 G1 X346.002 Z-4.9
N2100 G1 X346.578 Z-4.514
N2105 G1 X347.214 Z-4.148
N2110 G1 X347.903 Z-3.802
N2115 G1 X348.642 Z-3.479
N2120 G1 X349.41 Z-3.186
N2125 G1 X349.687 Z-3.093
N2130 G1 X350.092 Z-2.917
N2135 G1 X350.71 Z-2.68
N2140 G1 X351.354 Z-2.477
N2145 G1 X352.011 Z-2.31
N2150 G1 X352.682 Z-2.178
N2155 G1 X353.379 Z-2.08
N2160 G1 X354.072 Z-2.021
N2165 G1 X354.712 Z-2.002
N2170 G1 X356.322 Z-2
N2175 G1 X356.888 Z-1.999
N2180 G1 X356.918 Y271.468
N2185 G1 X356.948 Y271.474
N2190 G1 X356.977 Y271.483
N2195 G1 X357.004 Y271.495
N2200 G1 X357.03 Y271.511
N2205 G1 X357.054 Y271.529
N2210 G1 X357.075 Y271.551
N2215 G1 X357.094 Y271.574
N2220 G1 X357.109 Y271.6
N2225 G1 X357.122 Y271.628
N2230 G1 X357.131 Y271.657
N2235 G1 X357.136 Y271.686
N2240 G1 X357.138 Y271.716
N2245 G1 X357.136 Y271.747
N2250 G1 X357.131 Y271.776
N2255 G1 X357.122 Y271.805 Z-2
N2260 G1 X357.109 Y271.833
N2265 G1 X357.094 Y271.858
N2270 G1 X357.075 Y271.882
N2275 G1 X357.054 Y271.904
N2280 G1 X357.03 Y271.922
N2285 G1 X357.004 Y271.938
N2290 G1 X356.977 Y271.95
N2295 G1 X356.948 Y271.959
N2300 G1 X356.918 Y271.965
N2305 G1 X356.888 Y271.966
N2310 G1 X355.37
N2315 G1 X354.678 Z-2.021
N2320 G1 X353.988 Z-2.08
N2325 G1 X353.32 Z-2.175
N2330 G1 X352.645 Z-2.311
N2335 G1 X352.002 Z-2.478
N2340 G1 X351.369 Z-2.682
N2345 G1 X350.768 Z-2.915
N2350 G1 X350.187 Z-3.184
N2355 G1 X349.644 Z-3.481
N2360 G1 X349.394 Z-3.632
N2365 G1 X349.036 Z-3.801
N2370 G1 X348.398 Z-4.146
N2375 G1 X347.819 Z-4.511
N2380 G1 X347.3 Z-4.9
N2385 G1 X346.858 Z-5.301
N2390 G1 X346.502 Z-5.717
N2395 G1 X346.238 Z-6.14
N2400 G1 X346.078 Z-6.57
N2405 G1 X346.023 Z-7
N2410 G1 X346.343 Y272.086 Z-6.998
N2415 G1 X346.662 Y272.209 Z-6.996
N2420 G1 X346.98 Y272.336 Z-6.994
N2425 G1 X347.296 Y272.466 Z-6.992
N2430 G1 X347.344 Z-6.565
N2435 G1 X347.488 Z-6.141
N2440 G1 X347.728 Z-5.712
N2445 G1 X348.054 Z-5.299
N2450 G1 X348.459 Z-4.899
N2455 G1 X348.934 Z-4.518
N2460 G1 X349.109 Z-4.396
N2465 G1 X349.384 Z-4.152
N2470 G1 X349.836 Z-3.799
N2475 G1 X350.323 Z-3.479
N2480 G1 X350.853 Z-3.183
N2485 G1 X351.418 Z-2.916
N2490 G1 X352.009 Z-2.682
N2495 G1 X352.634 Z-2.478
N2500 G1 X353.268 Z-2.311
N2505 G1 X353.917 Z-2.178
N2510 G1 X354.591 Z-2.08
N2515 G1 X355.253 Z-2.022
N2520 G1 X355.844 Z-2.003
N2525 G1 X357.445 Z-2
N2530 G1 X357.512 Z-1.992
N2535 G1 X357.576 Z-1.969
N2540 G1 X357.64 Z-1.947
N2545 G1 X357.708 Z-1.939
N2550 G1 X358.249
N2555 G3 Y272.966 I0 J0.25
N2560 G1 X358.182 Z-1.947
N2565 G1 X358.117 Z-1.969
N2570 G1 X358.054 Z-1.992
N2575 G1 X357.986 Z-2
N2580 G1 X356.377 Z-2.004
N2585 G1 X355.816 Z-2.022
N2590 G1 X355.17 Z-2.08
N2595 G1 X354.523 Z-2.175
N2600 G1 X353.881 Z-2.308
N2605 G1 X353.245 Z-2.479
N2610 G1 X352.632 Z-2.683
N2615 G1 X352.052 Z-2.917
N2620 G1 X351.501 Z-3.181
N2625 G1 X350.978 Z-3.479
N2630 G1 X350.498 Z-3.801
N2635 G1 X350.063 Z-4.146
N2640 G1 X349.675 Z-4.515
N2645 G1 X349.34 Z-4.9
N2650 G1 X349.062 Z-5.304
N2655 G1 X348.855 Z-5.688
N2660 G1 X348.75 Z-5.887
N2665 G1 X348.618 Z-6.141
N2670 G1 X348.484 Z-6.564
N2675 G1 X348.438 Z-7
N2680 G1 X348.654 Y273.065
N2685 G1 X348.857 Y273.185
N2690 G1 X349.047 Y273.326
N2695 G1 X349.237 Y273.466
N2700 G1 X349.27 Z-6.559
N2705 G1 X349.363 Z-6.138
N2710 G1 X349.517 Z-5.72
N2715 G1 X349.732 Z-5.305
N2720 G1 X350.005 Z-4.902
N2725 G1 X350.337 Z-4.512
N2730 G1 X350.713 Z-4.148
N2735 G1 X351.143 Z-3.8
N2740 G1 X351.612 Z-3.48
N2745 G1 X352.122 Z-3.184
N2750 G1 X352.671 Z-2.916
N2755 G1 X353.245 Z-2.681
N2760 G1 X353.84 Z-2.479
N2765 G1 X354.466 Z-2.308
N2770 G1 X355.097 Z-2.176
N2775 G1 X355.748 Z-2.079
N2780 G1 X356.398 Z-2.02
N2785 G1 X356.98 Z-2.002
N2790 G1 X358.513 Z-2
N2795 G1 X358.58 Z-1.992
N2800 G1 X358.644 Z-1.969
N2805 G1 X358.709 Z-1.947
N2810 G1 X358.776 Z-1.939
N2815 G1 X359.294
N2820 G3 Y273.966 I0 J0.25
N2825 G1 X359.226 Z-1.947
N2830 G1 X359.162 Z-1.969
N2835 G1 X359.098 Z-1.992
N2840 G1 X359.031 Z-2
N2845 G1 X357.506 Z-2.003
N2850 G1 X356.935 Z-2.021
N2855 G1 X356.29 Z-2.08
N2860 G1 X355.661 Z-2.176
N2865 G1 X355.028 Z-2.311
N2870 G1 X354.423 Z-2.479
N2875 G1 X353.837 Z-2.68
N2880 G1 X353.271 Z-2.916
N2885 G1 X352.73 Z-3.185
N2890 G1 X352.232 Z-3.479
N2895 G1 X351.768 Z-3.801
N2900 G1 X351.348 Z-4.148
N2905 G1 X350.974 Z-4.515
N2910 G1 X350.654 Z-4.9
N2915 G1 X350.385 Z-5.302
N2920 G1 X350.173 Z-5.715
N2925 G1 X350.021 Z-6.141
N2930 G1 X349.931 Z-6.56
N2935 G1 X349.899 Z-6.999
N2940 G1 X350.22 Y274.215
N2945 G1 X350.38 Y274.34 Z-7
N2950 G1 X350.539 Y274.466
N2955 G1 X350.569 Z-6.57
N2960 G1 X350.659 Z-6.142
N2965 G1 X350.809 Z-5.719
N2970 G1 X351.016 Z-5.306
N2975 G1 X351.278 Z-4.903
N2980 G1 X351.598 Z-4.513
N2985 G1 X351.963 Z-4.147
N2990 G1 X352.375 Z-3.801
N2995 G1 X352.833 Z-3.477
N3000 G1 X353.326 Z-3.183
N3005 G1 X353.852 Z-2.917
N3010 G1 X354.411 Z-2.68
N3015 G1 X354.991 Z-2.478
N3020 G1 X355.587 Z-2.31
N3025 G1 X356.2 Z-2.177
N3030 G1 X356.836 Z-2.079
N3035 G1 X357.465 Z-2.021
N3040 G1 X358.016 Z-2.003
N3045 G1 X359.529 Z-2
N3050 G1 X359.597 Z-1.992
N3055 G1 X359.661 Z-1.969
N3060 G1 X359.725 Z-1.947
N3065 G1 X359.793 Z-1.939
N3070 G1 X360.287
N3075 G3 Y274.966 I0 J0.25
N3080 G1 X360.219 Z-1.947
N3085 G1 X360.155 Z-1.969
N3090 G1 X360.091 Z-1.992
N3095 G1 X360.024 Z-2
N3100 G1 X358.524 Z-2.003
N3105 G1 X357.984 Z-2.021
N3110 G1 X357.352 Z-2.08
N3115 G1 X356.74 Z-2.176
N3120 G1 X356.126 Z-2.311
N3125 G1 X355.538 Z-2.479
N3130 G1 X354.966 Z-2.682
N3135 G1 X354.416 Z-2.919
N3140 G1 X353.902 Z-3.183
N3145 G1 X353.414 Z-3.479
N3150 G1 X352.967 Z-3.801
N3155 G1 X352.563 Z-4.145
N3160 G1 X352.201 Z-4.514
N3165 G1 X351.888 Z-4.903
N3170 G1 X351.629 Z-5.305
N3175 G1 X351.427 Z-5.719
N3180 G1 X351.28 Z-6.14
N3185 G1 X351.191 Z-6.577
N3190 G1 X351.161 Z-7
N3195 G1 X351.314 Y275.09
N3200 G1 X351.616 Y275.341
N3205 G1 X351.766 Y275.466
N3210 G1 X351.797 Z-6.561
N3215 G1 X351.881 Z-6.148
N3220 G1 X352.026 Z-5.717
N3225 G1 X352.225 Z-5.306
N3230 G1 X352.482 Z-4.9
N3235 G1 X352.786 Z-4.516
N3240 G1 X353.141 Z-4.148
N3245 G1 X353.54 Z-3.801
N3250 G1 X353.979 Z-3.481
N3255 G1 X354.459 Z-3.184
N3260 G1 X354.975 Z-2.915
N3265 G1 X355.511 Z-2.681
N3270 G1 X356.075 Z-2.478
N3275 G1 X356.66 Z-2.309
N3280 G1 X357.254 Z-2.177
N3285 G1 X357.86 Z-2.081
N3290 G1 X358.476 Z-2.021
N3295 G1 X359.057 Z-2.002
N3300 G1 X360.497 Z-2
N3305 G1 X360.565 Z-1.992
N3310 G1 X360.629 Z-1.969
N3315 G1 X360.693 Z-1.947
N3320 G1 X360.761 Z-1.939
N3325 G1 X361.23
N3330 G3 Y275.966 I0 J0.25
N3335 G1 X361.163 Z-1.947
N3340 G1 X361.098 Z-1.969
N3345 G1 X361.034 Z-1.992
N3350 G1 X360.967 Z-2
N3355 G1 X359.536 Z-2.002
N3360 G1 X358.953 Z-2.023
N3365 G1 X358.362 Z-2.08
N3370 G1 X357.768 Z-2.175
N3375 G1 X357.169 Z-2.311
N3380 G1 X356.594 Z-2.479
N3385 G1 X356.037 Z-2.683
N3390 G1 X355.507 Z-2.918
N3395 G1 X355.004 Z-3.183
N3400 G1 X354.534 Z-3.479
N3405 G1 X354.099 Z-3.801
N3410 G1 X353.708 Z-4.145
N3415 G1 X353.355 Z-4.516
N3420 G1 X353.054 Z-4.904
N3425 G1 X352.805 Z-5.305
N3430 G1 X352.607 Z-5.723
N3435 G1 X352.467 Z-6.136
N3440 G1 X352.381 Z-6.57
N3445 G1 X352.352 Z-7
N3450 G1 X352.639 Y276.214
N3455 G1 X352.781 Y276.34
N3460 G1 X352.922 Y276.466
N3465 G1 X352.951 Z-6.568
N3470 G1 X353.034 Z-6.144
N3475 G1 X353.173 Z-5.722
N3480 G1 X353.368 Z-5.304
N3485 G1 X353.616 Z-4.899
N3490 G1 X353.913 Z-4.513
N3495 G1 X354.255 Z-4.147
N3500 G1 X354.642 Z-3.801
N3505 G1 X355.068 Z-3.481
N3510 G1 X355.533 Z-3.185
N3515 G1 X356.029 Z-2.918
N3520 G1 X356.553 Z-2.683
N3525 G1 X357.104 Z-2.479
N3530 G1 X357.67 Z-2.31
N3535 G1 X358.251 Z-2.177
N3540 G1 X358.854 Z-2.079
N3545 G1 X359.439 Z-2.022
N3550 G1 X359.937 Z-2.004
N3555 G1 X361.417 Z-2
N3560 G1 X361.484 Z-1.992
N3565 G1 X361.548 Z-1.969
N3570 G1 X361.612 Z-1.947
N3575 G1 X361.68 Z-1.939
N3580 G1 X362.13
N3585 G3 Y276.966 I0 J0.25
N3590 G1 X362.063 Z-1.947
N3595 G1 X361.998 Z-1.969
N3600 G1 X361.934 Z-1.992
N3605 G1 X361.867 Z-2
N3610 G1 X360.459 Z-2.002
N3615 G1 X359.903 Z-2.022
N3620 G1 X359.324 Z-2.08
N3625 G1 X358.729 Z-2.178
N3630 G1 X358.155 Z-2.311
N3635 G1 X357.602 Z-2.477
N3640 G1 X357.058 Z-2.681
N3645 G1 X356.54 Z-2.917
N3650 G1 X356.049 Z-3.185
N3655 G1 X355.592 Z-3.479
N3660 G1 X355.171 Z-3.801
N3665 G1 X354.79 Z-4.145
N3670 G1 X354.451 Z-4.514
N3675 G1 X354.156 Z-4.904
N3680 G1 X353.916 Z-5.301
N3685 G1 X353.725 Z-5.715
N3690 G1 X353.587 Z-6.146
N3695 G1 X353.506 Z-6.559
N3700 G1 X353.477 Z-7
N3705 G1 X353.612 Y277.09 Z-6.999
N3710 G1 X353.882 Y277.34 Z-6.997
N3715 G1 X354.016 Y277.466
N3720 G1 X354.045 Z-6.556
N3725 G1 X354.125 Z-6.135
N3730 G1 X354.258 Z-5.721
N3735 G1 X354.448 Z-5.301
N3740 G1 X354.688 Z-4.9
N3745 G1 X354.973 Z-4.516
N3750 G1 X355.306 Z-4.149
N3755 G1 X355.684 Z-3.802
N3760 G1 X356.102 Z-3.478
N3765 G1 X356.553 Z-3.183
N3770 G1 X357.034 Z-2.918
N3775 G1 X357.547 Z-2.681
N3780 G1 X358.077 Z-2.48
N3785 G1 X358.632 Z-2.31
N3790 G1 X359.2 Z-2.177
N3795 G1 X359.79 Z-2.079
N3800 G1 X360.368 Z-2.021
N3805 G1 X360.892 Z-2.003
N3810 G1 X362.295 Z-2
N3815 G1 X362.363 Z-1.992
N3820 G1 X362.427 Z-1.969
N3825 G1 X362.491 Z-1.947
N3830 G1 X362.559 Z-1.939
N3835 G1 X362.985
N3840 G3 Y277.966 I0 J0.25
N3845 G1 X362.917 Z-1.947
N3850 G1 X362.853 Z-1.969
N3855 G1 X362.789 Z-1.992
N3860 G1 X362.721 Z-2
N3865 G1 X361.321 Z-2.003
N3870 G1 X360.818 Z-2.021
N3875 G1 X360.229 Z-2.081
N3880 G1 X359.66 Z-2.176
N3885 G1 X359.098 Z-2.31
N3890 G1 X358.549 Z-2.479
N3895 G1 X358.019 Z-2.683
N3900 G1 X357.518 Z-2.917
N3905 G1 X357.042 Z-3.183
N3910 G1 X356.595 Z-3.479
N3915 G1 X356.185 Z-3.801
N3920 G1 X355.814 Z-4.146
N3925 G1 X355.483 Z-4.517
N3930 G1 X355.199 Z-4.905
N3935 G1 X354.964 Z-5.305
N3940 G1 X354.778 Z-5.722
N3945 G1 X354.645 Z-6.143
N3950 G1 X354.565 Z-6.577
N3955 G1 X354.539 Z-6.991
N3960 G1 X354.795 Y278.215 Z-6.995
N3965 G1 X354.922 Y278.34 Z-6.998
N3970 G1 X355.049 Y278.466 Z-7
N3975 G1 X355.076 Z-6.561
N3980 G1 X355.154 Z-6.144
N3985 G1 X355.286 Z-5.715
N3990 G1 X355.469 Z-5.301
N3995 G1 X355.7 Z-4.903
N4000 G1 X355.979 Z-4.517
N4005 G1 X356.304 Z-4.148
N4010 G1 X356.673 Z-3.801
N4015 G1 X357.078 Z-3.478
N4020 G1 X357.517 Z-3.184
N4025 G1 X357.987 Z-2.918
N4030 G1 X358.49 Z-2.68
N4035 G1 X359.008 Z-2.479
N4040 G1 X359.55 Z-2.309
N4045 G1 X360.106 Z-2.176
N4050 G1 X360.67 Z-2.08
N4055 G1 X361.238 Z-2.022
N4060 G1 X361.737 Z-2.003
N4065 G1 X363.134 Z-2
N4070 G1 X363.201 Z-1.992
N4075 G1 X363.265 Z-1.969
N4080 G1 X363.329 Z-1.947
N4085 G1 X363.397 Z-1.939
N4090 G1 X363.8
N4095 G3 Y278.966 I0 J0.25
N4100 G1 X363.732 Z-1.947
N4105 G1 X363.668 Z-1.969
N4110 G1 X363.604 Z-1.992
N4115 G1 X363.537 Z-2
N4120 G1 X362.195 Z-2.002
N4125 G1 X361.659 Z-2.022
N4130 G1 X361.096 Z-2.081
N4135 G1 X360.54 Z-2.176
N4140 G1 X359.988 Z-2.31
N4145 G1 X359.452 Z-2.479
N4150 G1 X358.938 Z-2.681
N4155 G1 X358.447 Z-2.916
N4160 G1 X357.981 Z-3.184
N4165 G1 X357.546 Z-3.479
N4170 G1 X357.144 Z-3.803
N4175 G1 X356.782 Z-4.149
N4180 G1 X356.463 Z-4.515
N4185 G1 X356.186 Z-4.905
N4190 G1 X355.956 Z-5.308
N4195 G1 X355.776 Z-5.72
N4200 G1 X355.647 Z-6.143
N4205 G1 X355.57 Z-6.563
N4210 G1 X355.544 Z-6.991
N4215 G1 X355.785 Y279.215 Z-6.996
N4220 G1 X355.905 Y279.34 Z-6.998
N4225 G1 X356.025 Y279.466 Z-7
N4230 G1 X356.053 Z-6.555
N4235 G1 X356.127 Z-6.147
N4240 G1 X356.255 Z-5.72
N4245 G1 X356.435 Z-5.304
N4250 G1 X356.66 Z-4.901
N4255 G1 X356.933 Z-4.514
N4260 G1 X357.248 Z-4.15
N4265 G1 X357.606 Z-3.802
N4270 G1 X358.002 Z-3.479
N4275 G1 X358.433 Z-3.183
N4280 G1 X358.891 Z-2.918
N4285 G1 X359.383 Z-2.68
N4290 G1 X359.892 Z-2.478
N4295 G1 X360.423 Z-2.308
N4300 G1 X360.968 Z-2.175
N4305 G1 X361.519 Z-2.08
N4310 G1 X362.076 Z-2.021
N4315 G1 X362.543 Z-2.004
N4320 G1 X363.934 Z-2
N4325 G1 X364.002 Z-1.992
N4330 G1 X364.065 Z-1.969
N4335 G1 X364.13 Z-1.947
N4340 G1 X364.197 Z-1.939
N4345 G1 X364.579
N4350 G3 Y279.966 I0 J0.25
N4355 G1 X364.511 Z-1.947
N4360 G1 X364.447 Z-1.969
N4365 G1 X364.383 Z-1.992
N4370 G1 X364.315 Z-2
N4375 G1 X363.057
N4380 G1 X362.489 Z-2.02
N4385 G1 X361.931 Z-2.079
N4390 G1 X361.373 Z-2.177
N4395 G1 X360.833 Z-2.311
N4400 G1 X360.315 Z-2.478
N4405 G1 X359.81 Z-2.681
N4410 G1 X359.328 Z-2.917
N4415 G1 X358.874 Z-3.182
N4420 G1 X358.447 Z-3.479
N4425 G1 X358.055 Z-3.802
N4430 G1 X357.703 Z-4.148
N4435 G1 X357.39 Z-4.515
N4440 G1 X357.122 Z-4.9
N4445 G1 X356.897 Z-5.306
N4450 G1 X356.721 Z-5.722
N4455 G1 X356.595 Z-6.143
N4460 G1 X356.521 Z-6.557
N4465 G1 X356.494 Z-6.988
N4470 G1 X356.609 Y280.09 Z-6.991
N4475 G1 X356.723 Y280.215 Z-6.994
N4480 G1 X356.95 Y280.466 Z-7
N4485 G1 X356.977 Z-6.56
N4490 G1 X357.051 Z-6.142
N4495 G1 X357.174 Z-5.724
N4500 G1 X357.348 Z-5.304
N4505 G1 X357.57 Z-4.901
N4510 G1 X357.837 Z-4.514
N4515 G1 X358.144 Z-4.148
N4520 G1 X358.494 Z-3.801
N4525 G1 X358.88 Z-3.479
N4530 G1 X359.298 Z-3.185
N4535 G1 X359.754 Z-2.915
N4540 G1 X360.231 Z-2.68
N4545 G1 X360.724 Z-2.479
N4550 G1 X361.245 Z-2.31
N4555 G1 X361.78 Z-2.176
N4560 G1 X362.319 Z-2.081
N4565 G1 X362.879 Z-2.021
N4570 G1 X363.359 Z-2.003
N4575 G1 X364.696 Z-2
N4580 G1 X364.763 Z-1.992
N4585 G1 X364.827 Z-1.969
N4590 G1 X364.891 Z-1.947
N4595 G1 X364.959 Z-1.939
N4600 G1 X365.322
N4605 G3 Y280.965 I0 J0.25
N4610 G1 X365.255 Z-1.947
N4615 G1 X365.19 Z-1.969
N4620 G1 X365.126 Z-1.992
N4625 G1 X365.059 Z-2
N4630 G1 X363.738 Z-2.003
N4635 G1 X363.253 Z-2.022
N4640 G1 X362.711 Z-2.08
N4645 G1 X362.173 Z-2.176
N4650 G1 X361.643 Z-2.309
N4655 G1 X361.134 Z-2.477
N4660 G1 X360.632 Z-2.683
N4665 G1 X360.165 Z-2.917
N4670 G1 X359.717 Z-3.184
N4675 G1 X359.302 Z-3.48
N4680 G1 X358.919 Z-3.802
N4685 G1 X358.575 Z-4.147
N4690 G1 X358.27 Z-4.515
N4695 G1 X358.007 Z-4.901
N4700 G1 X357.786 Z-5.308
N4705 G1 X357.615 Z-5.723
N4710 G1 X357.493 Z-6.145
N4715 G1 X357.419 Z-6.581
N4720 G1 X357.395 Z-7
N4725 G1 X357.611 Y281.215
N4730 G1 X357.826 Y281.465
N4735 G1 X357.85 Z-6.58
N4740 G1 X357.924 Z-6.139
N4745 G1 X358.047 Z-5.716
N4750 G1 X358.215 Z-5.305
N4755 G1 X358.432 Z-4.902
N4760 G1 X358.69 Z-4.518
N4765 G1 X358.994 Z-4.147
N4770 G1 X359.333 Z-3.804
N4775 G1 X359.713 Z-3.479
N4780 G1 X360.127 Z-3.182
N4785 G1 X360.565 Z-2.918
N4790 G1 X361.033 Z-2.681
N4795 G1 X361.525 Z-2.478
N4800 G1 X362.029 Z-2.31
N4805 G1 X362.554 Z-2.176
N4810 G1 X363.081 Z-2.081
N4815 G1 X363.617 Z-2.022
N4820 G1 X364.077 Z-2.004
N4825 G1 X365.418 Z-2
N4830 G1 X365.486 Z-1.992
N4835 G1 X365.55 Z-1.969
N4840 G1 X365.614 Z-1.947
N4845 G1 X365.682 Z-1.939
N4850 G1 X366.034
N4855 G3 Y281.965 I0 J0.25
N4860 G1 X365.966 Z-1.947
N4865 G1 X365.902 Z-1.969
N4870 G1 X365.838 Z-1.992
N4875 G1 X365.77 Z-2
N4880 G1 X364.489 Z-2.002
N4885 G1 X363.991 Z-2.022
N4890 G1 X363.453 Z-2.081
N4895 G1 X362.926 Z-2.177
N4900 G1 X362.414 Z-2.308
N4905 G1 X361.906 Z-2.479
N4910 G1 X361.418 Z-2.683
N4915 G1 X360.958 Z-2.917
N4920 G1 X360.519 Z-3.186
N4925 G1 X360.113 Z-3.48
N4930 G1 X359.74 Z-3.802
N4935 G1 X359.403 Z-4.146
N4940 G1 X359.104 Z-4.515
N4945 G1 X358.846 Z-4.902
N4950 G1 X358.63 Z-5.309
N4955 G1 X358.465 Z-5.716
N4960 G1 X358.343 Z-6.143
N4965 G1 X358.272 Z-6.559
N4970 G1 X358.247 Z-7
N4975 G1 X358.453 Y282.214
N4980 G1 X358.656 Y282.465
N4985 G1 X358.681 Z-6.565
N4990 G1 X358.752 Z-6.143
N4995 G1 X358.871 Z-5.721
N5000 G1 X359.038 Z-5.303
N5005 G1 X359.248 Z-4.905
N5010 G1 X359.504 Z-4.514
N5015 G1 X359.798 Z-4.149
N5020 G1 X360.134 Z-3.802
N5025 G1 X360.505 Z-3.479
N5030 G1 X360.908 Z-3.184
N5035 G1 X361.339 Z-2.918
N5040 G1 X361.802 Z-2.68
N5045 G1 X362.279 Z-2.479
N5050 G1 X362.783 Z-2.308
N5055 G1 X363.288 Z-2.178
N5060 G1 X363.824 Z-2.079
N5065 G1 X364.345 Z-2.022
N5070 G1 X364.835 Z-2.002
N5075 G1 X366.109 Z-2
N5080 G1 X366.177 Z-1.992
N5085 G1 X366.241 Z-1.969
N5090 G1 X366.305 Z-1.947
N5095 G1 X366.373 Z-1.939
N5100 G1 X366.712
N5105 G3 Y282.965 I0 J0.25
N5110 G1 X366.644 Z-1.947
N5115 G1 X366.58 Z-1.969
N5120 G1 X366.516 Z-1.992
N5125 G1 X366.448 Z-2
N5130 G1 X365.176 Z-2.003
N5135 G1 X364.69 Z-2.022
N5140 G1 X364.176 Z-2.079
N5145 G1 X363.644 Z-2.178
N5150 G1 X363.143 Z-2.308
N5155 G1 X362.643 Z-2.479
N5160 G1 X362.17 Z-2.68
N5165 G1 X361.711 Z-2.918
N5170 G1 X361.284 Z-3.185
N5175 G1 X360.883 Z-3.481
N5180 G1 X360.518 Z-3.802
N5185 G1 X360.185 Z-4.151
N5190 G1 X359.892 Z-4.519
N5195 G1 X359.643 Z-4.9
N5200 G1 X359.431 Z-5.309
N5205 G1 X359.267 Z-5.724
N5210 G1 X359.149 Z-6.151
N5215 G1 X359.08 Z-6.558
N5220 G1 X359.055 Z-7
N5225 G1 X359.25 Y283.215
N5230 G1 X359.444 Y283.465
N5235 G1 X359.469 Z-6.557
N5240 G1 X359.537 Z-6.146
N5245 G1 X359.656 Z-5.716
N5250 G1 X359.817 Z-5.305
N5255 G1 X360.022 Z-4.906
N5260 G1 X360.273 Z-4.517
N5265 G1 X360.565 Z-4.147
N5270 G1 X360.893 Z-3.801
N5275 G1 X361.256 Z-3.479
N5280 G1 X361.655 Z-3.182
N5285 G1 X362.075 Z-2.918
N5290 G1 X362.531 Z-2.68
N5295 G1 X363 Z-2.478
N5300 G1 X363.49 Z-2.31
N5305 G1 X363.999 Z-2.176
N5310 G1 X364.515 Z-2.08
N5315 G1 X365.028 Z-2.022
N5320 G1 X365.579 Z-2
N5325 G1 X366.77
N5330 G1 X366.838 Z-1.992
N5335 G1 X366.902 Z-1.969
N5340 G1 X366.966 Z-1.947
N5345 G1 X367.034 Z-1.939
N5350 G1 X367.353
N5355 G3 Y283.965 I0 J0.25
N5360 G1 X367.286 Z-1.947
N5365 G1 X367.221 Z-1.969
N5370 G1 X367.157 Z-1.992
N5375 G1 X367.089 Z-2
N5380 G1 X365.906
N5385 G1 X365.376 Z-2.02
N5390 G1 X364.85 Z-2.08
N5395 G1 X364.337 Z-2.176
N5400 G1 X363.834 Z-2.31
N5405 G1 X363.348 Z-2.478
N5410 G1 X362.88 Z-2.68
N5415 G1 X362.433 Z-2.916
N5420 G1 X362.01 Z-3.184
N5425 G1 X361.62 Z-3.478
N5430 G1 X361.258 Z-3.801
N5435 G1 X360.932 Z-4.149
N5440 G1 X360.644 Z-4.516
N5445 G1 X360.396 Z-4.903
N5450 G1 X360.192 Z-5.303
N5455 G1 X360.031 Z-5.716
N5460 G1 X359.916 Z-6.139
N5465 G1 X359.845 Z-6.579
N5470 G1 X359.822 Z-7
N5475 G1 X360.006 Y284.215
N5480 G1 X360.19 Y284.465
N5485 G1 X360.214 Z-6.567
N5490 G1 X360.282 Z-6.147
N5495 G1 X360.397 Z-5.718
N5500 G1 X360.555 Z-5.31
N5505 G1 X360.758 Z-4.906
N5510 G1 X361.005 Z-4.516
N5515 G1 X361.291 Z-4.146
N5520 G1 X361.612 Z-3.802
N5525 G1 X361.968 Z-3.481
N5530 G1 X362.356 Z-3.186
N5535 G1 X362.776 Z-2.918
N5540 G1 X363.22 Z-2.681
N5545 G1 X363.683 Z-2.479
N5550 G1 X364.164 Z-2.311
N5555 G1 X364.664 Z-2.177
N5560 G1 X365.173 Z-2.08
N5565 G1 X365.698 Z-2.02
N5570 G1 X366.143 Z-2.003
N5575 G1 X367.403 Z-2
N5580 G1 X367.47 Z-1.992
N5585 G1 X367.534 Z-1.969
N5590 G1 X367.598 Z-1.947
N5595 G1 X367.666 Z-1.939
N5600 G1 X367.966
N5605 G3 Y284.965 I0 J0.25
N5610 G1 X367.899 Z-1.947
N5615 G1 X367.834 Z-1.969
N5620 G1 X367.77 Z-1.992
N5625 G1 X367.703 Z-2
N5630 G1 X366.459 Z-2.003
N5635 G1 X366.002 Z-2.022
N5640 G1 X365.494 Z-2.08
N5645 G1 X364.988 Z-2.176
N5650 G1 X364.491 Z-2.311
N5655 G1 X364.013 Z-2.479
N5660 G1 X363.553 Z-2.681
N5665 G1 X363.112 Z-2.918
N5670 G1 X362.699 Z-3.184
N5675 G1 X362.312 Z-3.48
N5680 G1 X361.958 Z-3.802
N5685 G1 X361.638 Z-4.148
N5690 G1 X361.357 Z-4.514
N5695 G1 X361.111 Z-4.907
N5700 G1 X360.911 Z-5.306
N5705 G1 X360.754 Z-5.717
N5710 G1 X360.639 Z-6.147
N5715 G1 X360.57 Z-6.582
N5720 G1 X360.548 Z-7
N5725 G1 X360.724 Y285.214
N5730 G1 X360.897 Y285.465
N5735 G1 X360.919 Z-6.583
N5740 G1 X360.987 Z-6.146
N5745 G1 X361.1 Z-5.722
N5750 G1 X361.256 Z-5.308
N5755 G1 X361.457 Z-4.905
N5760 G1 X361.699 Z-4.515
N5765 G1 X361.98 Z-4.146
N5770 G1 X362.295 Z-3.803
N5775 G1 X362.647 Z-3.48
N5780 G1 X363.032 Z-3.182
N5785 G1 X363.444 Z-2.916
N5790 G1 X363.875 Z-2.683
N5795 G1 X364.333 Z-2.48
N5800 G1 X364.816 Z-2.308
N5805 G1 X365.299 Z-2.177
N5810 G1 X365.802 Z-2.081
N5815 G1 X366.317 Z-2.021
N5820 G1 X366.752 Z-2.003
N5825 G1 X368.003 Z-2
N5830 G1 X368.071 Z-1.992
N5835 G1 X368.135 Z-1.969
N5840 G1 X368.199 Z-1.947
N5845 G1 X368.267 Z-1.939
N5850 G1 X368.554
N5855 G3 Y285.965 I0 J0.25
N5860 G1 X368.486 Z-1.947
N5865 G1 X368.422 Z-1.969
N5870 G1 X368.358 Z-1.992
N5875 G1 X368.291 Z-2
N5880 G1 X367.091 Z-2.002
N5885 G1 X366.616 Z-2.021
N5890 G1 X366.102 Z-2.081
N5895 G1 X365.607 Z-2.177
N5900 G1 X365.118 Z-2.311
N5905 G1 X364.646 Z-2.48
N5910 G1 X364.192 Z-2.683
N5915 G1 X363.762 Z-2.917
N5920 G1 X363.353 Z-3.184
N5925 G1 X362.971 Z-3.482
N5930 G1 X362.625 Z-3.802
N5935 G1 X362.311 Z-4.147
N5940 G1 X362.031 Z-4.516
N5945 G1 X361.793 Z-4.902
N5950 G1 X361.593 Z-5.309
N5955 G1 X361.44 Z-5.717
N5960 G1 X361.327 Z-6.14
N5965 G1 X361.259 Z-6.582
N5970 G1 X361.237 Z-7
N5975 G1 X361.404 Y286.214
N5980 G1 X361.568 Y286.465
N5985 G1 X361.593 Z-6.555
N5990 G1 X361.658 Z-6.141
N5995 G1 X361.767 Z-5.725
N6000 G1 X361.924 Z-5.304
N6005 G1 X362.119 Z-4.902
N6010 G1 X362.357 Z-4.515
N6015 G1 X362.633 Z-4.148
N6020 G1 X362.945 Z-3.802
N6025 G1 X363.29 Z-3.48
N6030 G1 X363.666 Z-3.185
N6035 G1 X364.073 Z-2.918
N6040 G1 X364.506 Z-2.68
N6045 G1 X364.952 Z-2.48
N6050 G1 X365.421 Z-2.311
N6055 G1 X365.907 Z-2.177
N6060 G1 X366.399 Z-2.081
N6065 G1 X366.907 Z-2.021
N6070 G1 X367.379 Z-2.002
N6075 G1 X368.573 Z-2
N6080 G1 X368.64 Z-1.992
N6085 G1 X368.704 Z-1.969
N6090 G1 X368.769 Z-1.947
N6095 G1 X368.836 Z-1.939
N6100 G1 X369.117
N6105 G3 Y286.965 I0 J0.25
N6110 G1 X369.049 Z-1.947
N6115 G1 X368.985 Z-1.969
N6120 G1 X368.921 Z-1.992
N6125 G1 X368.854 Z-2
N6130 G1 X367.612 Z-2.004
N6135 G1 X367.188 Z-2.022
N6140 G1 X366.697 Z-2.079
N6145 G1 X366.205 Z-2.175
N6150 G1 X365.721 Z-2.309
N6155 G1 X365.253 Z-2.478
N6160 G1 X364.805 Z-2.681
N6165 G1 X364.38 Z-2.916
N6170 G1 X363.975 Z-3.184
N6175 G1 X363.6 Z-3.48
N6180 G1 X363.257 Z-3.803
N6185 G1 X362.945 Z-4.151
N6190 G1 X362.674 Z-4.515
N6195 G1 X362.437 Z-4.904
N6200 G1 X362.241 Z-5.309
N6205 G1 X362.088 Z-5.726
N6210 G1 X361.978 Z-6.148
N6215 G1 X361.914 Z-6.563
N6220 G1 X361.891 Z-7
N6225 G1 X362.049 Y287.214
N6230 G1 X362.205 Y287.465
N6235 G1 X362.226 Z-6.583
N6240 G1 X362.292 Z-6.15
N6245 G1 X362.401 Z-5.725
N6250 G1 X362.554 Z-5.305
N6255 G1 X362.746 Z-4.905
N6260 G1 X362.98 Z-4.518
N6265 G1 X363.253 Z-4.148
N6270 G1 X363.56 Z-3.803
N6275 G1 X363.902 Z-3.48
N6280 G1 X364.275 Z-3.183
N6285 G1 X364.673 Z-2.918
N6290 G1 X365.101 Z-2.68
N6295 G1 X365.54 Z-2.48
N6300 G1 X366.004 Z-2.311
N6305 G1 X366.484 Z-2.177
N6310 G1 X366.972 Z-2.081
N6315 G1 X367.476 Z-2.021
N6320 G1 X367.91 Z-2.003
N6325 G1 X369.118 Z-2
N6330 G1 X369.185 Z-1.992
N6335 G1 X369.249 Z-1.969
N6340 G1 X369.314 Z-1.947
N6345 G1 X369.381 Z-1.939
N6350 G1 X369.646
N6355 G3 Y287.965 I0 J0.25
N6360 G1 X369.578 Z-1.947
N6365 G1 X369.514 Z-1.969
N6370 G1 X369.45 Z-1.992
N6375 G1 X369.383 Z-2
N6380 G1 X368.202 Z-2.002
N6385 G1 X367.735 Z-2.022
N6390 G1 X367.25 Z-2.08
N6395 G1 X366.764 Z-2.176
N6400 G1 X366.286 Z-2.311
N6405 G1 X365.824 Z-2.48
N6410 G1 X365.387 Z-2.68
N6415 G1 X364.961 Z-2.918
N6420 G1 X364.565 Z-3.184
N6425 G1 X364.194 Z-3.481
N6430 G1 X363.858 Z-3.802
N6435 G1 X363.552 Z-4.148
N6440 G1 X363.282 Z-4.515
N6445 G1 X363.049 Z-4.903
N6450 G1 X362.857 Z-5.305
N6455 G1 X362.707 Z-5.718
N6460 G1 X362.598 Z-6.142
N6465 G1 X362.533 Z-6.563
N6470 G1 X362.511 Z-7
N6475 G1 X362.586 Y288.089 Z-6.997
N6480 G1 X362.809 Y288.465 Z-6.988
N6485 G1 X362.832 Z-6.552
N6490 G1 X362.894 Z-6.148
N6495 G1 X363.003 Z-5.717
N6500 G1 X363.15 Z-5.311
N6505 G1 X363.341 Z-4.906
N6510 G1 X363.574 Z-4.515
N6515 G1 X363.843 Z-4.147
N6520 G1 X364.144 Z-3.804
N6525 G1 X364.484 Z-3.478
N6530 G1 X364.849 Z-3.184
N6535 G1 X365.243 Z-2.918
N6540 G1 X365.663 Z-2.682
N6545 G1 X366.105 Z-2.478
N6550 G1 X366.566 Z-2.308
N6555 G1 X367.032 Z-2.177
N6560 G1 X367.511 Z-2.081
N6565 G1 X368.011 Z-2.021
N6570 G1 X368.463 Z-2.002
N6575 G1 X369.641 Z-2
N6580 G1 X369.708 Z-1.992
N6585 G1 X369.772 Z-1.969
N6590 G1 X369.836 Z-1.947
N6595 G1 X369.904 Z-1.939
N6600 G1 X370.152
N6605 G3 Y288.965 I0 J0.25
N6610 G1 X370.084 Z-1.947
N6615 G1 X370.02 Z-1.969
N6620 G1 X369.956 Z-1.992
N6625 G1 X369.888 Z-2
N6630 G1 X368.717 Z-2.002
N6635 G1 X368.257 Z-2.022
N6640 G1 X367.776 Z-2.081
N6645 G1 X367.297 Z-2.177
N6650 G1 X366.825 Z-2.311
N6655 G1 X366.375 Z-2.477
N6660 G1 X365.936 Z-2.681
N6665 G1 X365.518 Z-2.918
N6670 G1 X365.125 Z-3.185
N6675 G1 X364.761 Z-3.48
N6680 G1 X364.427 Z-3.803
N6685 G1 X364.126 Z-4.147
N6690 G1 X363.858 Z-4.517
N6695 G1 X363.629 Z-4.903
N6700 G1 X363.44 Z-5.303
N6705 G1 X363.291 Z-5.72
N6710 G1 X363.185 Z-6.139
N6715 G1 X363.12 Z-6.574
N6720 G1 X363.098 Z-7
N6725 G1 X363.24 Y289.214
N6730 G1 X363.38 Y289.465
N6735 G1 X363.401 Z-6.582
N6740 G1 X363.466 Z-6.139
N6745 G1 X363.573 Z-5.717
N6750 G1 X363.719 Z-5.306
N6755 G1 X363.907 Z-4.905
N6760 G1 X364.135 Z-4.517
N6765 G1 X364.399 Z-4.15
N6770 G1 X364.703 Z-3.8
N6775 G1 X365.032 Z-3.481
N6780 G1 X365.394 Z-3.185
N6785 G1 X365.784 Z-2.918
N6790 G1 X366.2 Z-2.682
N6795 G1 X366.637 Z-2.477
N6800 G1 X367.084 Z-2.311
N6805 G1 X367.555 Z-2.177
N6810 G1 X368.032 Z-2.08
N6815 G1 X368.508 Z-2.023
N6820 G1 X368.967 Z-2.002
N6825 G1 X370.136 Z-2
N6830 G1 X370.203 Z-1.992
N6835 G1 X370.267 Z-1.969
N6840 G1 X370.332 Z-1.947
N6845 G1 X370.399 Z-1.939
N6850 G1 X370.636
N6855 G3 Y289.965 I0 J0.25
N6860 G1 X370.568 Z-1.947
N6865 G1 X370.504 Z-1.969
N6870 G1 X370.44 Z-1.992
N6875 G1 X370.373 Z-2
N6880 G1 X369.209 Z-2.002
N6885 G1 X368.752 Z-2.023
N6890 G1 X368.288 Z-2.079
N6895 G1 X367.802 Z-2.178
N6900 G1 X367.342 Z-2.309
N6905 G1 X366.89 Z-2.479
N6910 G1 X366.461 Z-2.68
N6915 G1 X366.047 Z-2.917
N6920 G1 X365.658 Z-3.184
N6925 G1 X365.297 Z-3.481
N6930 G1 X364.969 Z-3.8
N6935 G1 X364.67 Z-4.147
N6940 G1 X364.406 Z-4.515
N6945 G1 X364.178 Z-4.905
N6950 G1 X363.99 Z-5.31
N6955 G1 X363.844 Z-5.723
N6960 G1 X363.739 Z-6.152
N6965 G1 X363.676 Z-6.57
N6970 G1 X363.655 Z-7
N6975 G1 X363.789 Y290.214
N6980 G1 X363.922 Y290.465
N6985 G1 X363.944 Z-6.561
N6990 G1 X364.007 Z-6.144
N6995 G1 X364.11 Z-5.727
N7000 G1 X364.255 Z-5.31
N7005 G1 X364.443 Z-4.903
N7010 G1 X364.667 Z-4.518
N7015 G1 X364.93 Z-4.149
N7020 G1 X365.224 Z-3.805
N7025 G1 X365.555 Z-3.48
N7030 G1 X365.915 Z-3.183
N7035 G1 X366.298 Z-2.919
N7040 G1 X366.71 Z-2.681
N7045 G1 X367.143 Z-2.477
N7050 G1 X367.587 Z-2.31
N7055 G1 X368.056 Z-2.175
N7060 G1 X368.528 Z-2.079
N7065 G1 X369.009 Z-2.021
N7070 G1 X369.445 Z-2.002
N7075 G1 X370.604 Z-2
N7080 G1 X370.671 Z-1.992
N7085 G1 X370.735 Z-1.969
N7090 G1 X370.8 Z-1.947
N7095 G1 X370.867 Z-1.939
N7100 G1 X371.098
N7105 G3 Y290.964 I0 J0.25
N7110 G1 X371.03 Z-1.947
N7115 G1 X370.966 Z-1.969
N7120 G1 X370.902 Z-1.992
N7125 G1 X370.835 Z-2
N7130 G1 X369.616 Z-2.005
N7135 G1 X369.224 Z-2.023
N7140 G1 X368.768 Z-2.079
N7145 G1 X368.285 Z-2.178
N7150 G1 X367.828 Z-2.31
N7155 G1 X367.38 Z-2.48
N7160 G1 X366.955 Z-2.681
N7165 G1 X366.544 Z-2.919
N7170 G1 X366.163 Z-3.184
N7175 G1 X365.804 Z-3.482
N7180 G1 X365.478 Z-3.804
N7185 G1 X365.185 Z-4.147
N7190 G1 X364.923 Z-4.519
N7195 G1 X364.699 Z-4.906
N7200 G1 X364.515 Z-5.307
N7205 G1 X364.369 Z-5.727
N7210 G1 X364.266 Z-6.148
N7215 G1 X364.203 Z-6.572
N7220 G1 X364.182 Z-7
N7225 G1 X364.309 Y291.214 Z-6.995
N7230 G1 X364.436 Y291.464 Z-6.99
N7235 G1 X364.457 Z-6.565
N7240 G1 X364.519 Z-6.145
N7245 G1 X364.622 Z-5.724
N7250 G1 X364.764 Z-5.311
N7255 G1 X364.948 Z-4.907
N7260 G1 X365.172 Z-4.518
N7265 G1 X365.43 Z-4.151
N7270 G1 X365.723 Z-3.805
N7275 G1 X366.053 Z-3.478
N7280 G1 X366.406 Z-3.184
N7285 G1 X366.786 Z-2.918
N7290 G1 X367.196 Z-2.68
N7295 G1 X367.619 Z-2.479
N7300 G1 X368.067 Z-2.308
N7305 G1 X368.523 Z-2.176
N7310 G1 X368.994 Z-2.079
N7315 G1 X369.473 Z-2.02
N7320 G1 X369.9 Z-2.003
N7325 G1 X371.053 Z-2
N7330 G1 X371.12 Z-1.992
N7335 G1 X371.184 Z-1.969
N7340 G1 X371.249 Z-1.947
N7345 G1 X371.316 Z-1.939
N7350 G1 X371.532
N7355 G3 Y291.964 I0 J0.25
N7360 G1 X371.464 Z-1.947
N7365 G1 X371.4 Z-1.969
N7370 G1 X371.336 Z-1.992
N7375 G1 X371.269 Z-2
N7380 G1 X370.119 Z-2.003
N7385 G1 X369.695 Z-2.021
N7390 G1 X369.218 Z-2.08
N7395 G1 X368.749 Z-2.176
N7400 G1 X368.296 Z-2.308
N7405 G1 X367.851 Z-2.478
N7410 G1 X367.429 Z-2.68
N7415 G1 X367.021 Z-2.918
N7420 G1 X366.643 Z-3.183
N7425 G1 X366.291 Z-3.478
N7430 G1 X365.965 Z-3.801
N7435 G1 X365.674 Z-4.147
N7440 G1 X365.415 Z-4.516
N7445 G1 X365.192 Z-4.907
N7450 G1 X365.012 Z-5.303
N7455 G1 X364.866 Z-5.727
N7460 G1 X364.763 Z-6.152
N7465 G1 X364.704 Z-6.555
N7470 G1 X364.681 Z-7
N7475 G1 X364.802 Y292.214
N7480 G1 X364.921 Y292.464
N7485 G1 X364.943 Z-6.556
N7490 G1 X365.002 Z-6.151
N7495 G1 X365.105 Z-5.726
N7500 G1 X365.247 Z-5.311
N7505 G1 X365.431 Z-4.904
N7510 G1 X365.651 Z-4.517
N7515 G1 X365.908 Z-4.148
N7520 G1 X366.2 Z-3.8
N7525 G1 X366.52 Z-3.481
N7530 G1 X366.871 Z-3.185
N7535 G1 X367.248 Z-2.919
N7540 G1 X367.654 Z-2.68
N7545 G1 X368.075 Z-2.478
N7550 G1 X368.511 Z-2.311
N7555 G1 X368.969 Z-2.176
N7560 G1 X369.435 Z-2.08
N7565 G1 X369.91 Z-2.021
N7570 G1 X370.397 Z-2
N7575 G1 X371.482
N7580 G1 X371.55 Z-1.992
N7585 G1 X371.614 Z-1.969
N7590 G1 X371.678 Z-1.947
N7595 G1 X371.746 Z-1.939
N7600 G1 X371.947
N7605 G3 Y292.964 I0 J0.25
N7610 G1 X371.879 Z-1.947
N7615 G1 X371.815 Z-1.969
N7620 G1 X371.751 Z-1.992
N7625 G1 X371.683 Z-2
N7630 G1 X370.607
N7635 G1 X370.12 Z-2.021
N7640 G1 X369.645 Z-2.08
N7645 G1 X369.18 Z-2.177
N7650 G1 X368.733 Z-2.309
N7655 G1 X368.292 Z-2.479
N7660 G1 X367.873 Z-2.681
N7665 G1 X367.474 Z-2.916
N7670 G1 X367.094 Z-3.186
N7675 G1 X366.743 Z-3.483
N7680 G1 X366.424 Z-3.803
N7685 G1 X366.133 Z-4.152
N7690 G1 X365.88 Z-4.518
N7695 G1 X365.66 Z-4.906
N7700 G1 X365.48 Z-5.307
N7705 G1 X365.337 Z-5.723
N7710 G1 X365.235 Z-6.151
N7715 G1 X365.176 Z-6.558
N7720 G1 X365.154 Z-7
N7725 G1 X365.212 Y293.089 Z-6.997
N7730 G1 X365.268 Y293.214 Z-6.994
N7735 G1 X365.381 Y293.464 Z-6.988
N7740 G1 X365.402 Z-6.56
N7745 G1 X365.461 Z-6.15
N7750 G1 X365.563 Z-5.721
N7755 G1 X365.706 Z-5.305
N7760 G1 X365.886 Z-4.903
N7765 G1 X366.102 Z-4.521
N7770 G1 X366.358 Z-4.147
N7775 G1 X366.644 Z-3.803
N7780 G1 X366.963 Z-3.482
N7785 G1 X367.313 Z-3.185
N7790 G1 X367.688 Z-2.918
N7795 G1 X368.085 Z-2.682
N7800 G1 X368.503 Z-2.479
N7805 G1 X368.943 Z-2.309
N7810 G1 X369.389 Z-2.177
N7815 G1 X369.851 Z-2.081
N7820 G1 X370.324 Z-2.021
N7825 G1 X370.81 Z-2
N7830 G1 X371.885
N7835 G1 X371.952 Z-1.992
N7840 G1 X372.017 Z-1.969
N7845 G1 X372.081 Z-1.947
N7850 G1 X372.149 Z-1.939
N7855 G1 X372.343
N7860 G3 Y293.964 I0 J0.25
N7865 G1 X372.275 Z-1.947
N7870 G1 X372.211 Z-1.969
N7875 G1 X372.147 Z-1.992
N7880 G1 X372.079 Z-2
N7885 G1 X371.006
N7890 G1 X370.523 Z-2.021
N7895 G1 X370.055 Z-2.08
N7900 G1 X369.594 Z-2.177
N7905 G1 X369.149 Z-2.309
N7910 G1 X368.711 Z-2.479
N7915 G1 X368.295 Z-2.682
N7920 G1 X367.898 Z-2.918
N7925 G1 X367.524 Z-3.185
N7930 G1 X367.176 Z-3.482
N7935 G1 X366.858 Z-3.804
N7940 G1 X366.573 Z-4.15
N7945 G1 X366.32 Z-4.518
N7950 G1 X366.105 Z-4.902
N7955 G1 X365.924 Z-5.305
N7960 G1 X365.782 Z-5.725
N7965 G1 X365.682 Z-6.14
N7970 G1 X365.623 Z-6.551
N7975 G1 X365.601 Z-7
N7980 G1 X365.709 Y294.214
N7985 G1 X365.815 Y294.464
N7990 G1 X365.835 Z-6.567
N7995 G1 X365.894 Z-6.152
N8000 G1 X365.997 Z-5.718
N8005 G1 X366.136 Z-5.307
N8010 G1 X366.316 Z-4.902
N8015 G1 X366.532 Z-4.518
N8020 G1 X366.784 Z-4.147
N8025 G1 X367.07 Z-3.801
N8030 G1 X367.387 Z-3.479
N8035 G1 X367.73 Z-3.185
N8040 G1 X368.104 Z-2.917
N8045 G1 X368.499 Z-2.681
N8050 G1 X368.914 Z-2.478
N8055 G1 X369.343 Z-2.311
N8060 G1 X369.798 Z-2.175
N8065 G1 X370.255 Z-2.079
N8070 G1 X370.724 Z-2.02
N8075 G1 X371.193 Z-2
N8080 G1 X372.266
N8085 G1 X372.334 Z-1.992
N8090 G1 X372.398 Z-1.969
N8095 G1 X372.463 Z-1.947
N8100 G1 X372.53 Z-1.939
N8105 G1 X372.718
N8110 G3 Y294.964 I0 J0.25
N8115 G1 X372.65 Z-1.947
N8120 G1 X372.586 Z-1.969
N8125 G1 X372.522 Z-1.992
N8130 G1 X372.454 Z-2
N8135 G1 X371.381
N8140 G1 X370.905 Z-2.021
N8145 G1 X370.441 Z-2.08
N8150 G1 X369.987 Z-2.176
N8155 G1 X369.537 Z-2.311
N8160 G1 X369.109 Z-2.478
N8165 G1 X368.696 Z-2.681
N8170 G1 X368.302 Z-2.918
N8175 G1 X367.93 Z-3.186
N8180 G1 X367.587 Z-3.48
N8185 G1 X367.27 Z-3.804
N8190 G1 X366.986 Z-4.151
N8195 G1 X366.737 Z-4.517
N8200 G1 X366.522 Z-4.903
N8205 G1 X366.342 Z-5.308
N8210 G1 X366.203 Z-5.722
N8215 G1 X366.103 Z-6.143
N8220 G1 X366.044 Z-6.556
N8225 G1 X366.023 Z-7
N8230 G1 X366.125 Y295.214
N8235 G1 X366.225 Y295.464
N8240 G1 X366.247 Z-6.555
N8245 G1 X366.305 Z-6.14
N8250 G1 X366.405 Z-5.719
N8255 G1 X366.544 Z-5.304
N8260 G1 X366.721 Z-4.905
N8265 G1 X366.936 Z-4.518
N8270 G1 X367.184 Z-4.152
N8275 G1 X367.469 Z-3.803
N8280 G1 X367.784 Z-3.479
N8285 G1 X368.126 Z-3.184
N8290 G1 X368.492 Z-2.919
N8295 G1 X368.886 Z-2.683
N8300 G1 X369.298 Z-2.479
N8305 G1 X369.732 Z-2.309
N8310 G1 X370.172 Z-2.177
N8315 G1 X370.629 Z-2.08
N8320 G1 X371.088 Z-2.022
N8325 G1 X371.5 Z-2.003
N8330 G1 X372.631 Z-2
N8335 G1 X372.699 Z-1.992
N8340 G1 X372.762 Z-1.969
N8345 G1 X372.827 Z-1.947
N8350 G1 X372.894 Z-1.939
N8355 G1 X373.068
N8360 G3 Y295.964 I0 J0.25
N8365 G1 X373 Z-1.947
N8370 G1 X372.936 Z-1.969
N8375 G1 X372.872 Z-1.992
N8380 G1 X372.805 Z-2
N8385 G1 X371.669 Z-2.003
N8390 G1 X371.268 Z-2.022
N8395 G1 X370.804 Z-2.081
N8400 G1 X370.353 Z-2.177
N8405 G1 X369.914 Z-2.309
N8410 G1 X369.488 Z-2.477
N8415 G1 X369.077 Z-2.68
N8420 G1 X368.684 Z-2.916
N8425 G1 X368.314 Z-3.185
N8430 G1 X367.973 Z-3.48
N8435 G1 X367.659 Z-3.805
N8440 G1 X367.378 Z-4.15
N8445 G1 X367.13 Z-4.516
N8450 G1 X366.916 Z-4.904
N8455 G1 X366.739 Z-5.305
N8460 G1 X366.6 Z-5.721
N8465 G1 X366.501 Z-6.144
N8470 G1 X366.442 Z-6.561
N8475 G1 X366.421 Z-7
N8480 G1 X366.518 Y296.214
N8485 G1 X366.612 Y296.464
N8490 G1 X366.633 Z-6.561
N8495 G1 X366.692 Z-6.143
N8500 G1 X366.791 Z-5.718
N8505 G1 X366.927 Z-5.311
N8510 G1 X367.103 Z-4.908
N8515 G1 X367.317 Z-4.518
N8520 G1 X367.565 Z-4.15
N8525 G1 X367.845 Z-3.805
N8530 G1 X368.16 Z-3.479
N8535 G1 X368.5 Z-3.184
N8540 G1 X368.864 Z-2.918
N8545 G1 X369.256 Z-2.681
N8550 G1 X369.667 Z-2.478
N8555 G1 X370.092 Z-2.31
N8560 G1 X370.53 Z-2.177
N8565 G1 X370.978 Z-2.081
N8570 G1 X371.441 Z-2.022
N8575 G1 X371.906 Z-2.001
N8580 G1 X372.979 Z-2
N8585 G1 X373.046 Z-1.992
N8590 G1 X373.11 Z-1.969
N8595 G1 X373.175 Z-1.947
N8600 G1 X373.242 Z-1.939
N8605 G1 X373.403
N8610 G3 Y296.964 I0 J0.25
N8615 G1 X373.335 Z-1.947
N8620 G1 X373.271 Z-1.969
N8625 G1 X373.207 Z-1.992
N8630 G1 X373.14 Z-2
N8635 G1 X372.006 Z-2.004
N8640 G1 X371.609 Z-2.022
N8645 G1 X371.15 Z-2.081
N8650 G1 X370.702 Z-2.178
N8655 G1 X370.265 Z-2.31
N8660 G1 X369.842 Z-2.478
N8665 G1 X369.433 Z-2.681
N8670 G1 X369.042 Z-2.918
N8675 G1 X368.678 Z-3.184
N8680 G1 X368.338 Z-3.481
N8685 G1 X368.027 Z-3.803
N8690 G1 X367.748 Z-4.148
N8695 G1 X367.5 Z-4.517
N8700 G1 X367.286 Z-4.908
N8705 G1 X367.113 Z-5.304
N8710 G1 X366.974 Z-5.725
N8715 G1 X366.878 Z-6.137
N8720 G1 X366.818 Z-6.559
N8725 G1 X366.797 Z-7
N8730 G1 X366.888 Y297.214
N8735 G1 X366.977 Y297.464
N8740 G1 X366.999 Z-6.553
N8745 G1 X367.055 Z-6.151
N8750 G1 X367.154 Z-5.722
N8755 G1 X367.29 Z-5.311
N8760 G1 X367.466 Z-4.904
N8765 G1 X367.677 Z-4.518
N8770 G1 X367.924 Z-4.149
N8775 G1 X368.203 Z-3.803
N8780 G1 X368.512 Z-3.481
N8785 G1 X368.851 Z-3.184
N8790 G1 X369.214 Z-2.919
N8795 G1 X369.602 Z-2.681
N8800 G1 X370.011 Z-2.478
N8805 G1 X370.433 Z-2.31
N8810 G1 X370.869 Z-2.178
N8815 G1 X371.316 Z-2.081
N8820 G1 X371.773 Z-2.022
N8825 G1 X372.167 Z-2.004
N8830 G1 X373.301 Z-2
N8835 G1 X373.368 Z-1.992
N8840 G1 X373.432 Z-1.969
N8845 G1 X373.496 Z-1.947
N8850 G1 X373.564 Z-1.939
N8855 G1 X373.723
N8860 G3 Y297.964 I0 J0.25
N8865 G1 X373.655 Z-1.947
N8870 G1 X373.591 Z-1.969
N8875 G1 X373.527 Z-1.992
N8880 G1 X373.46 Z-2
N8885 G1 X372.326 Z-2.004
N8890 G1 X371.94 Z-2.021
N8895 G1 X371.482 Z-2.08
N8900 G1 X371.036 Z-2.176
N8905 G1 X370.594 Z-2.311
N8910 G1 X370.174 Z-2.478
N8915 G1 X369.768 Z-2.682
N8920 G1 X369.384 Z-2.916
N8925 G1 X369.018 Z-3.186
N8930 G1 X368.683 Z-3.479
N8935 G1 X368.374 Z-3.802
N8940 G1 X368.095 Z-4.148
N8945 G1 X367.848 Z-4.519
N8950 G1 X367.638 Z-4.906
N8955 G1 X367.465 Z-5.305
N8960 G1 X367.326 Z-5.729
N8965 G1 X367.23 Z-6.147
N8970 G1 X367.171 Z-6.586
N8975 G1 X367.152 Z-7
N8980 G1 X367.236 Y298.214
N8985 G1 X367.321 Y298.464
N8990 G1 X367.342 Z-6.557
N8995 G1 X367.398 Z-6.154
N9000 G1 X367.497 Z-5.722
N9005 G1 X367.633 Z-5.308
N9010 G1 X367.805 Z-4.908
N9015 G1 X368.015 Z-4.52
N9020 G1 X368.262 Z-4.148
N9025 G1 X368.537 Z-3.805
N9030 G1 X368.845 Z-3.481
N9035 G1 X369.183 Z-3.184
N9040 G1 X369.545 Z-2.917
N9045 G1 X369.927 Z-2.683
N9050 G1 X370.334 Z-2.479
N9055 G1 X370.753 Z-2.311
N9060 G1 X371.194 Z-2.176
N9065 G1 X371.642 Z-2.08
N9070 G1 X372.087 Z-2.022
N9075 G1 X372.476 Z-2.004
N9080 G1 X373.609 Z-2
N9085 G1 X373.676 Z-1.992
N9090 G1 X373.74 Z-1.969
N9095 G1 X373.804 Z-1.947
N9100 G1 X373.872 Z-1.939
N9105 G1 X374.018
N9110 G3 Y298.964 I0 J0.25
N9115 G1 X373.95 Z-1.947
N9120 G1 X373.885 Z-1.969
N9125 G1 X373.822 Z-1.992
N9130 G1 X373.754 Z-2
N9135 G1 X372.622 Z-2.004
N9140 G1 X372.235 Z-2.022
N9145 G1 X371.792 Z-2.08
N9150 G1 X371.347 Z-2.176
N9155 G1 X370.907 Z-2.311
N9160 G1 X370.49 Z-2.479
N9165 G1 X370.084 Z-2.683
N9170 G1 X369.702 Z-2.918
N9175 G1 X369.341 Z-3.185
N9180 G1 X369.003 Z-3.483
N9185 G1 X368.699 Z-3.802
N9190 G1 X368.421 Z-4.15
N9195 G1 X368.178 Z-4.517
N9200 G1 X367.968 Z-4.907
N9205 G1 X367.795 Z-5.308
N9210 G1 X367.659 Z-5.723
N9215 G1 X367.563 Z-6.141
N9220 G1 X367.504 Z-6.573
N9225 G1 X367.484 Z-7
N9230 G1 X367.564 Y299.213
N9235 G1 X367.643 Y299.464
N9240 G1 X367.662 Z-6.584
N9245 G1 X367.721 Z-6.143
N9250 G1 X367.817 Z-5.724
N9255 G1 X367.953 Z-5.309
N9260 G1 X368.125 Z-4.907
N9265 G1 X368.336 Z-4.517
N9270 G1 X368.579 Z-4.149
N9275 G1 X368.853 Z-3.804
N9280 G1 X369.161 Z-3.479
N9285 G1 X369.493 Z-3.185
N9290 G1 X369.854 Z-2.918
N9295 G1 X370.234 Z-2.683
N9300 G1 X370.639 Z-2.479
N9305 G1 X371.055 Z-2.311
N9310 G1 X371.495 Z-2.175
N9315 G1 X371.938 Z-2.079
N9320 G1 X372.378 Z-2.022
N9325 G1 X372.821 Z-2.002
N9330 G1 X373.894 Z-2
N9335 G1 X373.961 Z-1.992
N9340 G1 X374.025 Z-1.969
N9345 G1 X374.09 Z-1.947
N9350 G1 X374.157 Z-1.939
N9355 G1 X374.29
N9360 G3 Y299.964 I0 J0.25
N9365 G1 X374.223 Z-1.947
N9370 G1 X374.158 Z-1.969
N9375 G1 X374.094 Z-1.992
N9380 G1 X374.027 Z-2
N9385 G1 X372.954 Z-2.002
N9390 G1 X372.523 Z-2.021
N9395 G1 X372.072 Z-2.081
N9400 G1 X371.633 Z-2.176
N9405 G1 X371.203 Z-2.309
N9410 G1 X370.779 Z-2.48
N9415 G1 X370.383 Z-2.68
N9420 G1 X369.997 Z-2.919
N9425 G1 X369.638 Z-3.186
N9430 G1 X369.307 Z-3.481
N9435 G1 X369.003 Z-3.802
N9440 G1 X368.727 Z-4.152
N9445 G1 X368.484 Z-4.521
N9450 G1 X368.277 Z-4.906
N9455 G1 X368.104 Z-5.309
N9460 G1 X367.969 Z-5.727
N9465 G1 X367.873 Z-6.15
N9470 G1 X367.817 Z-6.558
N9475 G1 X367.796 Z-7
N9480 G1 X367.871 Y300.213
N9485 G1 X367.942 Y300.464
N9490 G1 X367.962 Z-6.571
N9495 G1 X368.018 Z-6.155
N9500 G1 X368.115 Z-5.728
N9505 G1 X368.25 Z-5.309
N9510 G1 X368.422 Z-4.904
N9515 G1 X368.629 Z-4.519
N9520 G1 X368.871 Z-4.15
N9525 G1 X369.144 Z-3.805
N9530 G1 X369.451 Z-3.479
N9535 G1 X369.783 Z-3.184
N9540 G1 X370.141 Z-2.917
N9545 G1 X370.519 Z-2.682
N9550 G1 X370.922 Z-2.477
N9555 G1 X371.337 Z-2.309
N9560 G1 X371.766 Z-2.177
N9565 G1 X372.208 Z-2.08
N9570 G1 X372.655 Z-2.022
N9575 G1 X373.054 Z-2.003
N9580 G1 X374.156 Z-2
N9585 G1 X374.223 Z-1.992
N9590 G1 X374.287 Z-1.969
N9595 G1 X374.351 Z-1.947
N9600 G1 X374.419 Z-1.939
N9605 G1 X374.538
N9610 G3 Y300.963 I0 J0.25
N9615 G1 X374.47 Z-1.947
N9620 G1 X374.406 Z-1.969
N9625 G1 X374.342 Z-1.992
N9630 G1 X374.275 Z-2
N9635 G1 X373.202 Z-2.002
N9640 G1 X372.772 Z-2.023
N9645 G1 X372.335 Z-2.08
N9650 G1 X371.895 Z-2.177
N9655 G1 X371.469 Z-2.308
N9660 G1 X371.048 Z-2.48
N9665 G1 X370.654 Z-2.681
N9670 G1 X370.275 Z-2.916
N9675 G1 X369.917 Z-3.184
N9680 G1 X369.587 Z-3.479
N9685 G1 X369.28 Z-3.805
N9690 G1 X369.008 Z-4.151
N9695 G1 X368.769 Z-4.516
N9700 G1 X368.563 Z-4.902
N9705 G1 X368.391 Z-5.308
N9710 G1 X368.258 Z-5.718
N9715 G1 X368.162 Z-6.141
N9720 G1 X368.103 Z-6.588
N9725 G1 X368.084 Z-7
N9730 G1 X368.218 Y301.463
N9735 G1 X368.238 Z-6.563
N9740 G1 X368.294 Z-6.154
N9745 G1 X368.39 Z-5.724
N9750 G1 X368.523 Z-5.313
N9755 G1 X368.695 Z-4.906
N9760 G1 X368.901 Z-4.518
N9765 G1 X369.139 Z-4.152
N9770 G1 X369.412 Z-3.804
N9775 G1 X369.713 Z-3.481
N9780 G1 X370.043 Z-3.185
N9785 G1 X370.4 Z-2.917
N9790 G1 X370.778 Z-2.681
N9795 G1 X371.178 Z-2.477
N9800 G1 X371.592 Z-2.309
N9805 G1 X372.017 Z-2.176
N9810 G1 X372.456 Z-2.08
N9815 G1 X372.897 Z-2.022
N9820 G1 X373.295 Z-2.003
N9825 G1 X374.389 Z-2
N9830 G1 X374.457 Z-1.992
N9835 G1 X374.52 Z-1.969
N9840 G1 X374.585 Z-1.947
N9845 G1 X374.652 Z-1.939
N9850 G1 X374.758
N9855 G3 Y301.963 I0 J0.25
N9860 G1 X374.69 Z-1.947
N9865 G1 X374.626 Z-1.969
N9870 G1 X374.562 Z-1.992
N9875 G1 X374.495 Z-2
N9880 G1 X373.404 Z-2.003
N9885 G1 X373.016 Z-2.021
N9890 G1 X372.566 Z-2.08
N9895 G1 X372.128 Z-2.177
N9900 G1 X371.703 Z-2.31
N9905 G1 X371.291 Z-2.478
N9910 G1 X370.897 Z-2.68
N9915 G1 X370.521 Z-2.916
N9920 G1 X370.165 Z-3.185
N9925 G1 X369.836 Z-3.481
N9930 G1 X369.535 Z-3.804
N9935 G1 X369.266 Z-4.148
N9940 G1 X369.024 Z-4.52
N9945 G1 X368.818 Z-4.908
N9950 G1 X368.65 Z-5.308
N9955 G1 X368.517 Z-5.72
N9960 G1 X368.421 Z-6.148
N9965 G1 X368.365 Z-6.561
N9970 G1 X368.345 Z-7
N9975 G1 X368.406 Y302.213
N9980 G1 X368.464 Y302.463
N9985 G1 X368.483 Z-6.568
N9990 G1 X368.539 Z-6.153
N9995 G1 X368.635 Z-5.72
N10000 G1 X368.768 Z-5.306
N10005 G1 X368.936 Z-4.906
N10010 G1 X369.142 Z-4.516
N10015 G1 X369.38 Z-4.149
N10020 G1 X369.648 Z-3.806
N10025 G1 X369.949 Z-3.483
N10030 G1 X370.277 Z-3.185
N10035 G1 X370.628 Z-2.92
N10040 G1 X371.007 Z-2.68
N10045 G1 X371.399 Z-2.479
N10050 G1 X371.809 Z-2.31
N10055 G1 X372.233 Z-2.177
N10060 G1 X372.668 Z-2.081
N10065 G1 X373.118 Z-2.021
N10070 G1 X373.466 Z-2.005
N10075 G1 X374.592 Z-2
N10080 G1 X374.659 Z-1.992
N10085 G1 X374.722 Z-1.969
N10090 G1 X374.787 Z-1.947
N10095 G1 X374.854 Z-1.939
N10100 G1 X374.946
N10105 G3 Y302.963 I0 J0.25
N10110 G1 X374.878 Z-1.947
N10115 G1 X374.814 Z-1.969
N10120 G1 X374.75 Z-1.992
N10125 G1 X374.682 Z-2
N10130 G1 X373.609 Z-2.002
N10135 G1 X373.21 Z-2.021
N10140 G1 X372.771 Z-2.079
N10145 G1 X372.336 Z-2.175
N10150 G1 X371.905 Z-2.311
N10155 G1 X371.498 Z-2.479
N10160 G1 X371.107 Z-2.681
N10165 G1 X370.734 Z-2.917
N10170 G1 X370.379 Z-3.187
N10175 G1 X370.055 Z-3.48
N10180 G1 X369.755 Z-3.804
N10185 G1 X369.487 Z-4.148
N10190 G1 X369.249 Z-4.517
N10195 G1 X369.044 Z-4.908
N10200 G1 X368.876 Z-5.311
N10205 G1 X368.743 Z-5.729
N10210 G1 X368.65 Z-6.146
N10215 G1 X368.594 Z-6.56
N10220 G1 X368.574 Z-7
N10225 G1 X368.626 Y303.213
N10230 G1 X368.675 Y303.463
N10235 G1 X368.696 Z-6.558
N10240 G1 X368.752 Z-6.139
N10245 G1 X368.845 Z-5.721
N10250 G1 X368.977 Z-5.305
N10255 G1 X369.142 Z-4.909
N10260 G1 X369.348 Z-4.516
N10265 G1 X369.581 Z-4.153
N10270 G1 X369.852 Z-3.802
N10275 G1 X370.148 Z-3.482
N10280 G1 X370.475 Z-3.184
N10285 G1 X370.824 Z-2.918
N10290 G1 X371.198 Z-2.682
N10295 G1 X371.587 Z-2.48
N10300 G1 X371.995 Z-2.311
N10305 G1 X372.422 Z-2.176
N10310 G1 X372.857 Z-2.079
N10315 G1 X373.295 Z-2.021
N10320 G1 X373.75 Z-2
N10325 G1 X374.761
N10330 G1 X374.828 Z-1.992
N10335 G1 X374.893 Z-1.969
N10340 G1 X374.957 Z-1.947
N10345 G1 X375.025 Z-1.939
N10350 G1 X375.093
N10355 G3 Y303.963 I0 J0.25
N10360 G1 X375.025 Z-1.947
N10365 G1 X374.961 Z-1.969
N10370 G1 X374.897 Z-1.992
N10375 G1 X374.829 Z-2
N10380 G1 X373.822
N10385 G1 X373.367 Z-2.021
N10390 G1 X372.931 Z-2.079
N10395 G1 X372.498 Z-2.176
N10400 G1 X372.072 Z-2.311
N10405 G1 X371.666 Z-2.48
N10410 G1 X371.278 Z-2.682
N10415 G1 X370.906 Z-2.919
N10420 G1 X370.558 Z-3.186
N10425 G1 X370.236 Z-3.48
N10430 G1 X369.94 Z-3.801
N10435 G1 X369.67 Z-4.152
N10440 G1 X369.436 Z-4.517
N10445 G1 X369.234 Z-4.903
N10450 G1 X369.066 Z-5.308
N10455 G1 X368.934 Z-5.73
N10460 G1 X368.841 Z-6.152
N10465 G1 X368.784 Z-6.588
N10470 G1 X368.766 Z-7
N10475 G1 X368.807 Y304.213
N10480 G1 X368.844 Y304.463
N10485 G1 X368.863 Z-6.58
N10490 G1 X368.919 Z-6.148
N10495 G1 X369.012 Z-5.725
N10500 G1 X369.144 Z-5.304
N10505 G1 X369.309 Z-4.906
N10510 G1 X369.511 Z-4.518
N10515 G1 X369.744 Z-4.152
N10520 G1 X370.011 Z-3.805
N10525 G1 X370.305 Z-3.483
N10530 G1 X370.631 Z-3.184
N10535 G1 X370.979 Z-2.917
N10540 G1 X371.35 Z-2.68
N10545 G1 X371.737 Z-2.478
N10550 G1 X372.144 Z-2.309
N10555 G1 X372.561 Z-2.177
N10560 G1 X372.99 Z-2.08
N10565 G1 X373.418 Z-2.022
N10570 G1 X373.883 Z-2
N10575 G1 X374.888
N10580 G1 X374.956 Z-1.992
N10585 G1 X375.02 Z-1.969
N10590 G1 X375.084 Z-1.947
N10595 G1 X375.152 Z-1.939
N10600 G1 X375.198
N10605 G3 Y304.963 I0 J0.25
N10610 G1 X375.13 Z-1.947
N10615 G1 X375.066 Z-1.969
N10620 G1 X375.002 Z-1.992
N10625 G1 X374.935 Z-2
N10630 G1 X373.862 Z-2.003
N10635 G1 X373.477 Z-2.021
N10640 G1 X373.046 Z-2.079
N10645 G1 X372.616 Z-2.176
N10650 G1 X372.199 Z-2.308
N10655 G1 X371.788 Z-2.48
N10660 G1 X371.402 Z-2.682
N10665 G1 X371.036 Z-2.916
N10670 G1 X370.689 Z-3.183
N10675 G1 X370.365 Z-3.482
N10680 G1 X370.07 Z-3.805
N10685 G1 X369.808 Z-4.148
N10690 G1 X369.571 Z-4.521
N10695 G1 X369.37 Z-4.91
N10700 G1 X369.205 Z-5.31
N10705 G1 X369.076 Z-5.721
N10710 G1 X368.983 Z-6.145
N10715 G1 X368.927 Z-6.575
N10720 G1 X368.908 Z-7
N10725 G1 X368.934 Y305.213
N10730 G1 X368.956 Y305.463
N10735 G1 X368.975 Z-6.558
N10740 G1 X369.029 Z-6.157
N10745 G1 X369.121 Z-5.73
N10750 G1 X369.253 Z-5.306
N10755 G1 X369.418 Z-4.905
N10760 G1 X369.616 Z-4.521
N10765 G1 X369.852 Z-4.148
N10770 G1 X370.114 Z-3.804
N10775 G1 X370.408 Z-3.481
N10780 G1 X370.729 Z-3.186
N10785 G1 X371.075 Z-2.918
N10790 G1 X371.445 Z-2.681
N10795 G1 X371.83 Z-2.478
N10800 G1 X372.235 Z-2.309
N10805 G1 X372.65 Z-2.177
N10810 G1 X373.08 Z-2.08
N10815 G1 X373.512 Z-2.021
N10820 G1 X373.96 Z-2
N10825 G1 X374.966
N10830 G1 X375.034 Z-1.992
N10835 G1 X375.098 Z-1.969
N10840 G1 X375.162 Z-1.947
N10845 G1 X375.23 Z-1.939
N10850 G1 X375.247
N10855 G3 Y305.963 I0 J0.25
N10860 G1 X375.179 Z-1.947
N10865 G1 X375.115 Z-1.969
N10870 G1 X375.051 Z-1.992
N10875 G1 X374.983 Z-2
N10880 G1 X373.91 Z-2.003
N10885 G1 X373.532 Z-2.021
N10890 G1 X373.099 Z-2.08
N10895 G1 X372.671 Z-2.177
N10900 G1 X372.255 Z-2.31
N10905 G1 X371.852 Z-2.478
N10910 G1 X371.468 Z-2.681
N10915 G1 X371.098 Z-2.918
N10920 G1 X370.753 Z-3.186
N10925 G1 X370.433 Z-3.482
N10930 G1 X370.139 Z-3.805
N10935 G1 X369.877 Z-4.149
N10940 G1 X369.645 Z-4.517
N10945 G1 X369.443 Z-4.908
N10950 G1 X369.278 Z-5.311
N10955 G1 X369.15 Z-5.726
N10960 G1 X369.057 Z-6.154
N10965 G1 X369.003 Z-6.557
N10970 G1 X368.983 Z-7
N10975 G1 X368.989 Y306.213
N10980 G1 X368.987 Y306.463
N10985 G1 X369.007 Z-6.556
N10990 G1 X369.06 Z-6.153
N10995 G1 X369.153 Z-5.727
N11000 G1 X369.282 Z-5.311
N11005 G1 X369.447 Z-4.908
N11010 G1 X369.649 Z-4.517
N11015 G1 X369.881 Z-4.149
N11020 G1 X370.143 Z-3.805
N11025 G1 X370.437 Z-3.481
N11030 G1 X370.757 Z-3.185
N11035 G1 X371.102 Z-2.918
N11040 G1 X371.471 Z-2.681
N11045 G1 X371.855 Z-2.479
N11050 G1 X372.258 Z-2.31
N11055 G1 X372.672 Z-2.177
N11060 G1 X373.101 Z-2.08
N11065 G1 X373.524 Z-2.023
N11070 G1 X373.98 Z-2
N11075 G1 X374.986
N11080 G1 X375.054 Z-1.992
N11085 G1 X375.118 Z-1.969
N11090 G1 X375.182 Z-1.947
N11095 G1 X375.25 Z-1.939
N11100 G3 Y306.963 I0 J0.25
N11105 G1 X375.236
N11110 G1 X375.168 Z-1.947
N11115 G1 X375.104 Z-1.969
N11120 G1 X375.04 Z-1.992
N11125 G1 X374.972 Z-2
N11130 G1 X373.966
N11135 G1 X373.518 Z-2.021
N11140 G1 X373.085 Z-2.08
N11145 G1 X372.656 Z-2.176
N11150 G1 X372.241 Z-2.309
N11155 G1 X371.838 Z-2.477
N11160 G1 X371.446 Z-2.683
N11165 G1 X371.081 Z-2.917
N11170 G1 X370.735 Z-3.184
N11175 G1 X370.414 Z-3.48
N11180 G1 X370.12 Z-3.803
N11185 G1 X369.854 Z-4.151
N11190 G1 X369.622 Z-4.519
N11195 G1 X369.42 Z-4.908
N11200 G1 X369.255 Z-5.31
N11205 G1 X369.126 Z-5.722
N11210 G1 X369.033 Z-6.148
N11215 G1 X368.977 Z-6.579
N11220 G1 X368.959 Z-6.987
N11225 G18 G3 X368.359 Z-6.387 I0 K0.6 F1000
N11230 G0 Z5
N11235 G0 X340.055 Y271.966
N11240 G0 Z-2.703
N11245 G1 Z-6.4 F1000
N11250 G3 X339.455 Z-7 I-0.6 K0
N11255 G1 X339.431 Z-6.547 F420
N11260 G1 X339.366 Z-6.113
N11265 G1 X339.261 Z-5.689
N11270 G1 X339.114 Z-5.272
N11275 G1 X338.931 Z-4.868
N11280 G1 X338.711 Z-4.481
N11285 G1 X338.462 Z-4.117
N11290 G1 X338.177 Z-3.77
N11295 G1 X337.866 Z-3.451
N11300 G1 X337.525 Z-3.156
N11305 G1 X337.162 Z-2.892
N11310 G1 X336.778 Z-2.658
N11315 G1 X336.376 Z-2.459
N11320 G1 X335.961 Z-2.294
N11325 G1 X335.538 Z-2.166
N11330 G1 X335.108 Z-2.074
N11335 G1 X334.672 Z-2.019
N11340 G1 X334.197 Z-2
N11345 G1 X333.213
N11350 G1 X333.145 Z-1.992
N11355 G1 X333.081 Z-1.969
N11360 G1 X333.016 Z-1.947
N11365 G1 X332.949 Z-1.939
N11370 G1 X332.865
N11375 G17 G2 Y272.466 I0 J0.25
N11380 G1 X332.933 Z-1.947
N11385 G1 X332.997 Z-1.969
N11390 G1 X333.061 Z-1.992
N11395 G1 X333.129 Z-2
N11400 G1 X334.102
N11405 G1 X334.58 Z-2.019
N11410 G1 X335.009 Z-2.075
N11415 G1 X335.437 Z-2.167
N11420 G1 X335.858 Z-2.296
N11425 G1 X336.264 Z-2.46
N11430 G1 X336.662 Z-2.66
N11435 G1 X337.035 Z-2.891
N11440 G1 X337.395 Z-3.158
N11445 G1 X337.723 Z-3.448
N11450 G1 X338.03 Z-3.771
N11455 G1 X338.305 Z-4.115
N11460 G1 X338.548 Z-4.481
N11465 G1 X338.759 Z-4.866
N11470 G1 X338.935 Z-5.271
N11475 G1 X339.07 Z-5.676
N11480 G1 X339.172 Z-6.101
N11485 G1 X339.233 Z-6.527
N11490 G1 X339.258 Z-7
N11495 G1 X339.188 Y272.715
N11500 G1 X339.13 Y272.966
N11505 G1 X339.109 Z-6.558
N11510 G1 X339.047 Z-6.109
N11515 G1 X338.951 Z-5.691
N11520 G1 X338.815 Z-5.273
N11525 G1 X338.642 Z-4.87
N11530 G1 X338.436 Z-4.484
N11535 G1 X338.193 Z-4.113
N11540 G1 X337.924 Z-3.771
N11545 G1 X337.623 Z-3.45
N11550 G1 X337.297 Z-3.158
N11555 G1 X336.944 Z-2.893
N11560 G1 X336.573 Z-2.661
N11565 G1 X336.179 Z-2.46
N11570 G1 X335.772 Z-2.295
N11575 G1 X335.355 Z-2.167
N11580 G1 X334.93 Z-2.074
N11585 G1 X334.503 Z-2.019
N11590 G1 X334.028 Z-2
N11595 G1 X333.061
N11600 G1 X332.993 Z-1.992
N11605 G1 X332.929 Z-1.969
N11610 G1 X332.865 Z-1.947
N11615 G1 X332.797 Z-1.939
N11620 G1 X332.746
N11625 G2 Y273.466 I0 J0.25
N11630 G1 X332.814 Z-1.947
N11635 G1 X332.878 Z-1.969
N11640 G1 X332.942 Z-1.992
N11645 G1 X333.01 Z-2
N11650 G1 X333.976
N11655 G1 X334.443 Z-2.019
N11660 G1 X334.873 Z-2.074
N11665 G1 X335.294 Z-2.166
N11670 G1 X335.711 Z-2.295
N11675 G1 X336.115 Z-2.46
N11680 G1 X336.508 Z-2.661
N11685 G1 X336.877 Z-2.893
N11690 G1 X337.227 Z-3.157
N11695 G1 X337.552 Z-3.45
N11700 G1 X337.849 Z-3.769
N11705 G1 X338.117 Z-4.113
N11710 G1 X338.355 Z-4.48
N11715 G1 X338.561 Z-4.869
N11720 G1 X338.73 Z-5.267
N11725 G1 X338.861 Z-5.673
N11730 G1 X338.961 Z-6.104
N11735 G1 X339.021 Z-6.537
N11740 G1 X339.044 Z-7
N11745 G1 X339.013 Y273.716
N11750 G1 X338.989 Y273.966
N11755 G1 X338.966 Z-6.531
N11760 G1 X338.904 Z-6.09
N11765 G1 X338.812 Z-5.685
N11770 G1 X338.678 Z-5.268
N11775 G1 X338.509 Z-4.866
N11780 G1 X338.306 Z-4.482
N11785 G1 X338.068 Z-4.113
N11790 G1 X337.8 Z-3.769
N11795 G1 X337.504 Z-3.449
N11800 G1 X337.181 Z-3.157
N11805 G1 X336.831 Z-2.892
N11810 G1 X336.461 Z-2.659
N11815 G1 X336.077 Z-2.461
N11820 G1 X335.675 Z-2.297
N11825 G1 X335.251 Z-2.165
N11830 G1 X334.843 Z-2.075
N11835 G1 X334.414 Z-2.019
N11840 G1 X333.942 Z-2
N11845 G1 X332.978
N11850 G1 X332.91 Z-1.992
N11855 G1 X332.846 Z-1.969
N11860 G1 X332.782 Z-1.947
N11865 G1 X332.714 Z-1.939
N11870 G1 X332.695
N11875 G2 Y274.466 I0 J0.25
N11880 G1 X332.763 Z-1.947
N11885 G1 X332.827 Z-1.969
N11890 G1 X332.891 Z-1.992
N11895 G1 X332.959 Z-2
N11900 G1 X333.905
N11905 G1 X334.392 Z-2.019
N11910 G1 X334.818 Z-2.075
N11915 G1 X335.238 Z-2.167
N11920 G1 X335.652 Z-2.296
N11925 G1 X336.053 Z-2.461
N11930 G1 X336.438 Z-2.659
N11935 G1 X336.807 Z-2.892
N11940 G1 X337.157 Z-3.158
N11945 G1 X337.475 Z-3.447
N11950 G1 X337.775 Z-3.771
N11955 G1 X338.042 Z-4.116
N11960 G1 X338.276 Z-4.48
N11965 G1 X338.479 Z-4.865
N11970 G1 X338.651 Z-5.274
N11975 G1 X338.778 Z-5.671
N11980 G1 X338.876 Z-6.1
N11985 G1 X338.937 Z-6.538
N11990 G1 X338.96 Z-7
N11995 G1 X338.952 Y274.716
N12000 G1 X338.95 Y274.966
N12005 G1 X338.93 Z-6.552
N12010 G1 X338.87 Z-6.114
N12015 G1 X338.774 Z-5.688
N12020 G1 X338.642 Z-5.273
N12025 G1 X338.473 Z-4.87
N12030 G1 X338.267 Z-4.479
N12035 G1 X338.033 Z-4.115
N12040 G1 X337.765 Z-3.77
N12045 G1 X337.47 Z-3.45
N12050 G1 X337.146 Z-3.156
N12055 G1 X336.797 Z-2.891
N12060 G1 X336.428 Z-2.658
N12065 G1 X336.043 Z-2.46
N12070 G1 X335.64 Z-2.295
N12075 G1 X335.226 Z-2.166
N12080 G1 X334.806 Z-2.074
N12085 G1 X334.378 Z-2.019
N12090 G1 X333.906 Z-2
N12095 G1 X332.951
N12100 G1 X332.883 Z-1.992
N12105 G1 X332.819 Z-1.969
N12110 G1 X332.755 Z-1.947
N12115 G1 X332.687 Z-1.939
N12120 G2 Y275.466 I0 J0.25
N12125 G1 X332.692
N12130 G1 X332.76 Z-1.947
N12135 G1 X332.824 Z-1.969
N12140 G1 X332.889 Z-1.992
N12145 G1 X332.957 Z-2
N12150 G1 X333.913
N12155 G1 X334.385 Z-2.019
N12160 G1 X334.813 Z-2.074
N12165 G1 X335.233 Z-2.166
N12170 G1 X335.647 Z-2.295
N12175 G1 X336.05 Z-2.46
N12180 G1 X336.435 Z-2.658
N12185 G1 X336.805 Z-2.891
N12190 G1 X337.154 Z-3.156
N12195 G1 X337.477 Z-3.45
N12200 G1 X337.774 Z-3.77
N12205 G1 X338.041 Z-4.116
N12210 G1 X338.275 Z-4.48
N12215 G1 X338.481 Z-4.87
N12220 G1 X338.65 Z-5.273
N12225 G1 X338.782 Z-5.688
N12230 G1 X338.878 Z-6.114
N12235 G1 X338.938 Z-6.552
N12240 G1 X338.958 Z-6.999
N12245 G1 X338.968 Y275.716 Z-7
N12250 G1 X338.981 Y275.966
N12255 G1 X338.96 Z-6.547
N12260 G1 X338.896 Z-6.092
N12265 G1 X338.798 Z-5.668
N12270 G1 X338.669 Z-5.267
N12275 G1 X338.501 Z-4.866
N12280 G1 X338.298 Z-4.481
N12285 G1 X338.06 Z-4.113
N12290 G1 X337.792 Z-3.768
N12295 G1 X337.496 Z-3.448
N12300 G1 X337.177 Z-3.158
N12305 G1 X336.827 Z-2.892
N12310 G1 X336.458 Z-2.66
N12315 G1 X336.073 Z-2.461
N12320 G1 X335.671 Z-2.297
N12325 G1 X335.247 Z-2.165
N12330 G1 X334.839 Z-2.075
N12335 G1 X334.39 Z-2.018
N12340 G1 X333.925 Z-2
N12345 G1 X332.975
N12350 G1 X332.907 Z-1.992
N12355 G1 X332.843 Z-1.969
N12360 G1 X332.779 Z-1.947
N12365 G1 X332.711 Z-1.939
N12370 G2 Y276.466 I0 J0.25
N12375 G1 X332.738
N12380 G1 X332.806 Z-1.947
N12385 G1 X332.87 Z-1.969
N12390 G1 X332.934 Z-1.992
N12395 G1 X333.002 Z-2
N12400 G1 X333.967
N12405 G1 X334.433 Z-2.019
N12410 G1 X334.862 Z-2.074
N12415 G1 X335.282 Z-2.167
N12420 G1 X335.697 Z-2.295
N12425 G1 X336.101 Z-2.46
N12430 G1 X336.493 Z-2.661
N12435 G1 X336.861 Z-2.894
N12440 G1 X337.207 Z-3.156
N12445 G1 X337.531 Z-3.449
N12450 G1 X337.827 Z-3.769
N12455 G1 X338.096 Z-4.114
N12460 G1 X338.334 Z-4.482
N12465 G1 X338.536 Z-4.866
N12470 G1 X338.705 Z-5.268
N12475 G1 X338.841 Z-5.689
N12480 G1 X338.937 Z-6.115
N12485 G1 X338.996 Z-6.553
N12490 G1 X339.017 Z-7
N12495 G1 X339.04 Y276.716 Z-6.999
N12500 G1 X339.064 Y276.966
N12505 G1 X339.043 Z-6.553
N12510 G1 X338.984 Z-6.116
N12515 G1 X338.888 Z-5.691
N12520 G1 X338.752 Z-5.269
N12525 G1 X338.583 Z-4.869
N12530 G1 X338.377 Z-4.479
N12535 G1 X338.143 Z-4.116
N12540 G1 X337.875 Z-3.771
N12545 G1 X337.574 Z-3.447
N12550 G1 X337.249 Z-3.155
N12555 G1 X336.904 Z-2.893
N12560 G1 X336.534 Z-2.661
N12565 G1 X336.143 Z-2.46
N12570 G1 X335.737 Z-2.295
N12575 G1 X335.321 Z-2.166
N12580 G1 X334.9 Z-2.074
N12585 G1 X334.47 Z-2.019
N12590 G1 X334.01 Z-2
N12595 G1 X333.038
N12600 G1 X332.971 Z-1.992
N12605 G1 X332.906 Z-1.969
N12610 G1 X332.842 Z-1.947
N12615 G1 X332.774 Z-1.939
N12620 G2 Y277.466 I0 J0.25
N12625 G1 X332.822
N12630 G1 X332.89 Z-1.947
N12635 G1 X332.954 Z-1.969
N12640 G1 X333.018 Z-1.992
N12645 G1 X333.086 Z-2
N12650 G1 X334.035
N12655 G1 X334.52 Z-2.019
N12660 G1 X334.951 Z-2.074
N12665 G1 X335.373 Z-2.166
N12670 G1 X335.79 Z-2.295
N12675 G1 X336.196 Z-2.46
N12680 G1 X336.582 Z-2.658
N12685 G1 X336.958 Z-2.894
N12690 G1 X337.304 Z-3.156
N12695 G1 X337.629 Z-3.448
N12700 G1 X337.93 Z-3.772
N12705 G1 X338.198 Z-4.115
N12710 G1 X338.436 Z-4.483
N12715 G1 X338.639 Z-4.866
N12720 G1 X338.811 Z-5.272
N12725 G1 X338.941 Z-5.677
N12730 G1 X339.039 Z-6.101
N12735 G1 X339.099 Z-6.536
N12740 G1 X339.122 Z-7
N12745 G1 X339.154 Y277.716
N12750 G1 X339.19 Y277.966
N12755 G1 X339.169 Z-6.554
N12760 G1 X339.11 Z-6.117
N12765 G1 X339.01 Z-5.682
N12770 G1 X338.878 Z-5.272
N12775 G1 X338.705 Z-4.865
N12780 G1 X338.502 Z-4.483
N12785 G1 X338.264 Z-4.116
N12790 G1 X337.991 Z-3.768
N12795 G1 X337.694 Z-3.45
N12800 G1 X337.369 Z-3.157
N12805 G1 X337.018 Z-2.893
N12810 G1 X336.648 Z-2.661
N12815 G1 X336.255 Z-2.46
N12820 G1 X335.848 Z-2.295
N12825 G1 X335.432 Z-2.166
N12830 G1 X335.008 Z-2.074
N12835 G1 X334.579 Z-2.019
N12840 G1 X334.09 Z-2
N12845 G1 X333.139
N12850 G1 X333.071 Z-1.992
N12855 G1 X333.007 Z-1.969
N12860 G1 X332.943 Z-1.947
N12865 G1 X332.875 Z-1.939
N12870 G2 Y278.466 I0 J0.25
N12875 G1 X332.939
N12880 G1 X333.007 Z-1.947
N12885 G1 X333.071 Z-1.969
N12890 G1 X333.135 Z-1.992
N12895 G1 X333.203 Z-2
N12900 G1 X334.166
N12905 G1 X334.643 Z-2.019
N12910 G1 X335.075 Z-2.074
N12915 G1 X335.499 Z-2.166
N12920 G1 X335.917 Z-2.295
N12925 G1 X336.324 Z-2.46
N12930 G1 X336.719 Z-2.661
N12935 G1 X337.089 Z-2.893
N12940 G1 X337.441 Z-3.157
N12945 G1 X337.766 Z-3.449
N12950 G1 X338.068 Z-3.772
N12955 G1 X338.337 Z-4.115
N12960 G1 X338.575 Z-4.481
N12965 G1 X338.781 Z-4.869
N12970 G1 X338.95 Z-5.267
N12975 G1 X339.086 Z-5.685
N12980 G1 X339.186 Z-6.12
N12985 G1 X339.245 Z-6.556
N12990 G1 X339.265 Z-7
N12995 G1 X339.306 Y278.716
N13000 G1 X339.349 Y278.966 Z-6.999
N13005 G1 X339.328 Z-6.554
N13010 G1 X339.269 Z-6.12
N13015 G1 X339.17 Z-5.687
N13020 G1 X339.034 Z-5.269
N13025 G1 X338.865 Z-4.871
N13030 G1 X338.659 Z-4.484
N13035 G1 X338.416 Z-4.113
N13040 G1 X338.148 Z-3.77
N13045 G1 X337.845 Z-3.448
N13050 G1 X337.52 Z-3.157
N13055 G1 X337.167 Z-2.892
N13060 G1 X336.796 Z-2.661
N13065 G1 X336.401 Z-2.46
N13070 G1 X335.993 Z-2.295
N13075 G1 X335.575 Z-2.167
N13080 G1 X335.149 Z-2.074
N13085 G1 X334.719 Z-2.019
N13090 G1 X334.224 Z-2
N13095 G1 X333.273
N13100 G1 X333.205 Z-1.992
N13105 G1 X333.141 Z-1.969
N13110 G1 X333.077 Z-1.947
N13115 G1 X333.009 Z-1.939
N13120 G2 Y279.466 I0 J0.25
N13125 G1 X333.085
N13130 G1 X333.153 Z-1.947
N13135 G1 X333.217 Z-1.969
N13140 G1 X333.282 Z-1.992
N13145 G1 X333.349 Z-2
N13150 G1 X334.321
N13155 G1 X334.8 Z-2.019
N13160 G1 X335.234 Z-2.075
N13165 G1 X335.659 Z-2.167
N13170 G1 X336.079 Z-2.296
N13175 G1 X336.485 Z-2.46
N13180 G1 X336.881 Z-2.661
N13185 G1 X337.253 Z-2.892
N13190 G1 X337.606 Z-3.156
N13195 G1 X337.936 Z-3.451
N13200 G1 X338.235 Z-3.769
N13205 G1 X338.507 Z-4.115
N13210 G1 X338.746 Z-4.48
N13215 G1 X338.953 Z-4.866
N13220 G1 X339.125 Z-5.271
N13225 G1 X339.255 Z-5.67
N13230 G1 X339.354 Z-6.092
N13235 G1 X339.417 Z-6.54
N13240 G1 X339.44 Z-7
N13245 G1 X339.488 Y279.717
N13250 G1 X339.551 Y279.966
N13255 G1 X339.527 Z-6.543
N13260 G1 X339.465 Z-6.117
N13265 G1 X339.36 Z-5.685
N13270 G1 X339.22 Z-5.266
N13275 G1 X339.051 Z-4.87
N13280 G1 X338.841 Z-4.479
N13285 G1 X338.603 Z-4.115
N13290 G1 X338.329 Z-3.769
N13295 G1 X338.027 Z-3.448
N13300 G1 X337.7 Z-3.157
N13305 G1 X337.347 Z-2.893
N13310 G1 X336.974 Z-2.662
N13315 G1 X336.578 Z-2.461
N13320 G1 X336.171 Z-2.297
N13325 G1 X335.741 Z-2.165
N13330 G1 X335.327 Z-2.075
N13335 G1 X334.871 Z-2.018
N13340 G1 X334.391 Z-2
N13345 G1 X333.434
N13350 G1 X333.367 Z-1.992
N13355 G1 X333.302 Z-1.969
N13360 G1 X333.238 Z-1.947
N13365 G1 X333.17 Z-1.939
N13370 G2 Y280.466 I0 J0.25
N13375 G1 X333.258
N13380 G1 X333.326 Z-1.947
N13385 G1 X333.39 Z-1.969
N13390 G1 X333.455 Z-1.992
N13395 G1 X333.522 Z-2
N13400 G1 X334.498
N13405 G1 X334.964 Z-2.018
N13410 G1 X335.4 Z-2.073
N13415 G1 X335.837 Z-2.166
N13420 G1 X336.259 Z-2.294
N13425 G1 X336.676 Z-2.461
N13430 G1 X337.067 Z-2.659
N13435 G1 X337.441 Z-2.89
N13440 G1 X337.804 Z-3.155
N13445 G1 X338.156 Z-3.45
N13450 G1 X338.476 Z-3.77
N13455 G1 X338.767 Z-4.118
N13460 G1 X339.021 Z-4.484
N13465 G1 X339.241 Z-4.87
N13470 G1 X339.425 Z-5.274
N13475 G1 X339.568 Z-5.687
N13480 G1 X339.674 Z-6.119
N13485 G1 X339.736 Z-6.546
N13490 G1 X339.76 Z-7
N13495 G1 X339.866 Y280.716 Z-6.999
N13500 G1 X339.973 Y280.965
N13505 G1 X339.95 Z-6.549
N13510 G1 X339.885 Z-6.11
N13515 G1 X339.783 Z-5.692
N13520 G1 X339.637 Z-5.273
N13525 G1 X339.453 Z-4.869
N13530 G1 X339.233 Z-4.483
N13535 G1 X338.975 Z-4.114
N13540 G1 X338.687 Z-3.772
N13545 G1 X338.362 Z-3.448
N13550 G1 X338.014 Z-3.158
N13555 G1 X337.636 Z-2.892
N13560 G1 X337.241 Z-2.661
N13565 G1 X336.818 Z-2.46
N13570 G1 X336.379 Z-2.294
N13575 G1 X335.923 Z-2.161
N13580 G1 X335.507 Z-2.073
N13585 G1 X335.069 Z-2.018
N13590 G1 X334.613 Z-2
N13595 G1 X333.62
N13600 G1 X333.553 Z-1.992
N13605 G1 X333.488 Z-1.969
N13610 G1 X333.424 Z-1.947
N13615 G1 X333.356 Z-1.939
N13620 G2 Y281.465 I0 J0.25
N13625 G1 X333.459
N13630 G1 X333.527 Z-1.947
N13635 G1 X333.591 Z-1.969
N13640 G1 X333.655 Z-1.992
N13645 G1 X333.723 Z-2
N13650 G1 X334.717
N13655 G1 X335.194 Z-2.017
N13660 G1 X335.69 Z-2.075
N13665 G1 X336.143 Z-2.167
N13670 G1 X336.588 Z-2.295
N13675 G1 X337.029 Z-2.461
N13680 G1 X337.446 Z-2.659
N13685 G1 X337.849 Z-2.893
N13690 G1 X338.223 Z-3.155
N13695 G1 X338.576 Z-3.45
N13700 G1 X338.901 Z-3.772
N13705 G1 X339.189 Z-4.113
N13710 G1 X339.448 Z-4.482
N13715 G1 X339.672 Z-4.871
N13720 G1 X339.856 Z-5.274
N13725 G1 X340 Z-5.69
N13730 G1 X340.107 Z-6.122
N13735 G1 X340.168 Z-6.537
N13740 G1 X340.193 Z-7
N13745 G1 X340.417 Y281.965
N13750 G1 X340.394 Z-6.546
N13755 G1 X340.329 Z-6.11
N13760 G1 X340.226 Z-5.692
N13765 G1 X340.08 Z-5.274
N13770 G1 X339.895 Z-4.872
N13775 G1 X339.672 Z-4.484
N13780 G1 X339.413 Z-4.116
N13785 G1 X339.12 Z-3.771
N13790 G1 X338.794 Z-3.449
N13795 G1 X338.441 Z-3.155
N13800 G1 X338.065 Z-2.894
N13805 G1 X337.66 Z-2.659
N13810 G1 X337.242 Z-2.461
N13815 G1 X336.8 Z-2.295
N13820 G1 X336.353 Z-2.167
N13825 G1 X335.898 Z-2.075
N13830 G1 X335.436 Z-2.019
N13835 G1 X334.934 Z-2
N13840 G1 X333.886
N13845 G1 X333.818 Z-1.992
N13850 G1 X333.754 Z-1.969
N13855 G1 X333.69 Z-1.947
N13860 G1 X333.622 Z-1.939
N13865 G2 Y282.465 I0 J0.25
N13870 G1 X333.831
N13875 G1 X333.899 Z-1.947
N13880 G1 X333.963 Z-1.969
N13885 G1 X334.028 Z-1.992
N13890 G1 X334.095 Z-2
N13895 G1 X335.137
N13900 G1 X335.65 Z-2.019
N13905 G1 X336.112 Z-2.075
N13910 G1 X336.568 Z-2.167
N13915 G1 X337.017 Z-2.295
N13920 G1 X337.461 Z-2.462
N13925 G1 X337.88 Z-2.66
N13930 G1 X338.286 Z-2.893
N13935 G1 X338.667 Z-3.158
N13940 G1 X339.017 Z-3.448
N13945 G1 X339.344 Z-3.77
N13950 G1 X339.637 Z-4.115
N13955 G1 X339.9 Z-4.485
N13960 G1 X340.12 Z-4.867
N13965 G1 X340.308 Z-5.273
N13970 G1 X340.449 Z-5.674
N13975 G1 X340.558 Z-6.106
N13980 G1 X340.623 Z-6.537
N13985 G1 X340.648 Z-7
N13990 G1 X340.766 Y282.715
N13995 G1 X340.884 Y282.965
N14000 G1 X340.861 Z-6.549
N14005 G1 X340.796 Z-6.113
N14010 G1 X340.69 Z-5.689
N14015 G1 X340.543 Z-5.274
N14020 G1 X340.355 Z-4.869
N14025 G1 X340.131 Z-4.483
N14030 G1 X339.871 Z-4.118
N14035 G1 X339.574 Z-3.77
N14040 G1 X339.247 Z-3.448
N14045 G1 X338.891 Z-3.155
N14050 G1 X338.509 Z-2.892
N14055 G1 X338.102 Z-2.658
N14060 G1 X337.681 Z-2.46
N14065 G1 X337.236 Z-2.295
N14070 G1 X336.785 Z-2.167
N14075 G1 X336.328 Z-2.075
N14080 G1 X335.862 Z-2.019
N14085 G1 X335.318 Z-2
N14090 G1 X334.305
N14095 G1 X334.237 Z-1.992
N14100 G1 X334.173 Z-1.969
N14105 G1 X334.109 Z-1.947
N14110 G1 X334.041 Z-1.939
N14115 G2 Y283.465 I0 J0.25
N14120 G1 X334.255
N14125 G1 X334.323 Z-1.947
N14130 G1 X334.387 Z-1.969
N14135 G1 X334.451 Z-1.992
N14140 G1 X334.519 Z-2
N14145 G1 X335.57
N14150 G1 X336.087 Z-2.019
N14155 G1 X336.553 Z-2.075
N14160 G1 X337.013 Z-2.167
N14165 G1 X337.464 Z-2.295
N14170 G1 X337.911 Z-2.461
N14175 G1 X338.334 Z-2.659
N14180 G1 X338.741 Z-2.893
N14185 G1 X339.125 Z-3.156
N14190 G1 X339.482 Z-3.449
N14195 G1 X339.81 Z-3.769
N14200 G1 X340.108 Z-4.117
N14205 G1 X340.368 Z-4.481
N14210 G1 X340.596 Z-4.871
N14215 G1 X340.784 Z-5.274
N14220 G1 X340.926 Z-5.675
N14225 G1 X341.035 Z-6.104
N14230 G1 X341.101 Z-6.532
N14235 G1 X341.127 Z-7
N14240 G1 X341.25 Y283.716
N14245 G1 X341.375 Y283.965
N14250 G1 X341.348 Z-6.527
N14255 G1 X341.281 Z-6.095
N14260 G1 X341.176 Z-5.683
N14265 G1 X341.028 Z-5.27
N14270 G1 X340.84 Z-4.869
N14275 G1 X340.612 Z-4.481
N14280 G1 X340.352 Z-4.118
N14285 G1 X340.053 Z-3.771
N14290 G1 X339.725 Z-3.451
N14295 G1 X339.367 Z-3.158
N14300 G1 X338.977 Z-2.892
N14305 G1 X338.568 Z-2.659
N14310 G1 X338.145 Z-2.461
N14315 G1 X337.695 Z-2.295
N14320 G1 X337.243 Z-2.167
N14325 G1 X336.781 Z-2.075
N14330 G1 X336.311 Z-2.019
N14335 G1 X335.799 Z-2
N14340 G1 X334.742
N14345 G1 X334.674 Z-1.992
N14350 G1 X334.61 Z-1.969
N14355 G1 X334.546 Z-1.947
N14360 G1 X334.478 Z-1.939
N14365 G2 Y284.465 I0 J0.25
N14370 G1 X334.701
N14375 G1 X334.768 Z-1.947
N14380 G1 X334.833 Z-1.969
N14385 G1 X334.897 Z-1.992
N14390 G1 X334.965 Z-2
N14395 G1 X336.008
N14400 G1 X336.52 Z-2.018
N14405 G1 X337.015 Z-2.075
N14410 G1 X337.478 Z-2.167
N14415 G1 X337.933 Z-2.295
N14420 G1 X338.382 Z-2.461
N14425 G1 X338.816 Z-2.662
N14430 G1 X339.22 Z-2.892
N14435 G1 X339.61 Z-3.158
N14440 G1 X339.969 Z-3.449
N14445 G1 X340.302 Z-3.772
N14450 G1 X340.598 Z-4.114
N14455 G1 X340.862 Z-4.481
N14460 G1 X341.091 Z-4.868
N14465 G1 X341.282 Z-5.274
N14470 G1 X341.426 Z-5.676
N14475 G1 X341.535 Z-6.1
N14480 G1 X341.604 Z-6.539
N14485 G1 X341.629 Z-7
N14490 G1 X341.758 Y284.716
N14495 G1 X341.889 Y284.965
N14500 G1 X341.864 Z-6.541
N14505 G1 X341.797 Z-6.106
N14510 G1 X341.687 Z-5.68
N14515 G1 X341.54 Z-5.272
N14520 G1 X341.348 Z-4.867
N14525 G1 X341.119 Z-4.481
N14530 G1 X340.854 Z-4.115
N14535 G1 X340.555 Z-3.771
N14540 G1 X340.224 Z-3.452
N14545 G1 X339.86 Z-3.158
N14550 G1 X339.474 Z-2.895
N14555 G1 X339.056 Z-2.659
N14560 G1 X338.629 Z-2.462
N14565 G1 X338.18 Z-2.296
N14570 G1 X337.713 Z-2.166
N14575 G1 X337.247 Z-2.074
N14580 G1 X336.775 Z-2.019
N14585 G1 X336.253 Z-2
N14590 G1 X335.196
N14595 G1 X335.128 Z-1.992
N14600 G1 X335.064 Z-1.969
N14605 G1 X335 Z-1.947
N14610 G1 X334.932 Z-1.939
N14615 G2 Y285.465 I0 J0.25
N14620 G1 X335.169
N14625 G1 X335.236 Z-1.947
N14630 G1 X335.301 Z-1.969
N14635 G1 X335.365 Z-1.992
N14640 G1 X335.433 Z-2
N14645 G1 X336.5
N14650 G1 X337.017 Z-2.019
N14655 G1 X337.493 Z-2.075
N14660 G1 X337.96 Z-2.166
N14665 G1 X338.429 Z-2.297
N14670 G1 X338.879 Z-2.462
N14675 G1 X339.308 Z-2.659
N14680 G1 X339.728 Z-2.895
N14685 G1 X340.115 Z-3.157
N14690 G1 X340.48 Z-3.451
N14695 G1 X340.816 Z-3.772
N14700 G1 X341.117 Z-4.116
N14705 G1 X341.382 Z-4.481
N14710 G1 X341.614 Z-4.872
N14715 G1 X341.806 Z-5.275
N14720 G1 X341.95 Z-5.673
N14725 G1 X342.061 Z-6.098
N14730 G1 X342.132 Z-6.549
N14735 G1 X342.155 Z-7
N14740 G1 X342.291 Y285.715
N14745 G1 X342.428 Y285.965
N14750 G1 X342.404 Z-6.544
N14755 G1 X342.334 Z-6.104
N14760 G1 X342.223 Z-5.678
N14765 G1 X342.076 Z-5.274
N14770 G1 X341.884 Z-4.871
N14775 G1 X341.651 Z-4.482
N14780 G1 X341.386 Z-4.118
N14785 G1 X341.081 Z-3.771
N14790 G1 X340.744 Z-3.451
N14795 G1 X340.378 Z-3.157
N14800 G1 X339.984 Z-2.892
N14805 G1 X339.568 Z-2.66
N14810 G1 X339.131 Z-2.46
N14815 G1 X338.676 Z-2.295
N14820 G1 X338.216 Z-2.167
N14825 G1 X337.747 Z-2.075
N14830 G1 X337.247 Z-2.018
N14835 G1 X336.784 Z-2
N14840 G1 X335.669
N14845 G1 X335.602 Z-1.992
N14850 G1 X335.537 Z-1.969
N14855 G1 X335.473 Z-1.947
N14860 G1 X335.405 Z-1.939
N14865 G2 Y286.465 I0 J0.25
N14870 G1 X335.656
N14875 G1 X335.723 Z-1.947
N14880 G1 X335.788 Z-1.969
N14885 G1 X335.852 Z-1.992
N14890 G1 X335.92 Z-2
N14895 G1 X336.989
N14900 G1 X337.519 Z-2.019
N14905 G1 X337.997 Z-2.074
N14910 G1 X338.467 Z-2.166
N14915 G1 X338.942 Z-2.296
N14920 G1 X339.396 Z-2.461
N14925 G1 X339.834 Z-2.661
N14930 G1 X340.252 Z-2.893
N14935 G1 X340.648 Z-3.158
N14940 G1 X341.015 Z-3.451
N14945 G1 X341.352 Z-3.771
N14950 G1 X341.658 Z-4.116
N14955 G1 X341.928 Z-4.483
N14960 G1 X342.161 Z-4.871
N14965 G1 X342.353 Z-5.271
N14970 G1 X342.505 Z-5.686
N14975 G1 X342.614 Z-6.106
N14980 G1 X342.682 Z-6.533
N14985 G1 X342.708 Z-7
N14990 G1 X342.851 Y286.715
N14995 G1 X342.995 Y286.965 Z-6.999
N15000 G1 X342.971 Z-6.556
N15005 G1 X342.903 Z-6.117
N15010 G1 X342.791 Z-5.688
N15015 G1 X342.637 Z-5.272
N15020 G1 X342.445 Z-4.872
N15025 G1 X342.208 Z-4.481
N15030 G1 X341.938 Z-4.116
N15035 G1 X341.631 Z-3.771
N15040 G1 X341.293 Z-3.452
N15045 G1 X340.919 Z-3.155
N15050 G1 X340.526 Z-2.894
N15055 G1 X340.102 Z-2.659
N15060 G1 X339.661 Z-2.46
N15065 G1 X339.201 Z-2.295
N15070 G1 X338.736 Z-2.167
N15075 G1 X338.264 Z-2.075
N15080 G1 X337.781 Z-2.019
N15085 G1 X337.257 Z-2
N15090 G1 X336.171
N15095 G1 X336.103 Z-1.992
N15100 G1 X336.038 Z-1.969
N15105 G1 X335.974 Z-1.947
N15110 G1 X335.906 Z-1.939
N15115 G2 Y287.465 I0 J0.25
N15120 G1 X336.162
N15125 G1 X336.23 Z-1.947
N15130 G1 X336.294 Z-1.969
N15135 G1 X336.358 Z-1.992
N15140 G1 X336.426 Z-2
N15145 G1 X337.517
N15150 G1 X338.043 Z-2.019
N15155 G1 X338.529 Z-2.075
N15160 G1 X339.005 Z-2.167
N15165 G1 X339.471 Z-2.294
N15170 G1 X339.942 Z-2.462
N15175 G1 X340.377 Z-2.659
N15180 G1 X340.804 Z-2.893
N15185 G1 X341.203 Z-3.157
N15190 G1 X341.572 Z-3.448
N15195 G1 X341.916 Z-3.771
N15200 G1 X342.227 Z-4.118
N15205 G1 X342.498 Z-4.483
N15210 G1 X342.735 Z-4.872
N15215 G1 X342.928 Z-5.27
N15220 G1 X343.084 Z-5.691
N15225 G1 X343.197 Z-6.121
N15230 G1 X343.265 Z-6.557
N15235 G1 X343.288 Z-6.999
N15240 G1 X343.438 Y287.715 Z-7
N15245 G1 X343.589 Y287.965
N15250 G1 X343.562 Z-6.537
N15255 G1 X343.492 Z-6.103
N15260 G1 X343.38 Z-5.682
N15265 G1 X343.229 Z-5.276
N15270 G1 X343.03 Z-4.868
N15275 G1 X342.795 Z-4.485
N15280 G1 X342.52 Z-4.117
N15285 G1 X342.207 Z-3.77
N15290 G1 X341.863 Z-3.449
N15295 G1 X341.492 Z-3.158
N15300 G1 X341.09 Z-2.894
N15305 G1 X340.662 Z-2.659
N15310 G1 X340.217 Z-2.46
N15315 G1 X339.753 Z-2.295
N15320 G1 X339.284 Z-2.167
N15325 G1 X338.805 Z-2.075
N15330 G1 X338.294 Z-2.018
N15335 G1 X337.766 Z-2
N15340 G1 X336.692
N15345 G1 X336.624 Z-1.992
N15350 G1 X336.56 Z-1.969
N15355 G1 X336.495 Z-1.947
N15360 G1 X336.428 Z-1.939
N15365 G2 Y288.465 I0 J0.25
N15370 G1 X336.693
N15375 G1 X336.761 Z-1.947
N15380 G1 X336.825 Z-1.969
N15385 G1 X336.89 Z-1.992
N15390 G1 X336.957 Z-2
N15395 G1 X338.064
N15400 G1 X338.573 Z-2.018
N15405 G1 X339.087 Z-2.075
N15410 G1 X339.567 Z-2.167
N15415 G1 X340.038 Z-2.295
N15420 G1 X340.505 Z-2.46
N15425 G1 X340.952 Z-2.659
N15430 G1 X341.381 Z-2.893
N15435 G1 X341.785 Z-3.156
N15440 G1 X342.162 Z-3.45
N15445 G1 X342.507 Z-3.771
N15450 G1 X342.82 Z-4.116
N15455 G1 X343.096 Z-4.483
N15460 G1 X343.335 Z-4.869
N15465 G1 X343.534 Z-5.275
N15470 G1 X343.684 Z-5.675
N15475 G1 X343.799 Z-6.104
N15480 G1 X343.871 Z-6.543
N15485 G1 X343.896 Z-7
N15490 G1 X344.054 Y288.715
N15495 G1 X344.212 Y288.965
N15500 G1 X344.185 Z-6.539
N15505 G1 X344.114 Z-6.103
N15510 G1 X343.996 Z-5.671
N15515 G1 X343.846 Z-5.273
N15520 G1 X343.646 Z-4.868
N15525 G1 X343.407 Z-4.484
N15530 G1 X343.127 Z-4.114
N15535 G1 X342.813 Z-3.77
N15540 G1 X342.466 Z-3.451
N15545 G1 X342.088 Z-3.158
N15550 G1 X341.678 Z-2.892
N15555 G1 X341.254 Z-2.662
N15560 G1 X340.804 Z-2.462
N15565 G1 X340.327 Z-2.294
N15570 G1 X339.853 Z-2.167
N15575 G1 X339.369 Z-2.075
N15580 G1 X338.879 Z-2.019
N15585 G1 X338.318 Z-2
N15590 G1 X337.234
N15595 G1 X337.167 Z-1.992
N15600 G1 X337.102 Z-1.969
N15605 G1 X337.038 Z-1.947
N15610 G1 X336.97 Z-1.939
N15615 G2 Y289.465 I0 J0.25
N15620 G1 X337.252
N15625 G1 X337.319 Z-1.947
N15630 G1 X337.384 Z-1.969
N15635 G1 X337.448 Z-1.992
N15640 G1 X337.516 Z-2
N15645 G1 X338.626
N15650 G1 X339.165 Z-2.019
N15655 G1 X339.659 Z-2.075
N15660 G1 X340.145 Z-2.166
N15665 G1 X340.633 Z-2.297
N15670 G1 X341.101 Z-2.461
N15675 G1 X341.552 Z-2.66
N15680 G1 X341.987 Z-2.893
N15685 G1 X342.398 Z-3.159
N15690 G1 X342.779 Z-3.452
N15695 G1 X343.126 Z-3.771
N15700 G1 X343.445 Z-4.118
N15705 G1 X343.726 Z-4.486
N15710 G1 X343.965 Z-4.869
N15715 G1 X344.166 Z-5.272
N15720 G1 X344.32 Z-5.676
N15725 G1 X344.437 Z-6.105
N15730 G1 X344.507 Z-6.534
N15735 G1 X344.535 Z-7
N15740 G1 X344.7 Y289.715
N15745 G1 X344.866 Y289.965
N15750 G1 X344.84 Z-6.545
N15755 G1 X344.766 Z-6.103
N15760 G1 X344.649 Z-5.676
N15765 G1 X344.493 Z-5.271
N15770 G1 X344.293 Z-4.871
N15775 G1 X344.05 Z-4.484
N15780 G1 X343.768 Z-4.118
N15785 G1 X343.449 Z-3.772
N15790 G1 X343.096 Z-3.451
N15795 G1 X342.713 Z-3.158
N15800 G1 X342.3 Z-2.893
N15805 G1 X341.864 Z-2.66
N15810 G1 X341.41 Z-2.462
N15815 G1 X340.928 Z-2.294
N15820 G1 X340.448 Z-2.167
N15825 G1 X339.959 Z-2.075
N15830 G1 X339.462 Z-2.019
N15835 G1 X338.912 Z-2
N15840 G1 X337.798
N15845 G1 X337.73 Z-1.992
N15850 G1 X337.666 Z-1.969
N15855 G1 X337.602 Z-1.947
N15860 G1 X337.534 Z-1.939
N15865 G2 Y290.465 I0 J0.25
N15870 G1 X337.832
N15875 G1 X337.899 Z-1.947
N15880 G1 X337.964 Z-1.969
N15885 G1 X338.028 Z-1.992
N15890 G1 X338.096 Z-2
N15895 G1 X339.211
N15900 G1 X339.764 Z-2.019
N15905 G1 X340.265 Z-2.075
N15910 G1 X340.756 Z-2.167
N15915 G1 X341.251 Z-2.297
N15920 G1 X341.724 Z-2.461
N15925 G1 X342.181 Z-2.66
N15930 G1 X342.62 Z-2.893
N15935 G1 X343.035 Z-3.157
N15940 G1 X343.423 Z-3.452
N15945 G1 X343.778 Z-3.772
N15950 G1 X344.098 Z-4.117
N15955 G1 X344.381 Z-4.482
N15960 G1 X344.628 Z-4.872
N15965 G1 X344.832 Z-5.276
N15970 G1 X344.991 Z-5.688
N15975 G1 X345.104 Z-6.102
N15980 G1 X345.177 Z-6.537
N15985 G1 X345.205 Z-7
N15990 G1 X345.378 Y290.715
N15995 G1 X345.552 Y290.964
N16000 G1 X345.525 Z-6.544
N16005 G1 X345.454 Z-6.114
N16010 G1 X345.338 Z-5.693
N16015 G1 X345.175 Z-5.272
N16020 G1 X344.97 Z-4.871
N16025 G1 X344.723 Z-4.483
N16030 G1 X344.436 Z-4.116
N16035 G1 X344.114 Z-3.773
N16040 G1 X343.758 Z-3.452
N16045 G1 X343.368 Z-3.158
N16050 G1 X342.951 Z-2.894
N16055 G1 X342.51 Z-2.662
N16060 G1 X342.042 Z-2.46
N16065 G1 X341.567 Z-2.296
N16070 G1 X341.069 Z-2.166
N16075 G1 X340.576 Z-2.075
N16080 G1 X340.074 Z-2.019
N16085 G1 X339.526 Z-2
N16090 G1 X338.394
N16095 G1 X338.326 Z-1.992
N16100 G1 X338.262 Z-1.969
N16105 G1 X338.198 Z-1.947
N16110 G1 X338.13 Z-1.939
N16115 G2 Y291.464 I0 J0.25
N16120 G1 X338.434
N16125 G1 X338.502 Z-1.947
N16130 G1 X338.566 Z-1.969
N16135 G1 X338.63 Z-1.992
N16140 G1 X338.698 Z-2
N16145 G1 X339.838
N16150 G1 X340.389 Z-2.019
N16155 G1 X340.896 Z-2.075
N16160 G1 X341.393 Z-2.166
N16165 G1 X341.893 Z-2.296
N16170 G1 X342.371 Z-2.46
N16175 G1 X342.841 Z-2.661
N16180 G1 X343.283 Z-2.892
N16185 G1 X343.702 Z-3.156
N16190 G1 X344.096 Z-3.45
N16195 G1 X344.458 Z-3.772
N16200 G1 X344.785 Z-4.119
N16205 G1 X345.073 Z-4.485
N16210 G1 X345.321 Z-4.871
N16215 G1 X345.529 Z-5.276
N16220 G1 X345.687 Z-5.678
N16225 G1 X345.806 Z-6.103
N16230 G1 X345.879 Z-6.535
N16235 G1 X345.908 Z-7
N16240 G1 X346.089 Y291.715
N16245 G1 X346.272 Y291.964 Z-6.999
N16250 G1 X346.246 Z-6.549
N16255 G1 X346.175 Z-6.121
N16260 G1 X346.053 Z-5.686
N16265 G1 X345.888 Z-5.273
N16270 G1 X345.68 Z-4.869
N16275 G1 X345.431 Z-4.486
N16280 G1 X345.139 Z-4.117
N16285 G1 X344.81 Z-3.772
N16290 G1 X344.447 Z-3.451
N16295 G1 X344.052 Z-3.158
N16300 G1 X343.625 Z-2.892
N16305 G1 X343.179 Z-2.66
N16310 G1 X342.705 Z-2.459
N16315 G1 X342.221 Z-2.295
N16320 G1 X341.728 Z-2.167
N16325 G1 X341.228 Z-2.075
N16330 G1 X340.693 Z-2.018
N16335 G1 X340.138 Z-2
N16340 G1 X339.014
N16345 G1 X338.946 Z-1.992
N16350 G1 X338.882 Z-1.969
N16355 G1 X338.818 Z-1.947
N16360 G1 X338.75 Z-1.939
N16365 G2 Y292.464 I0 J0.25
N16370 G1 X339.066
N16375 G1 X339.133 Z-1.947
N16380 G1 X339.198 Z-1.969
N16385 G1 X339.262 Z-1.992
N16390 G1 X339.33 Z-2
N16395 G1 X340.488
N16400 G1 X341.046 Z-2.019
N16405 G1 X341.558 Z-2.075
N16410 G1 X342.061 Z-2.167
N16415 G1 X342.569 Z-2.297
N16420 G1 X343.055 Z-2.461
N16425 G1 X343.53 Z-2.661
N16430 G1 X343.978 Z-2.892
N16435 G1 X344.407 Z-3.158
N16440 G1 X344.803 Z-3.449
N16445 G1 X345.169 Z-3.77
N16450 G1 X345.503 Z-4.117
N16455 G1 X345.797 Z-4.485
N16460 G1 X346.05 Z-4.872
N16465 G1 X346.258 Z-5.272
N16470 G1 X346.426 Z-5.691
N16475 G1 X346.548 Z-6.123
N16480 G1 X346.619 Z-6.548
N16485 G1 X346.646 Z-7
N16490 G1 X346.836 Y292.715
N16495 G1 X347.028 Y292.964
N16500 G1 X347 Z-6.542
N16505 G1 X346.926 Z-6.109
N16510 G1 X346.804 Z-5.685
N16515 G1 X346.64 Z-5.277
N16520 G1 X346.428 Z-4.873
N16525 G1 X346.171 Z-4.483
N16530 G1 X345.877 Z-4.118
N16535 G1 X345.541 Z-3.772
N16540 G1 X345.174 Z-3.453
N16545 G1 X344.771 Z-3.158
N16550 G1 X344.339 Z-2.893
N16555 G1 X343.888 Z-2.662
N16560 G1 X343.41 Z-2.462
N16565 G1 X342.91 Z-2.295
N16570 G1 X342.401 Z-2.166
N16575 G1 X341.882 Z-2.073
N16580 G1 X341.366 Z-2.018
N16585 G1 X340.805 Z-2
N16590 G1 X339.659
N16595 G1 X339.591 Z-1.992
N16600 G1 X339.527 Z-1.969
N16605 G1 X339.463 Z-1.947
N16610 G1 X339.395 Z-1.939
N16615 G2 Y293.464 I0 J0.25
N16620 G1 X339.729
N16625 G1 X339.796 Z-1.947
N16630 G1 X339.861 Z-1.969
N16635 G1 X339.925 Z-1.992
N16640 G1 X339.993 Z-2
N16645 G1 X341.136
N16650 G1 X341.709 Z-2.018
N16655 G1 X342.232 Z-2.073
N16660 G1 X342.753 Z-2.165
N16665 G1 X343.267 Z-2.295
N16670 G1 X343.771 Z-2.462
N16675 G1 X344.253 Z-2.662
N16680 G1 X344.706 Z-2.892
N16685 G1 X345.141 Z-3.157
N16690 G1 X345.547 Z-3.451
N16695 G1 X345.92 Z-3.773
N16700 G1 X346.257 Z-4.116
N16705 G1 X346.556 Z-4.485
N16710 G1 X346.814 Z-4.872
N16715 G1 X347.026 Z-5.273
N16720 G1 X347.198 Z-5.693
N16725 G1 X347.32 Z-6.119
N16730 G1 X347.394 Z-6.554
N16735 G1 X347.42 Z-6.999
N16740 G1 X347.62 Y293.715 Z-7
N16745 G1 X347.822 Y293.964
N16750 G1 X347.794 Z-6.541
N16755 G1 X347.716 Z-6.104
N16760 G1 X347.593 Z-5.683
N16765 G1 X347.427 Z-5.277
N16770 G1 X347.207 Z-4.868
N16775 G1 X346.948 Z-4.484
N16780 G1 X346.648 Z-4.117
N16785 G1 X346.305 Z-3.77
N16790 G1 X345.93 Z-3.45
N16795 G1 X345.522 Z-3.157
N16800 G1 X345.085 Z-2.893
N16805 G1 X344.62 Z-2.659
N16810 G1 X344.135 Z-2.46
N16815 G1 X343.64 Z-2.297
N16820 G1 X343.122 Z-2.167
N16825 G1 X342.607 Z-2.075
N16830 G1 X342.083 Z-2.019
N16835 G1 X341.514 Z-2
N16840 G1 X340.33
N16845 G1 X340.262 Z-1.992
N16850 G1 X340.198 Z-1.969
N16855 G1 X340.134 Z-1.947
N16860 G1 X340.066 Z-1.939
N16865 G2 Y294.464 I0 J0.25
N16870 G1 X340.419
N16875 G1 X340.487 Z-1.947
N16880 G1 X340.551 Z-1.969
N16885 G1 X340.615 Z-1.992
N16890 G1 X340.683 Z-2
N16895 G1 X341.872
N16900 G1 X342.421 Z-2.018
N16905 G1 X342.976 Z-2.075
N16910 G1 X343.494 Z-2.167
N16915 G1 X344.015 Z-2.297
N16920 G1 X344.514 Z-2.46
N16925 G1 X345.003 Z-2.66
N16930 G1 X345.47 Z-2.893
N16935 G1 X345.916 Z-3.159
N16940 G1 X346.326 Z-3.451
N16945 G1 X346.703 Z-3.77
N16950 G1 X347.048 Z-4.116
N16955 G1 X347.352 Z-4.485
N16960 G1 X347.615 Z-4.872
N16965 G1 X347.832 Z-5.274
N16970 G1 X348.003 Z-5.685
N16975 G1 X348.128 Z-6.108
N16980 G1 X348.206 Z-6.543
N16985 G1 X348.234 Z-7
N16990 G1 X348.444 Y294.715
N16995 G1 X348.656 Y294.964
N17000 G1 X348.63 Z-6.556
N17005 G1 X348.552 Z-6.118
N17010 G1 X348.427 Z-5.694
N17015 G1 X348.252 Z-5.275
N17020 G1 X348.031 Z-4.871
N17025 G1 X347.767 Z-4.486
N17030 G1 X347.457 Z-4.116
N17035 G1 X347.112 Z-3.772
N17040 G1 X346.728 Z-3.451
N17045 G1 X346.315 Z-3.159
N17050 G1 X345.866 Z-2.893
N17055 G1 X345.395 Z-2.66
N17060 G1 X344.902 Z-2.461
N17065 G1 X344.387 Z-2.294
N17070 G1 X343.873 Z-2.167
N17075 G1 X343.349 Z-2.075
N17080 G1 X342.79 Z-2.018
N17085 G1 X342.272 Z-2
N17090 G1 X341.036
N17095 G1 X340.968 Z-1.992
N17100 G1 X340.904 Z-1.969
N17105 G1 X340.839 Z-1.947
N17110 G1 X340.772 Z-1.939
N17115 G2 Y295.464 I0 J0.25
N17120 G1 X341.138
N17125 G1 X341.205 Z-1.947
N17130 G1 X341.27 Z-1.969
N17135 G1 X341.334 Z-1.992
N17140 G1 X341.402 Z-2
N17145 G1 X342.599
N17150 G1 X343.19 Z-2.019
N17155 G1 X343.726 Z-2.075
N17160 G1 X344.253 Z-2.166
N17165 G1 X344.783 Z-2.295
N17170 G1 X345.292 Z-2.459
N17175 G1 X345.798 Z-2.661
N17180 G1 X346.27 Z-2.893
N17185 G1 X346.722 Z-3.158
N17190 G1 X347.143 Z-3.452
N17195 G1 X347.529 Z-3.772
N17200 G1 X347.88 Z-4.119
N17205 G1 X348.192 Z-4.487
N17210 G1 X348.456 Z-4.87
N17215 G1 X348.681 Z-5.276
N17220 G1 X348.852 Z-5.68
N17225 G1 X348.981 Z-6.106
N17230 G1 X349.061 Z-6.551
N17235 G1 X349.089 Z-7
N17240 G1 X349.31 Y295.715
N17245 G1 X349.533 Y295.964
N17250 G1 X349.507 Z-6.56
N17255 G1 X349.426 Z-6.115
N17260 G1 X349.297 Z-5.689
N17265 G1 X349.121 Z-5.278
N17270 G1 X348.892 Z-4.869
N17275 G1 X348.623 Z-4.485
N17280 G1 X348.31 Z-4.118
N17285 G1 X347.957 Z-3.773
N17290 G1 X347.564 Z-3.45
N17295 G1 X347.14 Z-3.158
N17300 G1 X346.685 Z-2.893
N17305 G1 X346.208 Z-2.661
N17310 G1 X345.701 Z-2.46
N17315 G1 X345.189 Z-2.297
N17320 G1 X344.655 Z-2.167
N17325 G1 X344.124 Z-2.075
N17330 G1 X343.555 Z-2.018
N17335 G1 X342.967 Z-2
N17340 G1 X341.774
N17345 G1 X341.706 Z-1.992
N17350 G1 X341.642 Z-1.969
N17355 G1 X341.578 Z-1.947
N17360 G1 X341.51 Z-1.939
N17365 G2 Y296.464 I0 J0.25
N17370 G1 X341.887
N17375 G1 X341.954 Z-1.947
N17380 G1 X342.019 Z-1.969
N17385 G1 X342.083 Z-1.992
N17390 G1 X342.151 Z-2
N17395 G1 X343.348
N17400 G1 X343.97 Z-2.019
N17405 G1 X344.515 Z-2.074
N17410 G1 X345.052 Z-2.166
N17415 G1 X345.59 Z-2.295
N17420 G1 X346.119 Z-2.461
N17425 G1 X346.623 Z-2.659
N17430 G1 X347.111 Z-2.894
N17435 G1 X347.57 Z-3.158
N17440 G1 X347.997 Z-3.45
N17445 G1 X348.393 Z-3.772
N17450 G1 X348.752 Z-4.118
N17455 G1 X349.07 Z-4.487
N17460 G1 X349.343 Z-4.873
N17465 G1 X349.57 Z-5.273
N17470 G1 X349.746 Z-5.681
N17475 G1 X349.877 Z-6.106
N17480 G1 X349.957 Z-6.539
N17485 G1 X349.988 Z-7
N17490 G1 X350.221 Y296.714 Z-6.999
N17495 G1 X350.454 Y296.964
N17500 G1 X350.425 Z-6.548
N17505 G1 X350.347 Z-6.123
N17510 G1 X350.215 Z-5.693
N17515 G1 X350.033 Z-5.275
N17520 G1 X349.803 Z-4.873
N17525 G1 X349.524 Z-4.485
N17530 G1 X349.205 Z-4.118
N17535 G1 X348.843 Z-3.773
N17540 G1 X348.445 Z-3.453
N17545 G1 X348.011 Z-3.158
N17550 G1 X347.542 Z-2.892
N17555 G1 X347.057 Z-2.661
N17560 G1 X346.541 Z-2.46
N17565 G1 X346.019 Z-2.297
N17570 G1 X345.464 Z-2.165
N17575 G1 X344.908 Z-2.073
N17580 G1 X344.365 Z-2.019
N17585 G1 X343.758 Z-2
N17590 G1 X342.544
N17595 G1 X342.476 Z-1.992
N17600 G1 X342.412 Z-1.969
N17605 G1 X342.347 Z-1.947
N17610 G1 X342.28 Z-1.939
N17615 G2 Y297.464 I0 J0.25
N17620 G1 X342.672
N17625 G1 X342.74 Z-1.947
N17630 G1 X342.804 Z-1.969
N17635 G1 X342.869 Z-1.992
N17640 G1 X342.936 Z-2
N17645 G1 X344.153
N17650 G1 X344.768 Z-2.018
N17655 G1 X345.351 Z-2.075
N17660 G1 X345.898 Z-2.167
N17665 G1 X346.446 Z-2.297
N17670 G1 X346.982 Z-2.462
N17675 G1 X347.495 Z-2.66
N17680 G1 X347.992 Z-2.894
N17685 G1 X348.459 Z-3.157
N17690 G1 X348.896 Z-3.45
N17695 G1 X349.303 Z-3.772
N17700 G1 X349.666 Z-4.116
N17705 G1 X349.991 Z-4.484
N17710 G1 X350.275 Z-4.874
N17715 G1 X350.506 Z-5.274
N17720 G1 X350.689 Z-5.689
N17725 G1 X350.824 Z-6.121
N17730 G1 X350.905 Z-6.55
N17735 G1 X350.934 Z-7
N17740 G1 X351.179 Y297.715 Z-6.999
N17745 G1 X351.302 Y297.84
N17750 G1 X351.426 Y297.964
N17755 G1 X351.396 Z-6.55
N17760 G1 X351.316 Z-6.123
N17765 G1 X351.18 Z-5.695
N17770 G1 X350.994 Z-5.278
N17775 G1 X350.755 Z-4.87
N17780 G1 X350.475 Z-4.488
N17785 G1 X350.144 Z-4.118
N17790 G1 X349.774 Z-3.772
N17795 G1 X349.366 Z-3.452
N17800 G1 X348.925 Z-3.159
N17805 G1 X348.448 Z-2.894
N17810 G1 X347.946 Z-2.66
N17815 G1 X347.418 Z-2.459
N17820 G1 X346.888 Z-2.297
N17825 G1 X346.334 Z-2.167
N17830 G1 X345.78 Z-2.075
N17835 G1 X345.191 Z-2.018
N17840 G1 X344.58 Z-2
N17845 G1 X343.346
N17850 G1 X343.279 Z-1.992
N17855 G1 X343.214 Z-1.969
N17860 G1 X343.15 Z-1.947
N17865 G1 X343.082 Z-1.939
N17870 G2 Y298.464 I0 J0.25
N17875 G1 X343.496
N17880 G1 X343.564 Z-1.947
N17885 G1 X343.628 Z-1.969
N17890 G1 X343.693 Z-1.992
N17895 G1 X343.76 Z-2
N17900 G1 X345.07
N17905 G1 X345.623 Z-2.018
N17910 G1 X346.218 Z-2.075
N17915 G1 X346.777 Z-2.167
N17920 G1 X347.337 Z-2.297
N17925 G1 X347.873 Z-2.459
N17930 G1 X348.407 Z-2.66
N17935 G1 X348.912 Z-2.892
N17940 G1 X349.394 Z-3.157
N17945 G1 X349.844 Z-3.451
N17950 G1 X350.256 Z-3.771
N17955 G1 X350.633 Z-4.119
N17960 G1 X350.967 Z-4.487
N17965 G1 X351.252 Z-4.872
N17970 G1 X351.491 Z-5.276
N17975 G1 X351.681 Z-5.691
N17980 G1 X351.816 Z-6.111
N17985 G1 X351.902 Z-6.556
N17990 G1 X351.931 Z-7
N17995 G1 X352.059 Y298.59
N18000 G1 X352.189 Y298.715 Z-6.999
N18005 G1 X352.448 Y298.964
N18010 G1 X352.419 Z-6.554
N18015 G1 X352.335 Z-6.121
N18020 G1 X352.196 Z-5.693
N18025 G1 X352.005 Z-5.278
N18030 G1 X351.762 Z-4.874
N18035 G1 X351.472 Z-4.487
N18040 G1 X351.133 Z-4.118
N18045 G1 X350.754 Z-3.772
N18050 G1 X350.334 Z-3.451
N18055 G1 X349.88 Z-3.157
N18060 G1 X349.395 Z-2.893
N18065 G1 X348.885 Z-2.661
N18070 G1 X348.347 Z-2.461
N18075 G1 X347.794 Z-2.295
N18080 G1 X347.228 Z-2.166
N18085 G1 X346.663 Z-2.075
N18090 G1 X346.092 Z-2.019
N18095 G1 X345.469 Z-2
N18100 G1 X344.185
N18105 G1 X344.117 Z-1.992
N18110 G1 X344.052 Z-1.969
N18115 G1 X343.988 Z-1.947
N18120 G1 X343.92 Z-1.939
N18125 G2 Y299.464 I0 J0.25
N18130 G1 X344.357
N18135 G1 X344.425 Z-1.947
N18140 G1 X344.489 Z-1.969
N18145 G1 X344.553 Z-1.992
N18150 G1 X344.621 Z-2
N18155 G1 X345.889
N18160 G1 X346.542 Z-2.019
N18165 G1 X347.12 Z-2.075
N18170 G1 X347.688 Z-2.166
N18175 G1 X348.273 Z-2.297
N18180 G1 X348.83 Z-2.462
N18185 G1 X349.364 Z-2.659
N18190 G1 X349.888 Z-2.894
N18195 G1 X350.377 Z-3.157
N18200 G1 X350.841 Z-3.453
N18205 G1 X351.259 Z-3.77
N18210 G1 X351.646 Z-4.117
N18215 G1 X351.991 Z-4.488
N18220 G1 X352.286 Z-4.875
N18225 G1 X352.53 Z-5.276
N18230 G1 X352.725 Z-5.693
N18235 G1 X352.864 Z-6.116
N18240 G1 X352.951 Z-6.557
N18245 G1 X352.98 Z-6.999
N18250 G1 X353.116 Y299.589
N18255 G1 X353.39 Y299.839 Z-7
N18260 G1 X353.527 Y299.964
N18265 G1 X353.494 Z-6.54
N18270 G1 X353.406 Z-6.109
N18275 G1 X353.265 Z-5.689
N18280 G1 X353.07 Z-5.276
N18285 G1 X352.822 Z-4.874
N18290 G1 X352.521 Z-4.486
N18295 G1 X352.174 Z-4.117
N18300 G1 X351.784 Z-3.772
N18305 G1 X351.358 Z-3.453
N18310 G1 X350.888 Z-3.158
N18315 G1 X350.388 Z-2.892
N18320 G1 X349.867 Z-2.661
N18325 G1 X349.319 Z-2.461
N18330 G1 X348.756 Z-2.297
N18335 G1 X348.164 Z-2.165
N18340 G1 X347.588 Z-2.074
N18345 G1 X347.004 Z-2.019
N18350 G1 X346.368 Z-2
N18355 G1 X345.06
N18360 G1 X344.993 Z-1.992
N18365 G1 X344.928 Z-1.969
N18370 G1 X344.864 Z-1.947
N18375 G1 X344.796 Z-1.939
N18380 G2 Y300.464 I0 J0.25
N18385 G1 X345.256
N18390 G1 X345.324 Z-1.947
N18395 G1 X345.388 Z-1.969
N18400 G1 X345.452 Z-1.992
N18405 G1 X345.52 Z-2
N18410 G1 X346.808
N18415 G1 X347.461 Z-2.018
N18420 G1 X348.083 Z-2.075
N18425 G1 X348.664 Z-2.167
N18430 G1 X349.25 Z-2.296
N18435 G1 X349.82 Z-2.461
N18440 G1 X350.373 Z-2.66
N18445 G1 X350.909 Z-2.894
N18450 G1 X351.415 Z-3.159
N18455 G1 X351.882 Z-3.45
N18460 G1 X352.324 Z-3.774
N18465 G1 X352.717 Z-4.118
N18470 G1 X353.07 Z-4.488
N18475 G1 X353.372 Z-4.873
N18480 G1 X353.625 Z-5.278
N18485 G1 X353.823 Z-5.691
N18490 G1 X353.969 Z-6.117
N18495 G1 X354.056 Z-6.544
N18500 G1 X354.089 Z-7
N18505 G1 X354.232 Y300.59
N18510 G1 X354.376 Y300.714
N18515 G1 X354.666 Y300.963 Z-6.999
N18520 G1 X354.633 Z-6.548
N18525 G1 X354.547 Z-6.124
N18530 G1 X354.398 Z-5.691
N18535 G1 X354.195 Z-5.276
N18540 G1 X353.937 Z-4.872
N18545 G1 X353.629 Z-4.486
N18550 G1 X353.273 Z-4.119
N18555 G1 X352.873 Z-3.774
N18560 G1 X352.427 Z-3.451
N18565 G1 X351.95 Z-3.158
N18570 G1 X351.438 Z-2.894
N18575 G1 X350.897 Z-2.66
N18580 G1 X350.337 Z-2.461
N18585 G1 X349.759 Z-2.297
N18590 G1 X349.155 Z-2.165
N18595 G1 X348.566 Z-2.074
N18600 G1 X347.968 Z-2.019
N18605 G1 X347.319 Z-2
N18610 G1 X345.98
N18615 G1 X345.912 Z-1.992
N18620 G1 X345.848 Z-1.969
N18625 G1 X345.783 Z-1.947
N18630 G1 X345.716 Z-1.939
N18635 G2 Y301.463 I0 J0.25
N18640 G1 X346.197
N18645 G1 X346.264 Z-1.947
N18650 G1 X346.329 Z-1.969
N18655 G1 X346.393 Z-1.992
N18660 G1 X346.461 Z-2
N18665 G1 X347.799
N18670 G1 X348.466 Z-2.019
N18675 G1 X349.075 Z-2.075
N18680 G1 X349.671 Z-2.166
N18685 G1 X350.282 Z-2.297
N18690 G1 X350.867 Z-2.461
N18695 G1 X351.434 Z-2.66
N18700 G1 X351.981 Z-2.894
N18705 G1 X352.5 Z-3.157
N18710 G1 X352.987 Z-3.452
N18715 G1 X353.437 Z-3.773
N18720 G1 X353.846 Z-4.12
N18725 G1 X354.205 Z-4.484
N18730 G1 X354.518 Z-4.872
N18735 G1 X354.781 Z-5.277
N18740 G1 X354.984 Z-5.687
N18745 G1 X355.133 Z-6.113
N18750 G1 X355.224 Z-6.541
N18755 G1 X355.259 Z-7
N18760 G1 X355.564 Y301.714
N18765 G1 X355.717 Y301.84
N18770 G1 X355.87 Y301.963
N18775 G1 X355.838 Z-6.556
N18780 G1 X355.745 Z-6.12
N18785 G1 X355.592 Z-5.693
N18790 G1 X355.382 Z-5.275
N18795 G1 X355.119 Z-4.874
N18800 G1 X354.798 Z-4.486
N18805 G1 X354.433 Z-4.12
N18810 G1 X354.016 Z-3.772
N18815 G1 X353.563 Z-3.453
N18820 G1 X353.062 Z-3.156
N18825 G1 X352.539 Z-2.893
N18830 G1 X351.985 Z-2.66
N18835 G1 X351.41 Z-2.462
N18840 G1 X350.805 Z-2.295
N18845 G1 X350.199 Z-2.166
N18850 G1 X349.596 Z-2.075
N18855 G1 X348.951 Z-2.018
N18860 G1 X348.285 Z-2
N18865 G1 X346.945
N18870 G1 X346.877 Z-1.992
N18875 G1 X346.813 Z-1.969
N18880 G1 X346.748 Z-1.947
N18885 G1 X346.681 Z-1.939
N18890 G2 Y302.463 I0 J0.25
N18895 G1 X347.181
N18900 G1 X347.249 Z-1.947
N18905 G1 X347.313 Z-1.969
N18910 G1 X347.378 Z-1.992
N18915 G1 X347.445 Z-2
N18920 G1 X348.779
N18925 G1 X349.501 Z-2.019
N18930 G1 X350.124 Z-2.075
N18935 G1 X350.736 Z-2.166
N18940 G1 X351.364 Z-2.297
N18945 G1 X351.962 Z-2.461
N18950 G1 X352.545 Z-2.659
N18955 G1 X353.114 Z-2.893
N18960 G1 X353.65 Z-3.159
N18965 G1 X354.15 Z-3.452
N18970 G1 X354.614 Z-3.773
N18975 G1 X355.035 Z-4.119
N18980 G1 X355.408 Z-4.485
N18985 G1 X355.734 Z-4.874
N18990 G1 X356.002 Z-5.277
N18995 G1 X356.217 Z-5.694
N19000 G1 X356.373 Z-6.125
N19005 G1 X356.466 Z-6.556
N19010 G1 X356.498 Z-7
N19015 G1 X356.659 Y302.59
N19020 G1 X356.82 Y302.714
N19025 G1 X357.144 Y302.963
N19030 G1 X357.112 Z-6.56
N19035 G1 X357.015 Z-6.121
N19040 G1 X356.859 Z-5.695
N19045 G1 X356.64 Z-5.276
N19050 G1 X356.366 Z-4.875
N19055 G1 X356.039 Z-4.489
N19060 G1 X355.654 Z-4.118
N19065 G1 X355.229 Z-3.774
N19070 G1 X354.759 Z-3.454
N19075 G1 X354.249 Z-3.159
N19080 G1 X353.705 Z-2.894
N19085 G1 X353.127 Z-2.66
N19090 G1 X352.538 Z-2.462
N19095 G1 X351.917 Z-2.295
N19100 G1 X351.294 Z-2.166
N19105 G1 X350.672 Z-2.075
N19110 G1 X350.011 Z-2.018
N19115 G1 X349.338 Z-2
N19120 G1 X347.955
N19125 G1 X347.887 Z-1.992
N19130 G1 X347.823 Z-1.969
N19135 G1 X347.758 Z-1.947
N19140 G1 X347.691 Z-1.939
N19145 G2 Y303.463 I0 J0.25
N19150 G1 X348.213
N19155 G1 X348.281 Z-1.947
N19160 G1 X348.345 Z-1.969
N19165 G1 X348.41 Z-1.992
N19170 G1 X348.477 Z-2
N19175 G1 X349.884
N19180 G1 X350.567 Z-2.018
N19185 G1 X351.237 Z-2.075
N19190 G1 X351.865 Z-2.167
N19195 G1 X352.497 Z-2.295
N19200 G1 X353.117 Z-2.459
N19205 G1 X353.726 Z-2.66
N19210 G1 X354.309 Z-2.894
N19215 G1 X354.861 Z-3.158
N19220 G1 X355.378 Z-3.452
N19225 G1 X355.859 Z-3.773
N19230 G1 X356.293 Z-4.118
N19235 G1 X356.682 Z-4.487
N19240 G1 X357.016 Z-4.872
N19245 G1 X357.299 Z-5.279
N19250 G1 X357.518 Z-5.694
N19255 G1 X357.676 Z-6.114
N19260 G1 X357.774 Z-6.545
N19265 G1 X357.811 Z-7
N19270 G1 X358.153 Y303.715
N19275 G1 X358.325 Y303.839
N19280 G1 X358.497 Y303.963
N19285 G1 X358.46 Z-6.545
N19290 G1 X358.361 Z-6.116
N19295 G1 X358.2 Z-5.696
N19300 G1 X357.973 Z-5.278
N19305 G1 X357.689 Z-4.875
N19310 G1 X357.348 Z-4.489
N19315 G1 X356.952 Z-4.12
N19320 G1 X356.507 Z-3.773
N19325 G1 X356.022 Z-3.453
N19330 G1 X355.491 Z-3.158
N19335 G1 X354.932 Z-2.894
N19340 G1 X354.341 Z-2.661
N19345 G1 X353.725 Z-2.461
N19350 G1 X353.084 Z-2.294
N19355 G1 X352.444 Z-2.166
N19360 G1 X351.807 Z-2.075
N19365 G1 X351.126 Z-2.018
N19370 G1 X350.433 Z-2
N19375 G1 X349.013
N19380 G1 X348.945 Z-1.992
N19385 G1 X348.881 Z-1.969
N19390 G1 X348.816 Z-1.947
N19395 G1 X348.749 Z-1.939
N19400 G2 Y304.463 I0 J0.25
