%
(RoundedOutlineBottom)
(RoundedOutlineBottom)
(T1 D=6 CR=0 - ZMIN=-23.998 - flat end mill)
N10 G90 G94
N15 G17
N20 G21
N25 G28 G91 Z0
N30 G90

(RoundedOutlineBottom)
N35 T1 M6
N40 S14000 M3
N45 G54
N50 G0 X346.73 Y66.194
N55 G0 G43 Z15 H1
N60 G0 Z-4.11
N65 G1 Z-8.412 F1000
N70 G18 G3 X346.01 Z-9 I-0.6 K0
N75 G1 X345.636 Z-8.923 F840
N80 G1 X344.588 Z-8.912
N85 G1 X344.1 Z-9
N90 G3 X343.393 Z-8.41 I-0.107 K0.59 F1000
N95 G0 Z5
N100 G0 X329.179 Y66.994
N105 G0 Z-4.237
N110 G1 Z-8.769 F1000
N115 G2 X330.333 Z-9 I0.6 K0
N120 G1 X330.513 Z-8.567 F840
N125 G1 X330.676 Z-8.435
N130 G1 X331.074 Z-8.137
N135 G1 X331.736 Z-7.843
N140 G1 X332.04 Z-7.713
N145 G1 X332.918 Z-7.459
N150 G1 X333.482 Z-7.305
N155 G1 X333.615 Z-7.274
N160 G1 X334.766 Z-7.053
N165 G1 X335.613 Z-6.905
N170 G1 X335.849 Z-6.869
N175 G1 X336.96 Z-6.73
N180 G1 X338.059 Z-6.609
N185 G1 X339.174 Z-6.503
N190 G1 X340.196 Z-6.436
N195 G1 X341.241 Z-6.38
N200 G1 X342.327 Z-6.336
N205 G1 X343.383 Z-6.307
N210 G1 X344.331 Z-6.293
N215 G1 X345.616 Z-6.29
N220 G1 X346.619 Z-6.305
N225 G1 X347.563 Z-6.33
N230 G1 X348.574 Z-6.371
N235 G1 X349.596 Z-6.426
N240 G1 X350.667 Z-6.499
N245 G1 X351.613 Z-6.596
N250 G1 X352.625 Z-6.717
N255 G1 X353.794 Z-6.88
N260 G1 X354.616 Z-7.042
N265 G1 X355.709 Z-7.283
N270 G1 X356.581 Z-7.562
N275 G1 X356.983 Z-7.702
N280 G1 X357.566 Z-7.995
N285 G1 X357.816 Z-8.128
N290 G1 X358.286 Z-8.562
N295 G1 X358.445 Z-9
N300 G1 X358.768 Y67.035
N305 G1 X359.413 Y67.121
N310 G1 X359.736 Y67.166
N315 G1 X360.38 Y67.259
N320 G1 X360.702 Y67.307
N325 G1 X361.345 Y67.407
N330 G1 X361.667 Y67.459
N335 G1 X362.309 Y67.565
N340 G1 X362.63 Y67.621
N345 G1 X362.951 Y67.677
N350 G1 X363.271 Y67.734
N355 G1 X363.591 Y67.794
N360 G1 X363.484 Z-8.56
N365 G1 X363.177 Z-8.136
N370 G1 X362.624 Z-7.702
N375 G1 X362.26 Z-7.505
N380 G1 X361.829 Z-7.283
N385 G1 X361.303 Z-7.078
N390 G1 X360.756 Z-6.878
N395 G1 X360.266 Z-6.738
N400 G1 X359.392 Z-6.501
N405 G1 X358.371 Z-6.291
N410 G1 X357.505 Z-6.127
N415 G1 X356.41 Z-5.97
N420 G1 X355.409 Z-5.839
N425 G1 X354.852 Z-5.775
N430 G1 X353.555 Z-5.657
N435 G1 X352.413 Z-5.569
N440 G1 X351.397 Z-5.502
N445 G1 X350.62 Z-5.458
N450 G1 X349.342 Z-5.409
N455 G1 X348.261 Z-5.377
N460 G1 X347.3 Z-5.356
N465 G1 X346.064 Z-5.341
N470 G1 X344.186 Z-5.34
N475 G1 X342.612 Z-5.358
N480 G1 X341.191 Z-5.392
N485 G1 X339.869 Z-5.435
N490 G1 X339.006 Z-5.47
N495 G1 X337.852 Z-5.535
N500 G1 X336.797 Z-5.603
N505 G1 X335.668 Z-5.684
N510 G1 X334.54 Z-5.776
N515 G1 X333.59 Z-5.873
N520 G1 X332.436 Z-6.006
N525 G1 X331.525 Z-6.117
N530 G1 X331.159 Z-6.171
N535 G1 X330.361 Z-6.298
N540 G1 X329.386 Z-6.461
N545 G1 X329.097 Z-6.515
N550 G1 X328.258 Z-6.698
N555 G1 X327.397 Z-6.896
N560 G1 X326.09 Z-7.293
N565 G1 X325.101 Z-7.712
N570 G1 X324.768 Z-7.918
N575 G1 X324.423 Z-8.138
N580 G1 X324.022 Z-8.566
N585 G1 X323.887 Z-8.999
N590 G1 X323.574 Y67.84
N595 G1 X322.637 Y67.979
N600 G1 X322.324 Y68.028
N605 G1 X321.7 Y68.125
N610 G1 X321.388 Y68.174
N615 G1 X320.453 Y68.327 Z-9
N620 G1 X320.141 Y68.379
N625 G1 X319.207 Y68.539
N630 G1 X318.896 Y68.594
N635 G1 X319.003 Z-8.569
N640 G1 X319.049 Z-8.505
N645 G1 X319.331 Z-8.136
N650 G1 X319.885 Z-7.714
N655 G1 X320.213 Z-7.537
N660 G1 X320.686 Z-7.291
N665 G1 X321.706 Z-6.897
N670 G1 X322.33 Z-6.71
N675 G1 X323.013 Z-6.512
N680 G1 X323.633 Z-6.367
N685 G1 X324.682 Z-6.133
N690 G1 X325.487 Z-5.99
N695 G1 X326.582 Z-5.804
N700 G1 X326.926 Z-5.754
N705 G1 X328.058 Z-5.603
N710 G1 X329.165 Z-5.464
N715 G1 X330.5 Z-5.332
N720 G1 X332.115 Z-5.185
N725 G1 X333.176 Z-5.109
N730 G1 X334.964 Z-4.998
N735 G1 X336.614 Z-4.91
N740 G1 X337.895 Z-4.86
N745 G1 X339.665 Z-4.805
N750 G1 X341.316 Z-4.767
N755 G1 X343.065 Z-4.742
N760 G1 X344.662 Z-4.731
N765 G1 X346.798 Z-4.739
N770 G1 X348.419 Z-4.762
N775 G1 X349.924 Z-4.796
N780 G1 X351.32 Z-4.84
N785 G1 X352.909 Z-4.904
N790 G1 X354.012 Z-4.968
N795 G1 X355.191 Z-5.047
N800 G1 X356.572 Z-5.153
N805 G1 X357.118 Z-5.206
N810 G1 X358.125 Z-5.315
N815 G1 X359.32 Z-5.457
N820 G1 X360.114 Z-5.579
N825 G1 X361.298 Z-5.775
N830 G1 X362.029 Z-5.928
N835 G1 X362.932 Z-6.13
N840 G1 X363.566 Z-6.31
N845 G1 X364.18 Z-6.49
N850 G1 X364.616 Z-6.65
N855 G1 X365.213 Z-6.88
N860 G1 X365.497 Z-7.017
N865 G1 X366.022 Z-7.284
N870 G1 X366.254 Z-7.439
N875 G1 X366.633 Z-7.7
N880 G1 X367.066 Z-8.131
N885 G1 X367.314 Z-8.559
N890 G1 X367.399 Z-9
N895 G1 X367.79 Y68.687
N900 G1 X367.985 Y68.734
N905 G1 X368.18 Y68.782 Z-8.999
N910 G1 X368.764 Y68.927
N915 G1 X368.959 Y68.978
N920 G1 X369.542 Y69.129 Z-8.998
N925 G1 X369.735 Y69.182
N930 G1 X370.317 Y69.34
N935 G1 X370.51 Y69.394
N940 G1 X370.439 Z-8.56
N945 G1 X370.226 Z-8.129
N950 G1 X369.859 Z-7.699
N955 G1 X369.373 Z-7.3
N960 G1 X368.683 Z-6.88
N965 G1 X367.839 Z-6.49
N970 G1 X366.849 Z-6.132
N975 G1 X366.016 Z-5.894
N980 G1 X365.581 Z-5.776
N985 G1 X364.411 Z-5.517
N990 G1 X364.087 Z-5.451
N995 G1 X362.914 Z-5.252
N1000 G1 X362.324 Z-5.16
N1005 G1 X360.908 Z-4.982
N1010 G1 X360.165 Z-4.897
N1015 G1 X358.799 Z-4.776
N1020 G1 X357.475 Z-4.67
N1025 G1 X355.83 Z-4.576
N1030 G1 X354.122 Z-4.495
N1035 G1 X353.309 Z-4.462
N1040 G1 X351.399 Z-4.41
N1045 G1 X349.526 Z-4.373
N1050 G1 X347.488 Z-4.348
N1055 G1 X344.805 Z-4.337
N1060 G1 X342.131 Z-4.352
N1065 G1 X339.949 Z-4.381
N1070 G1 X337.76 Z-4.425
N1075 G1 X335.919 Z-4.474
N1080 G1 X333.794 Z-4.558
N1085 G1 X331.576 Z-4.663
N1090 G1 X330.37 Z-4.74
N1095 G1 X328.465 Z-4.874
N1100 G1 X327.878 Z-4.921
N1105 G1 X325.965 Z-5.106
N1110 G1 X325.208 Z-5.185
N1115 G1 X323.577 Z-5.397
N1120 G1 X322.98 Z-5.48
N1125 G1 X321.382 Z-5.75
N1130 G1 X321.091 Z-5.804
N1135 G1 X320.124 Z-6.011
N1140 G1 X319.529 Z-6.143
N1145 G1 X318.189 Z-6.512
N1150 G1 X317.095 Z-6.897
N1155 G1 X316.22 Z-7.296
N1160 G1 X315.674 Z-7.628
N1165 G1 X315.542 Z-7.712
N1170 G1 X315.065 Z-8.137
N1175 G1 X314.778 Z-8.564
N1180 G1 X314.681 Z-9
N1185 G1 X314.449 Y69.442
N1190 G1 X313.523 Y69.634
N1195 G1 X313.292 Y69.684
N1200 G1 X312.599 Y69.833
N1205 G1 X312.368 Y69.883
N1210 G1 X311.444 Y70.089
N1215 G1 X311.214 Y70.141
N1220 G1 X310.983 Y70.194 Z-8.999
N1225 G1 X311.067 Z-8.569
N1230 G1 X311.321 Z-8.135
N1235 G1 X311.748 Z-7.714
N1240 G1 X312.356 Z-7.293
N1245 G1 X313.129 Z-6.897
N1250 G1 X313.369 Z-6.798
N1255 G1 X314.093 Z-6.512
N1260 G1 X314.445 Z-6.397
N1265 G1 X315.247 Z-6.146
N1270 G1 X315.607 Z-6.051
N1275 G1 X316.595 Z-5.804
N1280 G1 X316.858 Z-5.747
N1285 G1 X318.31 Z-5.457
N1290 G1 X319.933 Z-5.199
N1295 G1 X320.262 Z-5.152
N1300 G1 X322.114 Z-4.923
N1305 G1 X322.563 Z-4.875
N1310 G1 X324.601 Z-4.685
N1315 G1 X325.263 Z-4.634
N1320 G1 X327.552 Z-4.48
N1325 G1 X328.716 Z-4.42
N1330 G1 X331.229 Z-4.308
N1335 G1 X333.174 Z-4.248
N1340 G1 X335.959 Z-4.179
N1345 G1 X337.018 Z-4.161
N1350 G1 X339.974 Z-4.128
N1355 G1 X343.461 Z-4.107
N1360 G1 X347.753 Z-4.111
N1365 G1 X350.679 Z-4.135
N1370 G1 X353.168 Z-4.17
N1375 G1 X355.238 Z-4.224
N1380 G1 X357.394 Z-4.297
N1385 G1 X358.601 Z-4.358
N1390 G1 X360.359 Z-4.461
N1395 G1 X361.146 Z-4.522
N1400 G1 X362.722 Z-4.661
N1405 G1 X363.248 Z-4.719
N1410 G1 X364.629 Z-4.888
N1415 G1 X364.973 Z-4.938
N1420 G1 X366.256 Z-5.147
N1425 G1 X366.511 Z-5.194
N1430 G1 X367.735 Z-5.452
N1435 G1 X368.089 Z-5.543
N1440 G1 X368.891 Z-5.76
N1445 G1 X369.055 Z-5.808
N1450 G1 X370.001 Z-6.128
N1455 G1 X370.866 Z-6.495
N1460 G1 X371.606 Z-6.896
N1465 G1 X372.159 Z-7.283
N1470 G1 X372.609 Z-7.7
N1475 G1 X372.923 Z-8.126
N1480 G1 X373.112 Z-8.558
N1485 G1 X373.177 Z-8.999
N1490 G1 X373.473 Y70.289
N1495 G1 X374.063 Y70.484
N1500 G1 X374.357 Y70.584
N1505 G1 X374.651 Y70.685 Z-8.998
N1510 G1 X374.944 Y70.786
N1515 G1 X375.53 Y70.994
N1520 G1 X375.47 Z-8.557
N1525 G1 X375.3 Z-8.127
N1530 G1 X375.014 Z-7.699
N1535 G1 X374.624 Z-7.29
N1540 G1 X374.093 Z-6.877
N1545 G1 X373.456 Z-6.493
N1550 G1 X372.863 Z-6.205
N1555 G1 X372.681 Z-6.121
N1560 G1 X371.991 Z-5.853
N1565 G1 X371.771 Z-5.772
N1570 G1 X370.782 Z-5.464
N1575 G1 X369.609 Z-5.173
N1580 G1 X368.628 Z-4.979
N1585 G1 X368.187 Z-4.896
N1590 G1 X366.848 Z-4.694
N1595 G1 X366.567 Z-4.656
N1600 G1 X364.994 Z-4.479
N1605 G1 X364.029 Z-4.397
N1610 G1 X362.728 Z-4.297
N1615 G1 X360.681 Z-4.189
N1620 G1 X360.08 Z-4.163
N1625 G1 X357.638 Z-4.09
N1630 G1 X356.906 Z-4.073
N1635 G1 X353.747 Z-4.032
N1640 G1 X352.137 Z-4.018
N1645 G1 X342.48 Z-4.01
N1650 G1 X336.846 Z-4.023
N1655 G1 X332.512 Z-4.068
N1660 G1 X331.438 Z-4.085
N1665 G1 X328.1 Z-4.166
N1670 G1 X326.487 Z-4.228
N1675 G1 X324.665 Z-4.307
N1680 G1 X322.23 Z-4.456
N1685 G1 X321.764 Z-4.491
N1690 G1 X319.676 Z-4.67
N1695 G1 X317.759 Z-4.887
N1700 G1 X317.335 Z-4.943
N1705 G1 X315.769 Z-5.173
N1710 G1 X314.417 Z-5.42
N1715 G1 X314.097 Z-5.483
N1720 G1 X312.732 Z-5.795
N1725 G1 X311.51 Z-6.143
N1730 G1 X310.472 Z-6.51
N1735 G1 X309.612 Z-6.89
N1740 G1 X308.903 Z-7.29
N1745 G1 X308.346 Z-7.714
N1750 G1 X307.954 Z-8.139
N1755 G1 X307.724 Z-8.57
N1760 G1 X307.648 Z-8.999
N1765 G1 X306.881 Y71.188
N1770 G1 X306.69 Y71.237
N1775 G1 X305.734 Y71.487
N1780 G1 X305.543 Y71.538 Z-9
N1785 G1 X304.589 Y71.794
N1790 G1 X304.661 Z-8.567
N1795 G1 X304.878 Z-8.138
N1800 G1 X305.238 Z-7.715
N1805 G1 X305.74 Z-7.299
N1810 G1 X306.425 Z-6.88
N1815 G1 X307.196 Z-6.51
N1820 G1 X308.146 Z-6.142
N1825 G1 X309.249 Z-5.798
N1830 G1 X310.497 Z-5.48
N1835 G1 X310.789 Z-5.418
N1840 G1 X312.026 Z-5.166
N1845 G1 X313.612 Z-4.906
N1850 G1 X315.424 Z-4.67
N1855 G1 X317.418 Z-4.471
N1860 G1 X319.664 Z-4.304
N1865 G1 X322.167 Z-4.173
N1870 G1 X324.992 Z-4.08
N1875 G1 X328.312 Z-4.022
N1880 G1 X331.799 Z-4.003
N1885 G1 X355.668 Z-4
N1890 G1 X359.772 Z-4.019
N1895 G1 X362.469 Z-4.075
N1900 G1 X364.701 Z-4.17
N1905 G1 X366.348 Z-4.281
N1910 G1 X366.757 Z-4.313
N1915 G1 X368.346 Z-4.472
N1920 G1 X369.813 Z-4.67
N1925 G1 X371.115 Z-4.9
N1930 G1 X372.268 Z-5.159
N1935 G1 X372.647 Z-5.262
N1940 G1 X373.393 Z-5.476
N1945 G1 X374.275 Z-5.784
N1950 G1 X374.95 Z-6.075
N1955 G1 X375.113 Z-6.149
N1960 G1 X375.766 Z-6.5
N1965 G1 X376.332 Z-6.878
N1970 G1 X376.811 Z-7.288
N1975 G1 X377.17 Z-7.698
N1980 G1 X377.427 Z-8.12
N1985 G1 X377.584 Z-8.55
N1990 G1 X377.641 Z-9
N1995 G1 X377.883 Y71.891
N2000 G1 X378.365 Y72.087
N2005 G1 X378.605 Y72.186
N2010 G1 X379.085 Y72.388
N2015 G1 X379.324 Y72.49
N2020 G1 X379.563 Y72.594
N2025 G1 X379.511 Z-8.551
N2030 G1 X379.366 Z-8.12
N2035 G1 X379.127 Z-7.696
N2040 G1 X378.787 Z-7.281
N2045 G1 X378.356 Z-6.879
N2050 G1 X377.819 Z-6.491
N2055 G1 X377.213 Z-6.137
N2060 G1 X376.474 Z-5.786
N2065 G1 X375.64 Z-5.464
N2070 G1 X374.694 Z-5.169
N2075 G1 X373.649 Z-4.905
N2080 G1 X372.45 Z-4.666
N2085 G1 X371.164 Z-4.467
N2090 G1 X369.735 Z-4.301
N2095 G1 X368.123 Z-4.169
N2100 G1 X366.306 Z-4.074
N2105 G1 X364.289 Z-4.019
N2110 G1 X361.638 Z-4
N2115 G1 X325.119 Z-4.003
N2120 G1 X322.571 Z-4.021
N2125 G1 X319.893 Z-4.08
N2130 G1 X317.522 Z-4.176
N2135 G1 X315.379 Z-4.308
N2140 G1 X313.462 Z-4.472
N2145 G1 X311.668 Z-4.675
N2150 G1 X310.073 Z-4.906
N2155 G1 X308.597 Z-5.173
N2160 G1 X307.249 Z-5.477
N2165 G1 X306.084 Z-5.799
N2170 G1 X305.071 Z-6.142
N2175 G1 X304.207 Z-6.5
N2180 G1 X303.448 Z-6.891
N2185 G1 X302.836 Z-7.297
N2190 G1 X302.358 Z-7.715
N2195 G1 X302.027 Z-8.134
N2200 G1 X301.824 Z-8.57
N2205 G1 X301.757 Z-9
N2210 G1 X301.258 Y72.74
N2215 G1 X301.092 Y72.789
N2220 G1 X300.096 Y73.088
N2225 G1 X299.93 Y73.139
N2230 G1 X299.102 Y73.394
N2235 G1 X299.166 Z-8.566
N2240 G1 X299.357 Z-8.138
N2245 G1 X299.674 Z-7.715
N2250 G1 X300.121 Z-7.295
N2255 G1 X300.693 Z-6.896
N2260 G1 X301.384 Z-6.513
N2265 G1 X302.242 Z-6.133
N2270 G1 X303.201 Z-5.788
N2275 G1 X304.288 Z-5.467
N2280 G1 X305.51 Z-5.171
N2285 G1 X306.848 Z-4.908
N2290 G1 X308.307 Z-4.677
N2295 G1 X309.93 Z-4.474
N2300 G1 X311.693 Z-4.307
N2305 G1 X313.596 Z-4.175
N2310 G1 X315.67 Z-4.079
N2315 G1 X317.861 Z-4.023
N2320 G1 X319.94 Z-4.004
N2325 G1 X365.699 Z-4
N2330 G1 X367.737 Z-4.018
N2335 G1 X369.449 Z-4.075
N2340 G1 X370.967 Z-4.169
N2345 G1 X372.331 Z-4.297
N2350 G1 X373.639 Z-4.467
N2355 G1 X374.768 Z-4.661
N2360 G1 X375.867 Z-4.903
N2365 G1 X376.825 Z-5.169
N2370 G1 X377.689 Z-5.463
N2375 G1 X378.457 Z-5.785
N2380 G1 X379.115 Z-6.122
N2385 G1 X379.704 Z-6.489
N2390 G1 X380.205 Z-6.881
N2395 G1 X380.609 Z-7.283
N2400 G1 X380.922 Z-7.697
N2405 G1 X381.148 Z-8.122
N2410 G1 X381.283 Z-8.546
N2415 G1 X381.331 Z-8.982
N2420 G1 X381.948 Y73.688 Z-8.988
N2425 G1 X382.153 Y73.788 Z-8.991
N2430 G1 X382.562 Y73.989 Z-8.995
N2435 G1 X382.766 Y74.091 Z-8.998
N2440 G1 X382.969 Y74.194 Z-9
N2445 G1 X382.924 Z-8.554
N2450 G1 X382.794 Z-8.118
N2455 G1 X382.586 Z-7.697
N2460 G1 X382.285 Z-7.279
N2465 G1 X381.905 Z-6.877
N2470 G1 X381.44 Z-6.491
N2475 G1 X380.893 Z-6.123
N2480 G1 X380.253 Z-5.775
N2485 G1 X379.532 Z-5.453
N2490 G1 X378.739 Z-5.162
N2495 G1 X377.845 Z-4.896
N2500 G1 X376.865 Z-4.661
N2505 G1 X375.818 Z-4.464
N2510 G1 X374.666 Z-4.298
N2515 G1 X373.436 Z-4.169
N2520 G1 X372.062 Z-4.074
N2525 G1 X370.601 Z-4.018
N2530 G1 X368.938 Z-4
N2535 G1 X315.769 Z-4.003
N2540 G1 X313.93 Z-4.022
N2545 G1 X311.951 Z-4.08
N2550 G1 X310.063 Z-4.177
N2555 G1 X308.349 Z-4.308
N2560 G1 X306.739 Z-4.476
N2565 G1 X305.236 Z-4.679
N2570 G1 X303.87 Z-4.913
N2575 G1 X302.615 Z-5.179
N2580 G1 X301.482 Z-5.472
N2585 G1 X300.448 Z-5.798
N2590 G1 X299.551 Z-6.144
N2595 G1 X298.785 Z-6.503
N2600 G1 X298.107 Z-6.897
N2605 G1 X297.568 Z-7.298
N2610 G1 X297.144 Z-7.715
N2615 G1 X296.841 Z-8.139
N2620 G1 X296.661 Z-8.569
N2625 G1 X296.602 Z-8.994
N2630 G1 X295.712 Y74.489 Z-8.995
N2635 G1 X295.416 Y74.589
N2640 G1 X294.824 Y74.791 Z-8.996
N2645 G1 X294.528 Y74.891
N2650 G1 X294.232 Y74.994 Z-8.997
N2655 G1 X294.289 Z-8.57
N2660 G1 X294.463 Z-8.132
N2665 G1 X294.748 Z-7.715
N2670 G1 X295.155 Z-7.297
N2675 G1 X295.676 Z-6.89
N2680 G1 X296.3 Z-6.51
N2685 G1 X297.037 Z-6.144
N2690 G1 X297.916 Z-5.789
N2695 G1 X298.883 Z-5.469
N2700 G1 X299.947 Z-5.177
N2705 G1 X301.121 Z-4.913
N2710 G1 X302.412 Z-4.678
N2715 G1 X303.799 Z-4.477
N2720 G1 X305.294 Z-4.309
N2725 G1 X306.887 Z-4.177
N2730 G1 X308.595 Z-4.081
N2735 G1 X310.417 Z-4.022
N2740 G1 X312.154 Z-4.003
N2745 G1 X371.604 Z-4
N2750 G1 X373.094 Z-4.018
N2755 G1 X374.43 Z-4.076
N2760 G1 X375.603 Z-4.167
N2765 G1 X376.738 Z-4.296
N2770 G1 X377.816 Z-4.465
N2775 G1 X378.782 Z-4.663
N2780 G1 X379.687 Z-4.897
N2785 G1 X380.516 Z-5.162
N2790 G1 X381.272 Z-5.459
N2795 G1 X381.945 Z-5.782
N2800 G1 X382.529 Z-6.121
N2805 G1 X383.049 Z-6.489
N2810 G1 X383.489 Z-6.877
N2815 G1 X383.853 Z-7.282
N2820 G1 X384.132 Z-7.698
N2825 G1 X384.334 Z-8.125
N2830 G1 X384.456 Z-8.56
N2835 G1 X384.497 Z-8.999
N2840 G1 X384.678 Y75.091
N2845 G1 X384.857 Y75.19 Z-9
N2850 G1 X385.216 Y75.389
N2855 G1 X385.395 Y75.489
N2860 G1 X385.93 Y75.794
N2865 G1 X385.889 Z-8.555
N2870 G1 X385.769 Z-8.114
N2875 G1 X385.581 Z-7.698
N2880 G1 X385.312 Z-7.279
N2885 G1 X384.972 Z-6.88
N2890 G1 X384.548 Z-6.488
N2895 G1 X384.068 Z-6.128
N2900 G1 X383.493 Z-5.774
N2905 G1 X382.855 Z-5.454
N2910 G1 X382.15 Z-5.161
N2915 G1 X381.376 Z-4.897
N2920 G1 X380.539 Z-4.666
N2925 G1 X379.605 Z-4.461
N2930 G1 X378.616 Z-4.295
N2935 G1 X377.589 Z-4.167
N2940 G1 X376.454 Z-4.073
N2945 G1 X375.3 Z-4.018
N2950 G1 X373.978 Z-4
N2955 G1 X308.792 Z-4.003
N2960 G1 X307.213 Z-4.022
N2965 G1 X305.556 Z-4.08
N2970 G1 X303.971 Z-4.176
N2975 G1 X302.477 Z-4.308
N2980 G1 X301.069 Z-4.476
N2985 G1 X299.746 Z-4.681
N2990 G1 X298.527 Z-4.916
N2995 G1 X297.413 Z-5.181
N3000 G1 X296.393 Z-5.477
N3005 G1 X295.482 Z-5.796
N3010 G1 X294.671 Z-6.139
N3015 G1 X293.955 Z-6.51
N3020 G1 X293.358 Z-6.891
N3025 G1 X292.855 Z-7.301
N3030 G1 X292.469 Z-7.715
N3035 G1 X292.195 Z-8.137
N3040 G1 X292.03 Z-8.566
N3045 G1 X291.975 Z-8.997
N3050 G1 X291.434 Y75.991
N3055 G1 X291.164 Y76.09
N3060 G1 X290.355 Y76.391 Z-8.996
N3065 G1 X290.085 Y76.491 Z-8.995
N3070 G1 X289.816 Y76.594
N3075 G1 X289.868 Z-8.571
N3080 G1 X290.026 Z-8.139
N3085 G1 X290.294 Z-7.712
N3090 G1 X290.665 Z-7.299
N3095 G1 X291.147 Z-6.891
N3100 G1 X291.716 Z-6.512
N3105 G1 X292.409 Z-6.138
N3110 G1 X293.177 Z-5.799
N3115 G1 X294.051 Z-5.478
N3120 G1 X295.034 Z-5.18
N3125 G1 X296.112 Z-4.912
N3130 G1 X297.261 Z-4.679
N3135 G1 X298.5 Z-4.478
N3140 G1 X299.829 Z-4.309
N3145 G1 X301.253 Z-4.175
N3150 G1 X302.749 Z-4.079
N3155 G1 X304.322 Z-4.02
N3160 G1 X305.985 Z-4
N3165 G1 X376.04
N3170 G1 X377.27 Z-4.018
N3175 G1 X378.384 Z-4.075
N3180 G1 X379.382 Z-4.166
N3185 G1 X380.362 Z-4.296
N3190 G1 X381.287 Z-4.463
N3195 G1 X382.139 Z-4.662
N3200 G1 X382.945 Z-4.897
N3205 G1 X383.682 Z-5.163
N3210 G1 X384.347 Z-5.455
N3215 G1 X384.949 Z-5.774
N3220 G1 X385.494 Z-6.123
N3225 G1 X385.959 Z-6.49
N3230 G1 X386.361 Z-6.878
N3235 G1 X386.687 Z-7.28
N3240 G1 X386.942 Z-7.695
N3245 G1 X387.127 Z-8.123
N3250 G1 X387.24 Z-8.559
N3255 G1 X387.278 Z-8.999
N3260 G1 X387.438 Y76.693 Z-8.998
N3265 G1 X387.917 Y76.99 Z-8.995
N3270 G1 X388.075 Y77.09 Z-8.994
N3275 G1 X388.55 Y77.394 Z-8.992
N3280 G1 X388.512 Z-8.55
N3285 G1 X388.406 Z-8.124
N3290 G1 X388.228 Z-7.695
N3295 G1 X387.982 Z-7.279
N3300 G1 X387.669 Z-6.877
N3305 G1 X387.285 Z-6.489
N3310 G1 X386.836 Z-6.12
N3315 G1 X386.318 Z-5.774
N3320 G1 X385.75 Z-5.457
N3325 G1 X385.1 Z-5.158
N3330 G1 X384.396 Z-4.893
N3335 G1 X383.647 Z-4.662
N3340 G1 X382.823 Z-4.46
N3345 G1 X381.965 Z-4.296
N3350 G1 X381.044 Z-4.166
N3355 G1 X380.111 Z-4.075
N3360 G1 X379.065 Z-4.018
N3365 G1 X377.926 Z-4
N3370 G1 X351.451
N3375 G1 X351.384 Z-3.992
N3380 G1 X351.319 Z-3.969
N3385 G1 X351.255 Z-3.947
N3390 G1 X351.187 Z-3.939
N3395 G17 G2 Y78.194 I0 J0.4
N3400 G1 X358.794
N3405 G1 X358.862 Z-3.947
N3410 G1 X358.926 Z-3.969
N3415 G1 X358.991 Z-3.992
N3420 G1 X359.058 Z-4
N3425 G1 X379.715
N3430 G1 X380.761 Z-4.019
N3435 G1 X381.692 Z-4.075
N3440 G1 X382.576 Z-4.165
N3445 G1 X383.449 Z-4.295
N3450 G1 X384.285 Z-4.463
N3455 G1 X385.056 Z-4.663
N3460 G1 X385.774 Z-4.895
N3465 G1 X386.446 Z-5.16
N3470 G1 X387.064 Z-5.457
N3475 G1 X387.608 Z-5.773
N3480 G1 X388.104 Z-6.118
N3485 G1 X388.536 Z-6.488
N3490 G1 X388.91 Z-6.879
N3495 G1 X389.207 Z-7.276
N3500 G1 X389.447 Z-7.697
N3505 G1 X389.615 Z-8.117
N3510 G1 X389.72 Z-8.553
N3515 G1 X389.757 Z-9
N3520 G1 X389.901 Y78.292
N3525 G1 X390.045 Y78.391
N3530 G1 X390.189 Y78.491
N3535 G1 X390.618 Y78.791
N3540 G1 X390.76 Y78.892
N3545 G1 X390.902 Y78.994
N3550 G1 X390.865 Z-8.545
N3555 G1 X390.764 Z-8.112
N3560 G1 X390.602 Z-7.692
N3565 G1 X390.374 Z-7.278
N3570 G1 X390.08 Z-6.875
N3575 G1 X389.725 Z-6.487
N3580 G1 X389.313 Z-6.123
N3585 G1 X388.832 Z-5.774
N3590 G1 X388.303 Z-5.455
N3595 G1 X387.711 Z-5.16
N3600 G1 X387.071 Z-4.896
N3605 G1 X386.381 Z-4.663
N3610 G1 X385.639 Z-4.462
N3615 G1 X384.859 Z-4.297
N3620 G1 X384.027 Z-4.167
N3625 G1 X383.189 Z-4.075
N3630 G1 X382.259 Z-4.018
N3635 G1 X381.27 Z-4
N3640 G1 X363.464
N3645 G1 X363.396 Z-3.992
N3650 G1 X363.332 Z-3.969
N3655 G1 X363.267 Z-3.947
N3660 G1 X363.199 Z-3.939
N3665 G2 Y79.794 I0 J0.4
N3670 G1 X366.538
N3675 G1 X366.606 Z-3.947
N3680 G1 X366.67 Z-3.969
N3685 G1 X366.735 Z-3.992
N3690 G1 X366.802 Z-4
N3695 G1 X382.749
N3700 G1 X383.69 Z-4.018
N3705 G1 X384.547 Z-4.073
N3710 G1 X385.37 Z-4.166
N3715 G1 X386.165 Z-4.296
N3720 G1 X386.914 Z-4.461
N3725 G1 X387.628 Z-4.663
N3730 G1 X388.285 Z-4.893
N3735 G1 X388.906 Z-5.158
N3740 G1 X389.474 Z-5.453
N3745 G1 X389.992 Z-5.774
N3750 G1 X390.45 Z-6.12
N3755 G1 X390.852 Z-6.486
N3760 G1 X391.198 Z-6.876
N3765 G1 X391.482 Z-7.279
N3770 G1 X391.704 Z-7.693
N3775 G1 X391.862 Z-8.118
N3780 G1 X391.962 Z-8.562
N3785 G1 X391.994 Z-8.999
N3790 G1 X392.256 Y79.991 Z-8.997
N3795 G1 X392.517 Y80.191 Z-8.995
N3800 G1 X392.776 Y80.392 Z-8.992
N3805 G1 X393.035 Y80.594 Z-8.99
N3810 G1 X393.003 Z-8.553
N3815 G1 X392.909 Z-8.121
N3820 G1 X392.753 Z-7.692
N3825 G1 X392.537 Z-7.279
N3830 G1 X392.26 Z-6.873
N3835 G1 X391.931 Z-6.489
N3840 G1 X391.535 Z-6.118
N3845 G1 X391.093 Z-5.774
N3850 G1 X390.595 Z-5.454
N3855 G1 X390.048 Z-5.161
N3860 G1 X389.447 Z-4.894
N3865 G1 X388.8 Z-4.66
N3870 G1 X388.12 Z-4.461
N3875 G1 X387.397 Z-4.295
N3880 G1 X386.648 Z-4.167
N3885 G1 X385.839 Z-4.073
N3890 G1 X385.036 Z-4.018
N3895 G1 X384.129 Z-4
N3900 G1 X369.55
N3905 G1 X369.483 Z-3.992
N3910 G1 X369.418 Z-3.969
N3915 G1 X369.354 Z-3.947
N3920 G1 X369.286 Z-3.939
N3925 G2 Y81.394 I0 J0.4
N3930 G1 X371.649
N3935 G1 X371.717 Z-3.947
N3940 G1 X371.781 Z-3.969
N3945 G1 X371.846 Z-3.992
N3950 G1 X371.914 Z-4
N3955 G1 X385.437
N3960 G1 X386.294 Z-4.018
N3965 G1 X387.105 Z-4.075
N3970 G1 X387.844 Z-4.167
N3975 G1 X388.564 Z-4.295
N3980 G1 X389.265 Z-4.461
N3985 G1 X389.924 Z-4.661
N3990 G1 X390.545 Z-4.893
N3995 G1 X391.129 Z-5.161
N4000 G1 X391.657 Z-5.453
N4005 G1 X392.146 Z-5.777
N4010 G1 X392.574 Z-6.119
N4015 G1 X392.954 Z-6.488
N4020 G1 X393.277 Z-6.872
N4025 G1 X393.545 Z-7.276
N4030 G1 X393.756 Z-7.693
N4035 G1 X393.908 Z-8.122
N4040 G1 X393.999 Z-8.547
N4045 G1 X394.031 Z-8.982
N4050 G1 X394.27 Y81.592 Z-8.986
N4055 G1 X394.51 Y81.791 Z-8.991
N4060 G1 X394.747 Y81.992 Z-8.995
N4065 G1 X394.984 Y82.194 Z-9
N4070 G1 X394.951 Z-8.546
N4075 G1 X394.86 Z-8.109
N4080 G1 X394.713 Z-7.688
N4085 G1 X394.51 Z-7.275
N4090 G1 X394.249 Z-6.871
N4095 G1 X393.936 Z-6.489
N4100 G1 X393.565 Z-6.12
N4105 G1 X393.144 Z-5.774
N4110 G1 X392.675 Z-5.453
N4115 G1 X392.157 Z-5.159
N4120 G1 X391.593 Z-4.893
N4125 G1 X390.988 Z-4.66
N4130 G1 X390.348 Z-4.46
N4135 G1 X389.685 Z-4.297
N4140 G1 X388.972 Z-4.166
N4145 G1 X388.232 Z-4.073
N4150 G1 X387.518 Z-4.019
N4155 G1 X386.682 Z-4
N4160 G1 X373.992
N4165 G1 X373.924 Z-3.992
N4170 G1 X373.86 Z-3.969
N4175 G1 X373.795 Z-3.947
N4180 G1 X373.728 Z-3.939
N4185 G2 Y82.994 I0 J0.4
N4190 G1 X375.594
N4195 G1 X375.661 Z-3.947
N4200 G1 X375.726 Z-3.969
N4205 G1 X375.79 Z-3.992
N4210 G1 X375.858 Z-4
N4215 G1 X387.808
N4220 G1 X388.614 Z-4.018
N4225 G1 X389.335 Z-4.073
N4230 G1 X390.056 Z-4.167
N4235 G1 X390.732 Z-4.295
N4240 G1 X391.392 Z-4.462
N4245 G1 X392.006 Z-4.66
N4250 G1 X392.601 Z-4.897
N4255 G1 X393.139 Z-5.158
N4260 G1 X393.647 Z-5.454
N4265 G1 X394.102 Z-5.774
N4270 G1 X394.514 Z-6.119
N4275 G1 X394.871 Z-6.485
N4280 G1 X395.18 Z-6.872
N4285 G1 X395.436 Z-7.274
N4290 G1 X395.632 Z-7.684
N4295 G1 X395.777 Z-8.11
N4300 G1 X395.865 Z-8.54
N4305 G1 X395.898 Z-9
N4310 G1 X396.119 Y83.192 Z-8.998
N4315 G1 X396.339 Y83.392 Z-8.996
N4320 G1 X396.558 Y83.592 Z-8.994
N4325 G1 X396.776 Y83.794 Z-8.992
N4330 G1 X396.747 Z-8.555
N4335 G1 X396.663 Z-8.124
N4340 G1 X396.52 Z-7.693
N4345 G1 X396.322 Z-7.274
N4350 G1 X396.073 Z-6.872
N4355 G1 X395.772 Z-6.485
N4360 G1 X395.422 Z-6.119
N4365 G1 X395.021 Z-5.774
N4370 G1 X394.573 Z-5.452
N4375 G1 X394.081 Z-5.158
N4380 G1 X393.554 Z-4.896
N4385 G1 X392.982 Z-4.661
N4390 G1 X392.373 Z-4.46
N4395 G1 X391.745 Z-4.297
N4400 G1 X391.074 Z-4.166
N4405 G1 X390.389 Z-4.073
N4410 G1 X389.712 Z-4.019
N4415 G1 X388.932 Z-4
N4420 G1 X377.551
N4425 G1 X377.483 Z-3.992
N4430 G1 X377.419 Z-3.969
N4435 G1 X377.354 Z-3.947
N4440 G1 X377.287 Z-3.939
N4445 G2 Y84.594 I0 J0.4
N4450 G1 X378.839
N4455 G1 X378.907 Z-3.947
N4460 G1 X378.971 Z-3.969
N4465 G1 X379.036 Z-3.992
N4470 G1 X379.103 Z-4
N4475 G1 X389.984
N4480 G1 X390.729 Z-4.019
N4485 G1 X391.387 Z-4.073
N4490 G1 X392.054 Z-4.166
N4495 G1 X392.708 Z-4.297
N4500 G1 X393.321 Z-4.461
N4505 G1 X393.915 Z-4.663
N4510 G1 X394.468 Z-4.895
N4515 G1 X394.986 Z-5.159
N4520 G1 X395.463 Z-5.452
N4525 G1 X395.901 Z-5.772
N4530 G1 X396.291 Z-6.117
N4535 G1 X396.638 Z-6.486
N4540 G1 X396.934 Z-6.874
N4545 G1 X397.177 Z-7.278
N4550 G1 X397.363 Z-7.682
N4555 G1 X397.503 Z-8.11
N4560 G1 X397.589 Z-8.547
N4565 G1 X397.62 Z-9
N4570 G1 X397.824 Y84.792
N4575 G1 X398.027 Y84.992 Z-8.999
N4580 G1 X398.23 Y85.192
N4585 G1 X398.431 Y85.394
N4590 G1 X398.402 Z-8.55
N4595 G1 X398.321 Z-8.123
N4600 G1 X398.186 Z-7.694
N4605 G1 X397.996 Z-7.273
N4610 G1 X397.759 Z-6.875
N4615 G1 X397.47 Z-6.488
N4620 G1 X397.131 Z-6.118
N4625 G1 X396.748 Z-5.774
N4630 G1 X396.317 Z-5.45
N4635 G1 X395.851 Z-5.159
N4640 G1 X395.343 Z-4.894
N4645 G1 X394.799 Z-4.661
N4650 G1 X394.223 Z-4.461
N4655 G1 X393.614 Z-4.295
N4660 G1 X392.99 Z-4.166
N4665 G1 X392.357 Z-4.075
N4670 G1 X391.669 Z-4.018
N4675 G1 X390.978 Z-4
N4680 G1 X380.538
N4685 G1 X380.47 Z-3.992
N4690 G1 X380.406 Z-3.969
N4695 G1 X380.342 Z-3.947
N4700 G1 X380.274 Z-3.939
N4705 G2 Y86.194 I0 J0.4
N4710 G1 X381.605
N4715 G1 X381.672 Z-3.947
N4720 G1 X381.737 Z-3.969
N4725 G1 X381.801 Z-3.992
N4730 G1 X381.869 Z-4
N4735 G1 X391.904
N4740 G1 X392.599 Z-4.018
N4745 G1 X393.272 Z-4.075
N4750 G1 X393.891 Z-4.167
N4755 G1 X394.502 Z-4.296
N4760 G1 X395.088 Z-4.461
N4765 G1 X395.649 Z-4.66
N4770 G1 X396.185 Z-4.894
N4775 G1 X396.679 Z-5.157
N4780 G1 X397.144 Z-5.453
N4785 G1 X397.559 Z-5.772
N4790 G1 X397.937 Z-6.119
N4795 G1 X398.27 Z-6.488
N4800 G1 X398.55 Z-6.871
N4805 G1 X398.785 Z-7.273
N4810 G1 X398.972 Z-7.693
N4815 G1 X399.104 Z-8.115
N4820 G1 X399.187 Z-8.561
N4825 G1 X399.214 Z-8.995
N4830 G1 X399.592 Y86.592 Z-8.997
N4835 G1 X399.78 Y86.792 Z-8.998
N4840 G1 X399.967 Y86.994 Z-8.999
N4845 G1 X399.941 Z-8.561
N4850 G1 X399.86 Z-8.121
N4855 G1 X399.728 Z-7.69
N4860 G1 X399.549 Z-7.277
N4865 G1 X399.315 Z-6.869
N4870 G1 X399.039 Z-6.487
N4875 G1 X398.713 Z-6.119
N4880 G1 X398.342 Z-5.771
N4885 G1 X397.932 Z-5.453
N4890 G1 X397.48 Z-5.158
N4895 G1 X396.993 Z-4.894
N4900 G1 X396.476 Z-4.662
N4905 G1 X395.924 Z-4.462
N4910 G1 X395.35 Z-4.297
N4915 G1 X394.738 Z-4.166
N4920 G1 X394.132 Z-4.074
N4925 G1 X393.508 Z-4.019
N4930 G1 X392.809 Z-4
N4935 G1 X383.114
N4940 G1 X383.046 Z-3.992
N4945 G1 X382.982 Z-3.969
N4950 G1 X382.918 Z-3.947
N4955 G1 X382.85 Z-3.939
N4960 G2 Y87.794 I0 J0.4
N4965 G1 X384.017
N4970 G1 X384.084 Z-3.947
N4975 G1 X384.149 Z-3.969
N4980 G1 X384.213 Z-3.992
N4985 G1 X384.281 Z-4
N4990 G1 X393.676
N4995 G1 X394.358 Z-4.019
N5000 G1 X394.97 Z-4.075
N5005 G1 X395.559 Z-4.165
N5010 G1 X396.149 Z-4.295
N5015 G1 X396.716 Z-4.46
N5020 G1 X397.257 Z-4.66
N5025 G1 X397.768 Z-4.893
N5030 G1 X398.249 Z-5.158
N5035 G1 X398.69 Z-5.45
N5040 G1 X399.097 Z-5.773
N5045 G1 X399.46 Z-6.117
N5050 G1 X399.779 Z-6.485
N5055 G1 X400.053 Z-6.871
N5060 G1 X400.283 Z-7.277
N5065 G1 X400.456 Z-7.681
N5070 G1 X400.586 Z-8.107
N5075 G1 X400.664 Z-8.535
N5080 G1 X400.695 Z-9
N5085 G1 X401.048 Y88.192 Z-8.998
N5090 G1 X401.222 Y88.392
N5095 G1 X401.396 Y88.594 Z-8.997
N5100 G1 X401.37 Z-8.557
N5105 G1 X401.293 Z-8.12
N5110 G1 X401.164 Z-7.688
N5115 G1 X400.988 Z-7.273
N5120 G1 X400.767 Z-6.872
N5125 G1 X400.498 Z-6.487
N5130 G1 X400.18 Z-6.117
N5135 G1 X399.826 Z-5.774
N5140 G1 X399.428 Z-5.453
N5145 G1 X398.991 Z-5.158
N5150 G1 X398.524 Z-4.895
N5155 G1 X398.014 Z-4.659
N5160 G1 X397.489 Z-4.462
N5165 G1 X396.935 Z-4.297
N5170 G1 X396.359 Z-4.167
N5175 G1 X395.778 Z-4.075
N5180 G1 X395.147 Z-4.018
N5185 G1 X394.519 Z-4
N5190 G1 X385.378
N5195 G1 X385.31 Z-3.992
N5200 G1 X385.246 Z-3.969
N5205 G1 X385.181 Z-3.947
N5210 G1 X385.114 Z-3.939
N5215 G2 Y89.394 I0 J0.4
N5220 G1 X386.15
N5225 G1 X386.217 Z-3.947
N5230 G1 X386.282 Z-3.969
N5235 G1 X386.346 Z-3.992
N5240 G1 X386.414 Z-4
N5245 G1 X395.301
N5250 G1 X395.956 Z-4.019
N5255 G1 X396.541 Z-4.075
N5260 G1 X397.111 Z-4.166
N5265 G1 X397.678 Z-4.295
N5270 G1 X398.226 Z-4.461
N5275 G1 X398.748 Z-4.66
N5280 G1 X399.24 Z-4.893
N5285 G1 X399.709 Z-5.16
N5290 G1 X400.134 Z-5.452
N5295 G1 X400.524 Z-5.771
N5300 G1 X400.877 Z-6.117
N5305 G1 X401.188 Z-6.486
N5310 G1 X401.452 Z-6.87
N5315 G1 X401.673 Z-7.274
N5320 G1 X401.843 Z-7.68
N5325 G1 X401.969 Z-8.105
N5330 G1 X402.048 Z-8.549
N5335 G1 X402.075 Z-9
N5340 G1 X402.405 Y89.792 Z-8.999
N5345 G1 X402.568 Y89.992 Z-8.998
N5350 G1 X402.731 Y90.193 Z-8.997
N5355 G1 X402.704 Z-8.553
N5360 G1 X402.63 Z-8.122
N5365 G1 X402.505 Z-7.689
N5370 G1 X402.333 Z-7.272
N5375 G1 X402.117 Z-6.869
N5380 G1 X401.857 Z-6.487
N5385 G1 X401.551 Z-6.119
N5390 G1 X401.202 Z-5.771
N5395 G1 X400.82 Z-5.454
N5400 G1 X400.393 Z-5.157
N5405 G1 X399.937 Z-4.892
N5410 G1 X399.453 Z-4.661
N5415 G1 X398.936 Z-4.46
N5420 G1 X398.408 Z-4.297
N5425 G1 X397.843 Z-4.166
N5430 G1 X397.29 Z-4.075
N5435 G1 X396.682 Z-4.018
N5440 G1 X396.048 Z-4
N5445 G1 X387.395
N5450 G1 X387.328 Z-3.992
N5455 G1 X387.263 Z-3.969
N5460 G1 X387.199 Z-3.947
N5465 G1 X387.131 Z-3.939
N5470 G2 Y90.993 I0 J0.4
N5475 G1 X388.063
N5480 G1 X388.13 Z-3.947
N5485 G1 X388.195 Z-3.969
N5490 G1 X388.259 Z-3.992
N5495 G1 X388.327 Z-4
N5500 G1 X396.799
N5505 G1 X397.43 Z-4.019
N5510 G1 X397.999 Z-4.075
N5515 G1 X398.55 Z-4.167
N5520 G1 X399.099 Z-4.296
N5525 G1 X399.629 Z-4.462
N5530 G1 X400.133 Z-4.661
N5535 G1 X400.608 Z-4.893
N5540 G1 X401.059 Z-5.156
N5545 G1 X401.473 Z-5.449
N5550 G1 X401.857 Z-5.772
N5555 G1 X402.201 Z-6.118
N5560 G1 X402.494 Z-6.474
N5565 G1 X402.633 Z-6.675
N5570 G1 X402.766 Z-6.881
N5575 G1 X402.996 Z-7.278
N5580 G1 X403.176 Z-7.681
N5585 G1 X403.312 Z-8.11
N5590 G1 X403.396 Z-8.551
N5595 G1 X403.425 Z-9
N5600 G1 X403.815 Y91.392
N5605 G1 X404.008 Y91.593
N5610 G1 X404.202 Y91.793
N5615 G1 X404.172 Z-8.549
N5620 G1 X404.091 Z-8.117
N5625 G1 X403.959 Z-7.693
N5630 G1 X403.776 Z-7.278
N5635 G1 X403.542 Z-6.874
N5640 G1 X403.258 Z-6.485
N5645 G1 X402.93 Z-6.12
N5650 G1 X402.554 Z-5.772
N5655 G1 X402.141 Z-5.453
N5660 G1 X401.651 Z-5.124
N5665 G1 X401.259 Z-4.893
N5670 G1 X400.786 Z-4.66
N5675 G1 X400.289 Z-4.461
N5680 G1 X399.763 Z-4.295
N5685 G1 X399.222 Z-4.165
N5690 G1 X398.678 Z-4.074
N5695 G1 X398.122 Z-4.019
N5700 G1 X397.5 Z-4
N5705 G1 X389.212
N5710 G1 X389.145 Z-3.992
N5715 G1 X389.08 Z-3.969
N5720 G1 X389.016 Z-3.947
N5725 G1 X388.948 Z-3.939
N5730 G2 Y92.593 I0 J0.4
N5735 G1 X389.791
N5740 G1 X389.859 Z-3.947
N5745 G1 X389.923 Z-3.969
N5750 G1 X389.987 Z-3.992
N5755 G1 X390.055 Z-4
N5760 G1 X398.187
N5765 G1 X398.799 Z-4.019
N5770 G1 X399.35 Z-4.075
N5775 G1 X399.884 Z-4.167
N5780 G1 X400.418 Z-4.297
N5785 G1 X400.952 Z-4.469
N5790 G1 X401.465 Z-4.659
N5795 G1 X401.986 Z-4.894
N5800 G1 X402.472 Z-5.159
N5805 G1 X402.917 Z-5.45
N5810 G1 X403.329 Z-5.771
N5815 G1 X403.7 Z-6.117
N5820 G1 X404.026 Z-6.484
N5825 G1 X404.309 Z-6.875
N5830 G1 X404.539 Z-7.276
N5835 G1 X404.717 Z-7.683
N5840 G1 X404.849 Z-8.106
N5845 G1 X404.931 Z-8.537
N5850 G1 X404.962 Z-9
N5855 G1 X405.149 Y92.792
N5860 G1 X405.706 Y93.393
N5865 G1 X405.677 Z-8.545
N5870 G1 X405.596 Z-8.108
N5875 G1 X405.464 Z-7.682
N5880 G1 X405.288 Z-7.277
N5885 G1 X405.058 Z-6.874
N5890 G1 X404.78 Z-6.485
N5895 G1 X404.457 Z-6.117
N5900 G1 X404.091 Z-5.772
N5905 G1 X403.682 Z-5.45
N5910 G1 X403.24 Z-5.158
N5915 G1 X402.758 Z-4.893
N5920 G1 X402.248 Z-4.661
N5925 G1 X401.708 Z-4.461
N5930 G1 X401.147 Z-4.296
N5935 G1 X400.559 Z-4.166
N5940 G1 X400.07 Z-4.087
N5945 G1 X399.871 Z-4.062
N5950 G1 X399.426 Z-4.018
N5955 G1 X398.823 Z-4
N5960 G1 X390.86
N5965 G1 X390.792 Z-3.992
N5970 G1 X390.728 Z-3.969
N5975 G1 X390.663 Z-3.947
N5980 G1 X390.596 Z-3.939
N5985 G2 Y94.193 I0 J0.4
N5990 G1 X391.364
N5995 G1 X391.432 Z-3.947
N6000 G1 X391.496 Z-3.969
N6005 G1 X391.56 Z-3.992
N6010 G1 X391.628 Z-4
N6015 G1 X399.52
N6020 G1 X400.168 Z-4.019
N6025 G1 X400.761 Z-4.075
N6030 G1 X401.34 Z-4.166
N6035 G1 X401.915 Z-4.295
N6040 G1 X402.474 Z-4.46
N6045 G1 X403.009 Z-4.66
N6050 G1 X403.516 Z-4.893
N6055 G1 X403.993 Z-5.159
N6060 G1 X404.432 Z-5.452
N6065 G1 X404.838 Z-5.774
N6070 G1 X405.2 Z-6.12
N6075 G1 X405.519 Z-6.488
N6080 G1 X405.793 Z-6.874
N6085 G1 X406.019 Z-7.273
N6090 G1 X406.194 Z-7.677
N6095 G1 X406.326 Z-8.108
N6100 G1 X406.404 Z-8.535
N6105 G1 X406.435 Z-9
N6110 G1 X406.792 Y94.592
N6115 G1 X406.971 Y94.792
N6120 G1 X407.148 Y94.993
N6125 G1 X407.121 Z-8.558
N6130 G1 X407.044 Z-8.122
N6135 G1 X406.915 Z-7.693
N6140 G1 X406.736 Z-7.272
N6145 G1 X406.514 Z-6.874
N6150 G1 X406.241 Z-6.487
N6155 G1 X405.923 Z-6.118
N6160 G1 X405.563 Z-5.772
N6165 G1 X405.165 Z-5.451
N6170 G1 X404.727 Z-5.158
N6175 G1 X404.261 Z-4.895
N6180 G1 X403.76 Z-4.662
N6185 G1 X403.229 Z-4.461
N6190 G1 X402.677 Z-4.295
N6195 G1 X402.105 Z-4.166
N6200 G1 X401.533 Z-4.075
N6205 G1 X400.943 Z-4.019
N6210 G1 X400.298 Z-4
N6215 G1 X392.364
N6220 G1 X392.296 Z-3.992
N6225 G1 X392.232 Z-3.969
N6230 G1 X392.168 Z-3.947
N6235 G1 X392.1 Z-3.939
N6240 G2 Y95.793 I0 J0.4
N6245 G1 X392.803
N6250 G1 X392.871 Z-3.947
N6255 G1 X392.935 Z-3.969
N6260 G1 X393 Z-3.992
N6265 G1 X393.067 Z-4
N6270 G1 X401.053
N6275 G1 X401.702 Z-4.019
N6280 G1 X402.285 Z-4.075
N6285 G1 X402.851 Z-4.166
N6290 G1 X403.416 Z-4.295
N6295 G1 X403.963 Z-4.461
N6300 G1 X404.49 Z-4.662
N6305 G1 X404.98 Z-4.892
N6310 G1 X405.451 Z-5.159
N6315 G1 X405.88 Z-5.45
N6320 G1 X406.276 Z-5.772
N6325 G1 X406.635 Z-6.12
N6330 G1 X406.948 Z-6.486
N6335 G1 X407.217 Z-6.873
N6340 G1 X407.439 Z-7.274
N6345 G1 X407.614 Z-7.689
N6350 G1 X407.743 Z-8.121
N6355 G1 X407.82 Z-8.558
N6360 G1 X407.846 Z-8.999
N6365 G1 X408.019 Y95.992
N6370 G1 X408.19 Y96.192
N6375 G1 X408.531 Y96.593
N6380 G1 X408.504 Z-8.555
N6385 G1 X408.427 Z-8.116
N6390 G1 X408.301 Z-7.692
N6395 G1 X408.126 Z-7.274
N6400 G1 X407.905 Z-6.871
N6405 G1 X407.637 Z-6.483
N6410 G1 X407.329 Z-6.119
N6415 G1 X406.976 Z-5.773
N6420 G1 X406.582 Z-5.451
N6425 G1 X406.157 Z-5.158
N6430 G1 X405.695 Z-4.894
N6435 G1 X405.2 Z-4.66
N6440 G1 X404.687 Z-4.462
N6445 G1 X404.146 Z-4.296
N6450 G1 X403.588 Z-4.167
N6455 G1 X403.025 Z-4.075
N6460 G1 X402.42 Z-4.018
N6465 G1 X401.855 Z-4
N6470 G1 X393.743
N6475 G1 X393.675 Z-3.992
N6480 G1 X393.611 Z-3.969
N6485 G1 X393.547 Z-3.947
N6490 G1 X393.479 Z-3.939
N6495 G2 Y97.393 I0 J0.4
N6500 G1 X394.128
N6505 G1 X394.196 Z-3.947
N6510 G1 X394.26 Z-3.969
N6515 G1 X394.325 Z-3.992
N6520 G1 X394.392 Z-4
N6525 G1 X402.531
N6530 G1 X403.165 Z-4.019
N6535 G1 X403.737 Z-4.074
N6540 G1 X404.294 Z-4.165
N6545 G1 X404.86 Z-4.297
N6550 G1 X405.386 Z-4.46
N6555 G1 X405.903 Z-4.661
N6560 G1 X406.386 Z-4.892
N6565 G1 X406.844 Z-5.157
N6570 G1 X407.267 Z-5.45
N6575 G1 X407.66 Z-5.773
N6580 G1 X408.007 Z-6.117
N6585 G1 X408.317 Z-6.487
N6590 G1 X408.581 Z-6.873
N6595 G1 X408.801 Z-7.277
N6600 G1 X408.97 Z-7.683
N6605 G1 X409.096 Z-8.11
N6610 G1 X409.173 Z-8.549
N6615 G1 X409.2 Z-9
N6620 G1 X409.528 Y97.793
N6625 G1 X409.692 Y97.992
N6630 G1 X409.855 Y98.193
N6635 G1 X409.829 Z-8.554
N6640 G1 X409.754 Z-8.122
N6645 G1 X409.629 Z-7.689
N6650 G1 X409.459 Z-7.274
N6655 G1 X409.24 Z-6.869
N6660 G1 X408.977 Z-6.483
N6665 G1 X408.671 Z-6.116
N6670 G1 X408.327 Z-5.772
N6675 G1 X407.941 Z-5.45
N6680 G1 X407.52 Z-5.157
N6685 G1 X407.072 Z-4.895
N6690 G1 X406.585 Z-4.66
N6695 G1 X406.078 Z-4.461
N6700 G1 X405.545 Z-4.295
N6705 G1 X404.995 Z-4.166
N6710 G1 X404.445 Z-4.075
N6715 G1 X403.878 Z-4.019
N6720 G1 X403.25 Z-4
N6725 G1 X395.064
N6730 G1 X394.996 Z-3.992
N6735 G1 X394.932 Z-3.969
N6740 G1 X394.867 Z-3.947
N6745 G1 X394.8 Z-3.939
N6750 G2 Y98.993 I0 J0.4
N6755 G1 X395.586
N6760 G1 X395.653 Z-3.947
N6765 G1 X395.718 Z-3.969
N6770 G1 X395.782 Z-3.992
N6775 G1 X395.85 Z-4
N6780 G1 X403.963
N6785 G1 X404.549 Z-4.018
N6790 G1 X405.137 Z-4.075
N6795 G1 X405.685 Z-4.167
N6800 G1 X406.229 Z-4.296
N6805 G1 X406.756 Z-4.462
N6810 G1 X407.258 Z-4.661
N6815 G1 X407.733 Z-4.893
N6820 G1 X408.186 Z-5.159
N6825 G1 X408.599 Z-5.451
N6830 G1 X408.982 Z-5.773
N6835 G1 X409.326 Z-6.119
N6840 G1 X409.626 Z-6.484
N6845 G1 X409.889 Z-6.873
N6850 G1 X410.102 Z-7.273
N6855 G1 X410.273 Z-7.693
N6860 G1 X410.395 Z-8.119
N6865 G1 X410.469 Z-8.553
N6870 G1 X410.496 Z-9
N6875 G1 X410.654 Y99.192
N6880 G1 X410.811 Y99.392 Z-8.999
N6885 G1 X411.123 Y99.793
N6890 G1 X411.097 Z-8.55
N6895 G1 X411.022 Z-8.114
N6900 G1 X410.9 Z-7.688
N6905 G1 X410.732 Z-7.273
N6910 G1 X410.52 Z-6.872
N6915 G1 X410.262 Z-6.485
N6920 G1 X409.962 Z-6.118
N6925 G1 X409.619 Z-5.77
N6930 G1 X409.242 Z-5.451
N6935 G1 X408.832 Z-5.159
N6940 G1 X408.382 Z-4.892
N6945 G1 X407.909 Z-4.66
N6950 G1 X407.412 Z-4.461
N6955 G1 X406.886 Z-4.295
N6960 G1 X406.348 Z-4.166
N6965 G1 X405.805 Z-4.074
N6970 G1 X405.252 Z-4.019
N6975 G1 X404.645 Z-4
N6980 G1 X396.618
N6985 G1 X396.55 Z-3.992
N6990 G1 X396.486 Z-3.969
N6995 G1 X396.421 Z-3.947
N7000 G1 X396.354 Z-3.939
N7005 G2 Y100.593 I0 J0.4
N7010 G1 X397.104
N7015 G1 X397.172 Z-3.947
N7020 G1 X397.236 Z-3.969
N7025 G1 X397.3 Z-3.992
N7030 G1 X397.368 Z-4
N7035 G1 X405.311
N7040 G1 X405.922 Z-4.019
N7045 G1 X406.459 Z-4.074
N7050 G1 X407.01 Z-4.167
N7055 G1 X407.545 Z-4.297
N7060 G1 X408.055 Z-4.46
N7065 G1 X408.548 Z-4.659
N7070 G1 X409.025 Z-4.895
N7075 G1 X409.465 Z-5.159
N7080 G1 X409.872 Z-5.452
N7085 G1 X410.248 Z-5.773
N7090 G1 X410.585 Z-6.117
N7095 G1 X410.884 Z-6.487
N7100 G1 X411.137 Z-6.871
N7105 G1 X411.35 Z-7.274
N7110 G1 X411.518 Z-7.692
N7115 G1 X411.637 Z-8.114
N7120 G1 X411.711 Z-8.55
N7125 G1 X411.737 Z-8.998
N7130 G1 X411.888 Y100.793
N7135 G1 X412.188 Y101.193 Z-8.999
N7140 G1 X412.338 Y101.393 Z-9
N7145 G1 X412.312 Z-8.547
N7150 G1 X412.234 Z-8.095
N7155 G1 X412.116 Z-7.682
N7160 G1 X411.953 Z-7.272
N7165 G1 X411.744 Z-6.872
N7170 G1 X411.487 Z-6.482
N7175 G1 X411.193 Z-6.116
N7180 G1 X410.86 Z-5.772
N7185 G1 X410.488 Z-5.452
N7190 G1 X410.082 Z-5.158
N7195 G1 X409.645 Z-4.894
N7200 G1 X409.179 Z-4.661
N7205 G1 X408.689 Z-4.461
N7210 G1 X408.172 Z-4.295
N7215 G1 X407.641 Z-4.165
N7220 G1 X407.11 Z-4.074
N7225 G1 X406.564 Z-4.019
N7230 G1 X405.967 Z-4
N7235 G1 X398.103
N7240 G1 X398.035 Z-3.992
N7245 G1 X397.971 Z-3.969
N7250 G1 X397.906 Z-3.947
N7255 G1 X397.839 Z-3.939
N7260 G2 Y102.193 I0 J0.4
N7265 G1 X398.554
N7270 G1 X398.622 Z-3.947
N7275 G1 X398.686 Z-3.969
N7280 G1 X398.75 Z-3.992
N7285 G1 X398.818 Z-4
N7290 G1 X406.601
N7295 G1 X407.202 Z-4.019
N7300 G1 X407.739 Z-4.074
N7305 G1 X408.268 Z-4.166
N7310 G1 X408.794 Z-4.295
N7315 G1 X409.307 Z-4.462
N7320 G1 X409.788 Z-4.659
N7325 G1 X410.251 Z-4.893
N7330 G1 X410.686 Z-5.157
N7335 G1 X411.091 Z-5.452
N7340 G1 X411.458 Z-5.771
N7345 G1 X411.792 Z-6.119
N7350 G1 X412.085 Z-6.487
N7355 G1 X412.334 Z-6.869
N7360 G1 X412.546 Z-7.277
N7365 G1 X412.705 Z-7.681
N7370 G1 X412.824 Z-8.107
N7375 G1 X412.899 Z-8.547
N7380 G1 X412.925 Z-9
N7385 G1 X413.213 Y102.592
N7390 G1 X413.357 Y102.792
N7395 G1 X413.499 Y102.993
N7400 G1 X413.473 Z-8.547
N7405 G1 X413.398 Z-8.104
N7410 G1 X413.279 Z-7.677
N7415 G1 X413.12 Z-7.272
N7420 G1 X412.912 Z-6.867
N7425 G1 X412.663 Z-6.483
N7430 G1 X412.374 Z-6.118
N7435 G1 X412.045 Z-5.773
N7440 G1 X411.676 Z-5.449
N7445 G1 X411.278 Z-5.158
N7450 G1 X410.845 Z-4.892
N7455 G1 X410.392 Z-4.662
N7460 G1 X409.909 Z-4.461
N7465 G1 X409.399 Z-4.295
N7470 G1 X408.878 Z-4.165
N7475 G1 X408.342 Z-4.073
N7480 G1 X407.805 Z-4.018
N7485 G1 X407.21 Z-4
N7490 G1 X399.517
N7495 G1 X399.449 Z-3.992
N7500 G1 X399.385 Z-3.969
N7505 G1 X399.321 Z-3.947
N7510 G1 X399.253 Z-3.939
N7515 G2 Y103.793 I0 J0.4
N7520 G1 X399.937
N7525 G1 X400.005 Z-3.947
N7530 G1 X400.069 Z-3.969
N7535 G1 X400.133 Z-3.992
N7540 G1 X400.201 Z-4
N7545 G1 X407.846
N7550 G1 X408.427 Z-4.019
N7555 G1 X408.958 Z-4.074
N7560 G1 X409.477 Z-4.166
N7565 G1 X409.994 Z-4.295
N7570 G1 X410.5 Z-4.462
N7575 G1 X410.972 Z-4.659
N7580 G1 X411.43 Z-4.894
N7585 G1 X411.855 Z-5.156
N7590 G1 X412.255 Z-5.453
N7595 G1 X412.614 Z-5.77
N7600 G1 X412.943 Z-6.116
N7605 G1 X413.231 Z-6.482
N7610 G1 X413.479 Z-6.869
N7615 G1 X413.686 Z-7.276
N7620 G1 X413.847 Z-7.691
N7625 G1 X413.963 Z-8.112
N7630 G1 X414.034 Z-8.545
N7635 G1 X414.06 Z-9
N7640 G1 X414.199 Y103.992 Z-8.999
N7645 G1 X414.336 Y104.192
N7650 G1 X414.61 Y104.593 Z-8.998
N7655 G1 X414.583 Z-8.542
N7660 G1 X414.515 Z-8.121
N7665 G1 X414.396 Z-7.686
N7670 G1 X414.236 Z-7.271
N7675 G1 X414.031 Z-6.868
N7680 G1 X413.787 Z-6.485
N7685 G1 X413.501 Z-6.116
N7690 G1 X413.174 Z-5.77
N7695 G1 X412.815 Z-5.451
N7700 G1 X412.422 Z-5.158
N7705 G1 X412 Z-4.894
N7710 G1 X411.545 Z-4.66
N7715 G1 X411.075 Z-4.462
N7720 G1 X410.573 Z-4.295
N7725 G1 X410.07 Z-4.167
N7730 G1 X409.557 Z-4.075
N7735 G1 X409.001 Z-4.018
N7740 G1 X408.485 Z-4
N7745 G1 X400.867
N7750 G1 X400.799 Z-3.992
N7755 G1 X400.735 Z-3.969
N7760 G1 X400.67 Z-3.947
N7765 G1 X400.603 Z-3.939
N7770 G2 Y105.393 I0 J0.4
N7775 G1 X401.254
N7780 G1 X401.322 Z-3.947
N7785 G1 X401.386 Z-3.969
N7790 G1 X401.45 Z-3.992
N7795 G1 X401.518 Z-4
N7800 G1 X409.024
N7805 G1 X409.576 Z-4.018
N7810 G1 X410.119 Z-4.074
N7815 G1 X410.631 Z-4.166
N7820 G1 X411.143 Z-4.295
N7825 G1 X411.632 Z-4.46
N7830 G1 X412.105 Z-4.66
N7835 G1 X412.552 Z-4.892
N7840 G1 X412.977 Z-5.159
N7845 G1 X413.363 Z-5.45
N7850 G1 X413.724 Z-5.773
N7855 G1 X414.046 Z-6.118
N7860 G1 X414.328 Z-6.483
N7865 G1 X414.572 Z-6.868
N7870 G1 X414.775 Z-7.272
N7875 G1 X414.936 Z-7.69
N7880 G1 X415.051 Z-8.117
N7885 G1 X415.123 Z-8.559
N7890 G1 X415.146 Z-8.997
N7895 G1 X415.279 Y105.592
N7900 G1 X415.671 Y106.193 Z-8.996
N7905 G1 X415.648 Z-8.558
N7910 G1 X415.577 Z-8.116
N7915 G1 X415.461 Z-7.688
N7920 G1 X415.304 Z-7.275
N7925 G1 X415.1 Z-6.868
N7930 G1 X414.857 Z-6.482
N7935 G1 X414.575 Z-6.115
N7940 G1 X414.26 Z-5.773
N7945 G1 X413.904 Z-5.452
N7950 G1 X413.515 Z-5.158
N7955 G1 X413.097 Z-4.894
N7960 G1 X412.656 Z-4.662
N7965 G1 X412.184 Z-4.461
N7970 G1 X411.701 Z-4.297
N7975 G1 X411.195 Z-4.167
N7980 G1 X410.686 Z-4.075
N7985 G1 X410.166 Z-4.019
N7990 G1 X409.599 Z-4
N7995 G1 X402.153
N8000 G1 X402.085 Z-3.992
N8005 G1 X402.021 Z-3.969
N8010 G1 X401.957 Z-3.947
N8015 G1 X401.889 Z-3.939
N8020 G2 Y106.993 I0 J0.4
N8025 G1 X402.507
N8030 G1 X402.575 Z-3.947
N8035 G1 X402.639 Z-3.969
N8040 G1 X402.704 Z-3.992
N8045 G1 X402.771 Z-4
N8050 G1 X410.15
N8055 G1 X410.721 Z-4.019
N8060 G1 X411.237 Z-4.075
N8065 G1 X411.741 Z-4.167
N8070 G1 X412.231 Z-4.294
N8075 G1 X412.724 Z-4.462
N8080 G1 X413.185 Z-4.66
N8085 G1 X413.626 Z-4.893
N8090 G1 X414.041 Z-5.157
N8095 G1 X414.43 Z-5.453
N8100 G1 X414.779 Z-5.771
N8105 G1 X415.098 Z-6.118
N8110 G1 X415.375 Z-6.482
N8115 G1 X415.618 Z-6.871
N8120 G1 X415.818 Z-7.273
N8125 G1 X415.972 Z-7.68
N8130 G1 X416.088 Z-8.107
N8135 G1 X416.159 Z-8.546
N8140 G1 X416.184 Z-9
N8145 G1 X416.56 Y107.592
N8150 G1 X416.684 Y107.793
N8155 G1 X416.659 Z-8.546
N8160 G1 X416.588 Z-8.105
N8165 G1 X416.475 Z-7.68
N8170 G1 X416.322 Z-7.273
N8175 G1 X416.121 Z-6.868
N8180 G1 X415.883 Z-6.484
N8185 G1 X415.606 Z-6.119
N8190 G1 X415.288 Z-5.77
N8195 G1 X414.94 Z-5.451
N8200 G1 X414.559 Z-5.159
N8205 G1 X414.145 Z-4.893
N8210 G1 X413.708 Z-4.661
N8215 G1 X413.241 Z-4.459
N8220 G1 X412.76 Z-4.295
N8225 G1 X412.272 Z-4.167
N8230 G1 X411.759 Z-4.074
N8235 G1 X411.259 Z-4.019
N8240 G1 X410.692 Z-4
N8245 G1 X403.377
N8250 G1 X403.309 Z-3.992
N8255 G1 X403.245 Z-3.969
N8260 G1 X403.181 Z-3.947
N8265 G1 X403.113 Z-3.939
N8270 G2 Y108.593 I0 J0.4
N8275 G1 X403.702
N8280 G1 X403.77 Z-3.947
N8285 G1 X403.834 Z-3.969
N8290 G1 X403.898 Z-3.992
N8295 G1 X403.966 Z-4
N8300 G1 X411.229
N8305 G1 X411.784 Z-4.019
N8310 G1 X412.293 Z-4.075
N8315 G1 X412.788 Z-4.166
N8320 G1 X413.284 Z-4.297
N8325 G1 X413.758 Z-4.461
N8330 G1 X414.213 Z-4.659
N8335 G1 X414.649 Z-4.893
N8340 G1 X415.059 Z-5.156
N8345 G1 X415.441 Z-5.452
N8350 G1 X415.788 Z-5.772
N8355 G1 X416.101 Z-6.118
N8360 G1 X416.377 Z-6.484
N8365 G1 X416.616 Z-6.87
N8370 G1 X416.812 Z-7.271
N8375 G1 X416.969 Z-7.691
N8380 G1 X417.081 Z-8.119
N8385 G1 X417.149 Z-8.555
N8390 G1 X417.173 Z-9
N8395 G1 X417.293 Y108.793
N8400 G1 X417.413 Y108.992
N8405 G1 X417.532 Y109.192
N8410 G1 X417.65 Y109.393
N8415 G1 X417.626 Z-8.551
N8420 G1 X417.556 Z-8.108
N8425 G1 X417.443 Z-7.679
N8430 G1 X417.291 Z-7.271
N8435 G1 X417.095 Z-6.868
N8440 G1 X416.86 Z-6.484
N8445 G1 X416.585 Z-6.117
N8450 G1 X416.273 Z-5.771
N8455 G1 X415.928 Z-5.451
N8460 G1 X415.55 Z-5.157
N8465 G1 X415.146 Z-4.894
N8470 G1 X414.711 Z-4.66
N8475 G1 X414.258 Z-4.461
N8480 G1 X413.782 Z-4.295
N8485 G1 X413.293 Z-4.166
N8490 G1 X412.801 Z-4.075
N8495 G1 X412.297 Z-4.019
N8500 G1 X411.745 Z-4
N8505 G1 X404.54
N8510 G1 X404.472 Z-3.992
N8515 G1 X404.408 Z-3.969
N8520 G1 X404.344 Z-3.947
N8525 G1 X404.276 Z-3.939
N8530 G2 Y110.193 I0 J0.4
N8535 G1 X404.836
N8540 G1 X404.904 Z-3.947
N8545 G1 X404.969 Z-3.969
N8550 G1 X405.033 Z-3.992
N8555 G1 X405.101 Z-4
N8560 G1 X412.252
N8565 G1 X412.799 Z-4.019
N8570 G1 X413.3 Z-4.075
N8575 G1 X413.79 Z-4.167
N8580 G1 X414.269 Z-4.294
N8585 G1 X414.748 Z-4.462
N8590 G1 X415.199 Z-4.662
N8595 G1 X415.625 Z-4.892
N8600 G1 X416.027 Z-5.155
N8605 G1 X416.403 Z-5.45
N8610 G1 X416.747 Z-5.771
N8615 G1 X417.06 Z-6.118
N8620 G1 X417.331 Z-6.483
N8625 G1 X417.565 Z-6.869
N8630 G1 X417.76 Z-7.273
N8635 G1 X417.909 Z-7.676
N8640 G1 X418.022 Z-8.106
N8645 G1 X418.091 Z-8.543
N8650 G1 X418.116 Z-9
N8655 G1 X418.231 Y110.392
N8660 G1 X418.345 Y110.592
N8665 G1 X418.571 Y110.993 Z-8.999
N8670 G1 X418.547 Z-8.553
N8675 G1 X418.479 Z-8.114
N8680 G1 X418.37 Z-7.691
N8685 G1 X418.217 Z-7.273
N8690 G1 X418.025 Z-6.872
N8695 G1 X417.791 Z-6.485
N8700 G1 X417.517 Z-6.114
N8705 G1 X417.209 Z-5.769
N8710 G1 X416.87 Z-5.451
N8715 G1 X416.494 Z-5.155
N8720 G1 X416.094 Z-4.892
N8725 G1 X415.671 Z-4.661
N8730 G1 X415.224 Z-4.462
N8735 G1 X414.758 Z-4.297
N8740 G1 X414.263 Z-4.165
N8745 G1 X413.783 Z-4.075
N8750 G1 X413.285 Z-4.019
N8755 G1 X412.734 Z-4
N8760 G1 X405.648
N8765 G1 X405.58 Z-3.992
N8770 G1 X405.516 Z-3.969
N8775 G1 X405.451 Z-3.947
N8780 G1 X405.383 Z-3.939
N8785 G2 Y111.793 I0 J0.4
N8790 G1 X405.915
N8795 G1 X405.983 Z-3.947
N8800 G1 X406.047 Z-3.969
N8805 G1 X406.111 Z-3.992
N8810 G1 X406.179 Z-4
N8815 G1 X413.2
N8820 G1 X413.747 Z-4.018
N8825 G1 X414.24 Z-4.073
N8830 G1 X414.735 Z-4.165
N8835 G1 X415.218 Z-4.295
N8840 G1 X415.684 Z-4.46
N8845 G1 X416.13 Z-4.66
N8850 G1 X416.557 Z-4.895
N8855 G1 X416.95 Z-5.155
N8860 G1 X417.325 Z-5.452
N8865 G1 X417.663 Z-5.771
N8870 G1 X417.969 Z-6.116
N8875 G1 X418.239 Z-6.484
N8880 G1 X418.472 Z-6.873
N8885 G1 X418.664 Z-7.275
N8890 G1 X418.814 Z-7.688
N8895 G1 X418.923 Z-8.112
N8900 G1 X418.992 Z-8.553
N8905 G1 X419.015 Z-8.998
N8910 G1 X419.125 Y111.992
N8915 G1 X419.233 Y112.192
N8920 G1 X419.448 Y112.593 Z-8.997
N8925 G1 X419.425 Z-8.552
N8930 G1 X419.357 Z-8.111
N8935 G1 X419.247 Z-7.685
N8940 G1 X419.098 Z-7.272
N8945 G1 X418.906 Z-6.869
N8950 G1 X418.677 Z-6.485
N8955 G1 X418.407 Z-6.116
N8960 G1 X418.104 Z-5.771
N8965 G1 X417.769 Z-5.452
N8970 G1 X417.396 Z-5.156
N8975 G1 X416.999 Z-4.891
N8980 G1 X416.579 Z-4.66
N8985 G1 X416.136 Z-4.46
N8990 G1 X415.673 Z-4.295
N8995 G1 X415.203 Z-4.167
N9000 G1 X414.7 Z-4.073
N9005 G1 X414.229 Z-4.019
N9010 G1 X413.693 Z-4
N9015 G1 X406.697
N9020 G1 X406.629 Z-3.992
N9025 G1 X406.565 Z-3.969
N9030 G1 X406.501 Z-3.947
N9035 G1 X406.433 Z-3.939
N9040 G2 Y113.393 I0 J0.4
N9045 G1 X406.938
N9050 G1 X407.006 Z-3.947
N9055 G1 X407.07 Z-3.969
N9060 G1 X407.134 Z-3.992
N9065 G1 X407.202 Z-4
N9070 G1 X414.135
N9075 G1 X414.677 Z-4.019
N9080 G1 X415.166 Z-4.074
N9085 G1 X415.644 Z-4.166
N9090 G1 X416.122 Z-4.296
N9095 G1 X416.572 Z-4.458
N9100 G1 X417.021 Z-4.661
N9105 G1 X417.437 Z-4.893
N9110 G1 X417.833 Z-5.158
N9115 G1 X418.2 Z-5.452
N9120 G1 X418.532 Z-5.769
N9125 G1 X418.836 Z-6.117
N9130 G1 X419.101 Z-6.483
N9135 G1 X419.33 Z-6.868
N9140 G1 X419.522 Z-7.274
N9145 G1 X419.673 Z-7.69
N9150 G1 X419.781 Z-8.118
N9155 G1 X419.847 Z-8.549
N9160 G1 X419.87 Z-8.997
N9165 G1 X419.974 Y113.592 Z-8.996
N9170 G1 X420.282 Y114.193
N9175 G1 X420.259 Z-8.55
N9180 G1 X420.194 Z-8.118
N9185 G1 X420.085 Z-7.688
N9190 G1 X419.935 Z-7.271
N9195 G1 X419.747 Z-6.871
N9200 G1 X419.518 Z-6.484
N9205 G1 X419.253 Z-6.117
N9210 G1 X418.954 Z-5.772
N9215 G1 X418.617 Z-5.448
N9220 G1 X418.253 Z-5.156
N9225 G1 X417.864 Z-4.894
N9230 G1 X417.449 Z-4.662
N9235 G1 X417.012 Z-4.462
N9240 G1 X416.555 Z-4.297
N9245 G1 X416.08 Z-4.166
N9250 G1 X415.606 Z-4.075
N9255 G1 X415.101 Z-4.018
N9260 G1 X414.553 Z-4
N9265 G1 X407.693
N9270 G1 X407.625 Z-3.992
N9275 G1 X407.561 Z-3.969
N9280 G1 X407.497 Z-3.947
N9285 G1 X407.429 Z-3.939
N9290 G2 Y114.993 I0 J0.4
N9295 G1 X407.907
N9300 G1 X407.974 Z-3.947
N9305 G1 X408.039 Z-3.969
N9310 G1 X408.103 Z-3.992
N9315 G1 X408.171 Z-4
N9320 G1 X415.021
N9325 G1 X415.555 Z-4.019
N9330 G1 X416.038 Z-4.075
N9335 G1 X416.509 Z-4.167
N9340 G1 X416.972 Z-4.295
N9345 G1 X417.428 Z-4.461
N9350 G1 X417.864 Z-4.661
N9355 G1 X418.277 Z-4.893
N9360 G1 X418.665 Z-5.156
N9365 G1 X419.029 Z-5.451
N9370 G1 X419.359 Z-5.769
N9375 G1 X419.658 Z-6.115
N9380 G1 X419.922 Z-6.482
N9385 G1 X420.151 Z-6.871
N9390 G1 X420.339 Z-7.273
N9395 G1 X420.486 Z-7.684
N9400 G1 X420.595 Z-8.114
N9405 G1 X420.66 Z-8.547
N9410 G1 X420.684 Z-8.995
N9415 G1 X420.782 Y115.193 Z-8.996
N9420 G1 X420.977 Y115.593 Z-8.999
N9425 G1 X421.075 Y115.793 Z-9
N9430 G1 X421.051 Z-8.545
N9435 G1 X420.98 Z-8.091
N9440 G1 X420.876 Z-7.678
N9445 G1 X420.731 Z-7.273
N9450 G1 X420.544 Z-6.87
N9455 G1 X420.319 Z-6.485
N9460 G1 X420.055 Z-6.117
N9465 G1 X419.757 Z-5.77
N9470 G1 X419.428 Z-5.451
N9475 G1 X419.065 Z-5.155
N9480 G1 X418.678 Z-4.892
N9485 G1 X418.266 Z-4.659
N9490 G1 X417.838 Z-4.462
N9495 G1 X417.387 Z-4.296
N9500 G1 X416.915 Z-4.166
N9505 G1 X416.434 Z-4.073
N9510 G1 X415.957 Z-4.018
N9515 G1 X415.426 Z-4
N9520 G1 X408.637
N9525 G1 X408.569 Z-3.992
N9530 G1 X408.505 Z-3.969
N9535 G1 X408.44 Z-3.947
N9540 G1 X408.372 Z-3.939
N9545 G2 Y116.593 I0 J0.4
N9550 G1 X408.826
N9555 G1 X408.894 Z-3.947
N9560 G1 X408.958 Z-3.969
N9565 G1 X409.022 Z-3.992
N9570 G1 X409.09 Z-4
N9575 G1 X415.854
N9580 G1 X416.374 Z-4.019
N9585 G1 X416.85 Z-4.074
N9590 G1 X417.317 Z-4.166
N9595 G1 X417.786 Z-4.296
N9600 G1 X418.234 Z-4.461
N9605 G1 X418.659 Z-4.659
N9610 G1 X419.071 Z-4.892
N9615 G1 X419.461 Z-5.158
N9620 G1 X419.817 Z-5.451
N9625 G1 X420.145 Z-5.771
N9630 G1 X420.439 Z-6.115
N9635 G1 X420.703 Z-6.484
N9640 G1 X420.927 Z-6.87
N9645 G1 X421.115 Z-7.275
N9650 G1 X421.252 Z-7.663
N9655 G1 X421.365 Z-8.107
N9660 G1 X421.431 Z-8.544
N9665 G1 X421.455 Z-9
N9670 G1 X421.734 Y117.192
N9675 G1 X421.825 Y117.393
N9680 G1 X421.802 Z-8.544
N9685 G1 X421.736 Z-8.105
N9690 G1 X421.629 Z-7.678
N9695 G1 X421.485 Z-7.271
N9700 G1 X421.301 Z-6.871
N9705 G1 X421.077 Z-6.484
N9710 G1 X420.817 Z-6.118
N9715 G1 X420.52 Z-5.769
N9720 G1 X420.197 Z-5.452
N9725 G1 X419.841 Z-5.158
N9730 G1 X419.458 Z-4.894
N9735 G1 X419.049 Z-4.661
N9740 G1 X418.619 Z-4.461
N9745 G1 X418.169 Z-4.295
N9750 G1 X417.706 Z-4.165
N9755 G1 X417.247 Z-4.075
N9760 G1 X416.772 Z-4.019
N9765 G1 X416.247 Z-4
N9770 G1 X409.529
N9775 G1 X409.461 Z-3.992
N9780 G1 X409.397 Z-3.969
N9785 G1 X409.333 Z-3.947
N9790 G1 X409.265 Z-3.939
N9795 G2 Y118.193 I0 J0.4
N9800 G1 X409.692
N9805 G1 X409.76 Z-3.947
N9810 G1 X409.824 Z-3.969
N9815 G1 X409.889 Z-3.992
N9820 G1 X409.956 Z-4
N9825 G1 X416.646
N9830 G1 X417.161 Z-4.019
N9835 G1 X417.632 Z-4.075
N9840 G1 X418.095 Z-4.167
N9845 G1 X418.548 Z-4.295
N9850 G1 X418.995 Z-4.461
N9855 G1 X419.424 Z-4.662
N9860 G1 X419.826 Z-4.892
N9865 G1 X420.208 Z-5.156
N9870 G1 X420.562 Z-5.45
N9875 G1 X420.888 Z-5.771
N9880 G1 X421.181 Z-6.116
N9885 G1 X421.441 Z-6.483
N9890 G1 X421.665 Z-6.872
N9895 G1 X421.846 Z-7.267
N9900 G1 X421.989 Z-7.675
N9905 G1 X422.096 Z-8.103
N9910 G1 X422.162 Z-8.544
N9915 G1 X422.186 Z-9
N9920 G1 X422.45 Y118.792
N9925 G1 X422.537 Y118.993
N9930 G1 X422.513 Z-8.544
N9935 G1 X422.447 Z-8.102
N9940 G1 X422.342 Z-7.679
N9945 G1 X422.2 Z-7.27
N9950 G1 X422.015 Z-6.867
N9955 G1 X421.795 Z-6.484
N9960 G1 X421.537 Z-6.116
N9965 G1 X421.244 Z-5.77
N9970 G1 X420.923 Z-5.452
N9975 G1 X420.569 Z-5.157
N9980 G1 X420.189 Z-4.893
N9985 G1 X419.782 Z-4.659
N9990 G1 X419.361 Z-4.461
N9995 G1 X418.915 Z-4.295
N10000 G1 X418.464 Z-4.167
N10005 G1 X418.003 Z-4.075
N10010 G1 X417.535 Z-4.019
N10015 G1 X417.022 Z-4
N10020 G1 X410.371
N10025 G1 X410.303 Z-3.992
N10030 G1 X410.239 Z-3.969
N10035 G1 X410.175 Z-3.947
N10040 G1 X410.107 Z-3.939
N10045 G2 Y119.793 I0 J0.4
N10050 G1 X410.51
N10055 G1 X410.578 Z-3.947
N10060 G1 X410.642 Z-3.969
N10065 G1 X410.707 Z-3.992
N10070 G1 X410.774 Z-4
N10075 G1 X417.377
N10080 G1 X417.895 Z-4.019
N10085 G1 X418.363 Z-4.074
N10090 G1 X418.822 Z-4.166
N10095 G1 X419.27 Z-4.294
N10100 G1 X419.715 Z-4.46
N10105 G1 X420.141 Z-4.661
N10110 G1 X420.539 Z-4.892
N10115 G1 X420.918 Z-5.157
N10120 G1 X421.267 Z-5.448
N10125 G1 X421.592 Z-5.771
N10130 G1 X421.88 Z-6.113
N10135 G1 X422.139 Z-6.483
N10140 G1 X422.354 Z-6.859
N10145 G1 X422.543 Z-7.273
N10150 G1 X422.686 Z-7.686
N10155 G1 X422.792 Z-8.118
N10160 G1 X422.854 Z-8.546
N10165 G1 X422.878 Z-9
N10170 G1 X422.961 Y119.993
N10175 G1 X423.044 Y120.192
N10180 G1 X423.128 Y120.392
N10185 G1 X423.21 Y120.593
N10190 G1 X423.186 Z-8.539
N10195 G1 X423.122 Z-8.107
N10200 G1 X423.015 Z-7.674
N10205 G1 X422.876 Z-7.273
N10210 G1 X422.693 Z-6.868
N10215 G1 X422.473 Z-6.481
N10220 G1 X422.218 Z-6.116
N10225 G1 X421.927 Z-5.769
N10230 G1 X421.606 Z-5.449
N10235 G1 X421.259 Z-5.158
N10240 G1 X420.881 Z-4.892
N10245 G1 X420.478 Z-4.658
N10250 G1 X420.059 Z-4.46
N10255 G1 X419.618 Z-4.294
N10260 G1 X419.17 Z-4.166
N10265 G1 X418.713 Z-4.074
N10270 G1 X418.248 Z-4.019
N10275 G1 X417.732 Z-4
N10280 G1 X411.166
N10285 G1 X411.099 Z-3.992
N10290 G1 X411.034 Z-3.969
N10295 G1 X410.97 Z-3.947
N10300 G1 X410.902 Z-3.939
N10305 G2 Y121.393 I0 J0.4
N10310 G1 X411.282
N10315 G1 X411.35 Z-3.947
N10320 G1 X411.414 Z-3.969
N10325 G1 X411.478 Z-3.992
N10330 G1 X411.546 Z-4
N10335 G1 X418.081
N10340 G1 X418.576 Z-4.018
N10345 G1 X419.058 Z-4.075
N10350 G1 X419.511 Z-4.167
N10355 G1 X419.956 Z-4.294
N10360 G1 X420.397 Z-4.461
N10365 G1 X420.814 Z-4.659
N10370 G1 X421.215 Z-4.894
N10375 G1 X421.588 Z-5.156
N10380 G1 X421.938 Z-5.452
N10385 G1 X422.254 Z-5.768
N10390 G1 X422.545 Z-6.117
N10395 G1 X422.798 Z-6.483
N10400 G1 X423.018 Z-6.871
N10405 G1 X423.198 Z-7.27
N10410 G1 X423.339 Z-7.679
N10415 G1 X423.444 Z-8.106
N10420 G1 X423.508 Z-8.541
N10425 G1 X423.532 Z-9
N10430 G1 X423.61 Y121.592
N10435 G1 X423.845 Y122.193
N10440 G1 X423.821 Z-8.541
N10445 G1 X423.757 Z-8.104
N10450 G1 X423.652 Z-7.677
N10455 G1 X423.514 Z-7.274
N10460 G1 X423.33 Z-6.866
N10465 G1 X423.114 Z-6.484
N10470 G1 X422.861 Z-6.116
N10475 G1 X422.574 Z-5.771
N10480 G1 X422.256 Z-5.45
N10485 G1 X421.911 Z-5.158
N10490 G1 X421.534 Z-4.892
N10495 G1 X421.138 Z-4.66
N10500 G1 X420.724 Z-4.461
N10505 G1 X420.286 Z-4.295
N10510 G1 X419.842 Z-4.167
N10515 G1 X419.389 Z-4.075
N10520 G1 X418.927 Z-4.019
N10525 G1 X418.424 Z-4
N10530 G1 X411.913
N10535 G1 X411.846 Z-3.992
N10540 G1 X411.781 Z-3.969
N10545 G1 X411.717 Z-3.947
N10550 G1 X411.649 Z-3.939
N10555 G2 Y122.993 I0 J0.4
N10560 G1 X412.006
N10565 G1 X412.074 Z-3.947
N10570 G1 X412.138 Z-3.969
N10575 G1 X412.203 Z-3.992
N10580 G1 X412.27 Z-4
N10585 G1 X418.747
N10590 G1 X419.248 Z-4.019
N10595 G1 X419.697 Z-4.073
N10600 G1 X420.158 Z-4.166
N10605 G1 X420.609 Z-4.297
N10610 G1 X421.036 Z-4.46
N10615 G1 X421.45 Z-4.659
N10620 G1 X421.851 Z-4.894
N10625 G1 X422.22 Z-5.157
N10630 G1 X422.565 Z-5.45
N10635 G1 X422.883 Z-5.772
N10640 G1 X423.169 Z-6.117
N10645 G1 X423.418 Z-6.48
N10650 G1 X423.637 Z-6.87
N10655 G1 X423.818 Z-7.272
N10660 G1 X423.955 Z-7.674
N10665 G1 X424.06 Z-8.103
N10670 G1 X424.124 Z-8.54
N10675 G1 X424.148 Z-9
N10680 G1 X424.222 Y123.192
N10685 G1 X424.442 Y123.793
N10690 G1 X424.419 Z-8.54
N10695 G1 X424.354 Z-8.102
N10700 G1 X424.252 Z-7.678
N10705 G1 X424.112 Z-7.269
N10710 G1 X423.935 Z-6.872
N10715 G1 X423.716 Z-6.481
N10720 G1 X423.467 Z-6.117
N10725 G1 X423.181 Z-5.771
N10730 G1 X422.864 Z-5.448
N10735 G1 X422.519 Z-5.155
N10740 G1 X422.147 Z-4.89
N10745 G1 X421.756 Z-4.659
N10750 G1 X421.344 Z-4.461
N10755 G1 X420.908 Z-4.294
N10760 G1 X420.468 Z-4.166
N10765 G1 X420.019 Z-4.074
N10770 G1 X419.561 Z-4.019
N10775 G1 X419.062 Z-4
N10780 G1 X412.616
N10785 G1 X412.549 Z-3.992
N10790 G1 X412.484 Z-3.969
N10795 G1 X412.42 Z-3.947
N10800 G1 X412.352 Z-3.939
N10805 G2 Y124.593 I0 J0.4
N10810 G1 X412.687
N10815 G1 X412.755 Z-3.947
N10820 G1 X412.819 Z-3.969
N10825 G1 X412.884 Z-3.992
N10830 G1 X412.951 Z-4
N10835 G1 X419.372
N10840 G1 X419.869 Z-4.019
N10845 G1 X420.325 Z-4.075
N10850 G1 X420.771 Z-4.167
N10855 G1 X421.21 Z-4.295
N10860 G1 X421.643 Z-4.462
N10865 G1 X422.055 Z-4.661
N10870 G1 X422.443 Z-4.891
N10875 G1 X422.814 Z-5.157
N10880 G1 X423.158 Z-5.451
N10885 G1 X423.471 Z-5.77
N10890 G1 X423.756 Z-6.117
N10895 G1 X424.005 Z-6.482
N10900 G1 X424.22 Z-6.869
N10905 G1 X424.4 Z-7.273
N10910 G1 X424.537 Z-7.676
N10915 G1 X424.64 Z-8.1
N10920 G1 X424.704 Z-8.539
N10925 G1 X424.728 Z-9
N10930 G1 X424.797 Y124.792
N10935 G1 X425.004 Y125.392
N10940 G1 X424.98 Z-8.537
N10945 G1 X424.918 Z-8.108
N10950 G1 X424.813 Z-7.674
N10955 G1 X424.677 Z-7.271
N10960 G1 X424.5 Z-6.871
N10965 G1 X424.285 Z-6.484
N10970 G1 X424.032 Z-6.113
N10975 G1 X423.751 Z-5.77
N10980 G1 X423.439 Z-5.451
N10985 G1 X423.096 Z-5.156
N10990 G1 X422.729 Z-4.892
N10995 G1 X422.338 Z-4.66
N11000 G1 X421.929 Z-4.461
N11005 G1 X421.496 Z-4.294
N11010 G1 X421.059 Z-4.166
N11015 G1 X420.613 Z-4.074
N11020 G1 X420.141 Z-4.018
N11025 G1 X419.657 Z-4
N11030 G1 X413.274
N11035 G1 X413.206 Z-3.992
N11040 G1 X413.142 Z-3.969
N11045 G1 X413.078 Z-3.947
N11050 G1 X413.01 Z-3.939
N11055 G2 Y126.192 I0 J0.4
N11060 G1 X413.323
N11065 G1 X413.391 Z-3.947
N11070 G1 X413.455 Z-3.969
N11075 G1 X413.52 Z-3.992
N11080 G1 X413.587 Z-4
N11085 G1 X419.933
N11090 G1 X420.434 Z-4.018
N11095 G1 X420.883 Z-4.073
N11100 G1 X421.337 Z-4.166
N11105 G1 X421.784 Z-4.297
N11110 G1 X422.204 Z-4.46
N11115 G1 X422.613 Z-4.659
N11120 G1 X423.003 Z-4.892
N11125 G1 X423.37 Z-5.156
N11130 G1 X423.712 Z-5.45
N11135 G1 X424.024 Z-5.771
N11140 G1 X424.304 Z-6.114
N11145 G1 X424.552 Z-6.48
N11150 G1 X424.768 Z-6.868
N11155 G1 X424.944 Z-7.268
N11160 G1 X425.081 Z-7.672
N11165 G1 X425.186 Z-8.107
N11170 G1 X425.25 Z-8.554
N11175 G1 X425.272 Z-9
N11180 G1 X425.337 Y126.392
N11185 G1 X425.466 Y126.792
N11190 G1 X425.531 Y126.992
N11195 G1 X425.507 Z-8.538
N11200 G1 X425.448 Z-8.118
N11205 G1 X425.345 Z-7.686
N11210 G1 X425.206 Z-7.271
N11215 G1 X425.029 Z-6.869
N11220 G1 X424.814 Z-6.481
N11225 G1 X424.566 Z-6.114
N11230 G1 X424.286 Z-5.77
N11235 G1 X423.975 Z-5.45
N11240 G1 X423.638 Z-5.158
N11245 G1 X423.272 Z-4.893
N11250 G1 X422.884 Z-4.661
N11255 G1 X422.477 Z-4.461
N11260 G1 X422.047 Z-4.294
N11265 G1 X421.613 Z-4.166
N11270 G1 X421.171 Z-4.074
N11275 G1 X420.721 Z-4.019
N11280 G1 X420.222 Z-4
N11285 G1 X413.89
N11290 G1 X413.822 Z-3.992
N11295 G1 X413.758 Z-3.969
N11300 G1 X413.693 Z-3.947
N11305 G1 X413.625 Z-3.939
N11310 G2 Y127.792 I0 J0.4
N11315 G1 X413.916
N11320 G1 X413.984 Z-3.947
N11325 G1 X414.048 Z-3.969
N11330 G1 X414.113 Z-3.992
N11335 G1 X414.18 Z-4
N11340 G1 X420.488
N11345 G1 X420.985 Z-4.019
N11350 G1 X421.434 Z-4.074
N11355 G1 X421.874 Z-4.166
N11360 G1 X422.307 Z-4.294
N11365 G1 X422.737 Z-4.461
N11370 G1 X423.143 Z-4.661
N11375 G1 X423.531 Z-4.894
N11380 G1 X423.89 Z-5.155
N11385 G1 X424.231 Z-5.451
N11390 G1 X424.542 Z-5.771
N11395 G1 X424.822 Z-6.117
N11400 G1 X425.066 Z-6.48
N11405 G1 X425.281 Z-6.87
N11410 G1 X425.457 Z-7.271
N11415 G1 X425.592 Z-7.675
N11420 G1 X425.695 Z-8.104
N11425 G1 X425.758 Z-8.545
N11430 G1 X425.781 Z-9
N11435 G1 X425.842 Y127.992
N11440 G1 X426.023 Y128.592
N11445 G1 X426.002 Z-8.559
N11450 G1 X425.94 Z-8.117
N11455 G1 X425.837 Z-7.683
N11460 G1 X425.701 Z-7.274
N11465 G1 X425.525 Z-6.871
N11470 G1 X425.31 Z-6.48
N11475 G1 X425.066 Z-6.116
N11480 G1 X424.786 Z-5.77
N11485 G1 X424.476 Z-5.449
N11490 G1 X424.14 Z-5.157
N11495 G1 X423.776 Z-4.892
N11500 G1 X423.389 Z-4.659
N11505 G1 X422.99 Z-4.462
N11510 G1 X422.562 Z-4.295
N11515 G1 X422.13 Z-4.166
N11520 G1 X421.691 Z-4.075
N11525 G1 X421.244 Z-4.019
N11530 G1 X420.749 Z-4
N11535 G1 X414.462
N11540 G1 X414.394 Z-3.992
N11545 G1 X414.33 Z-3.969
N11550 G1 X414.265 Z-3.947
N11555 G1 X414.198 Z-3.939
N11560 G2 Y129.392 I0 J0.4
N11565 G1 X414.469
N11570 G1 X414.537 Z-3.947
N11575 G1 X414.601 Z-3.969
N11580 G1 X414.665 Z-3.992
N11585 G1 X414.733 Z-4
N11590 G1 X420.985
N11595 G1 X421.478 Z-4.018
N11600 G1 X421.945 Z-4.076
N11605 G1 X422.37 Z-4.165
N11610 G1 X422.81 Z-4.296
N11615 G1 X423.226 Z-4.46
N11620 G1 X423.63 Z-4.659
N11625 G1 X424.017 Z-4.892
N11630 G1 X424.38 Z-5.158
N11635 G1 X424.715 Z-5.45
N11640 G1 X425.025 Z-5.772
N11645 G1 X425.3 Z-6.114
N11650 G1 X425.548 Z-6.484
N11655 G1 X425.759 Z-6.869
N11660 G1 X425.935 Z-7.273
N11665 G1 X426.067 Z-7.672
N11670 G1 X426.17 Z-8.102
N11675 G1 X426.234 Z-8.545
N11680 G1 X426.256 Z-9
N11685 G1 X426.314 Y129.592
N11690 G1 X426.481 Y130.192
N11695 G1 X426.458 Z-8.538
N11700 G1 X426.395 Z-8.101
N11705 G1 X426.294 Z-7.676
N11710 G1 X426.16 Z-7.271
N11715 G1 X425.984 Z-6.867
N11720 G1 X425.773 Z-6.481
N11725 G1 X425.529 Z-6.115
N11730 G1 X425.25 Z-5.768
N11735 G1 X424.945 Z-5.45
N11740 G1 X424.611 Z-5.158
N11745 G1 X424.247 Z-4.892
N11750 G1 X423.868 Z-4.662
N11755 G1 X423.465 Z-4.462
N11760 G1 X423.039 Z-4.295
N11765 G1 X422.611 Z-4.166
N11770 G1 X422.174 Z-4.074
N11775 G1 X421.732 Z-4.019
N11780 G1 X421.24 Z-4
N11785 G1 X414.995
N11790 G1 X414.927 Z-3.992
N11795 G1 X414.863 Z-3.969
N11800 G1 X414.799 Z-3.947
N11805 G1 X414.731 Z-3.939
N11810 G2 Y130.992 I0 J0.4
N11815 G1 X414.982
N11820 G1 X415.05 Z-3.947
N11825 G1 X415.114 Z-3.969
N11830 G1 X415.179 Z-3.992
N11835 G1 X415.246 Z-4
N11840 G1 X421.465
N11845 G1 X421.947 Z-4.018
N11850 G1 X422.391 Z-4.073
N11855 G1 X422.837 Z-4.166
N11860 G1 X423.265 Z-4.294
N11865 G1 X423.69 Z-4.461
N11870 G1 X424.092 Z-4.661
N11875 G1 X424.47 Z-4.892
N11880 G1 X424.832 Z-5.157
N11885 G1 X425.166 Z-5.451
N11890 G1 X425.471 Z-5.77
N11895 G1 X425.746 Z-6.113
N11900 G1 X425.993 Z-6.484
N11905 G1 X426.204 Z-6.871
N11910 G1 X426.377 Z-7.27
N11915 G1 X426.511 Z-7.675
N11920 G1 X426.612 Z-8.1
N11925 G1 X426.676 Z-8.547
N11930 G1 X426.698 Z-9
N11935 G1 X426.751 Y131.192
N11940 G1 X426.803 Y131.392
N11945 G1 X426.906 Y131.792
N11950 G1 X426.884 Z-8.542
N11955 G1 X426.821 Z-8.099
N11960 G1 X426.72 Z-7.673
N11965 G1 X426.586 Z-7.268
N11970 G1 X426.413 Z-6.868
N11975 G1 X426.202 Z-6.481
N11980 G1 X425.959 Z-6.114
N11985 G1 X425.684 Z-5.771
N11990 G1 X425.376 Z-5.448
N11995 G1 X425.046 Z-5.158
N12000 G1 X424.684 Z-4.892
N12005 G1 X424.307 Z-4.661
N12010 G1 X423.905 Z-4.461
N12015 G1 X423.482 Z-4.294
N12020 G1 X423.054 Z-4.166
N12025 G1 X422.611 Z-4.073
N12030 G1 X422.17 Z-4.018
N12035 G1 X421.682 Z-4
N12040 G1 X415.488
N12045 G1 X415.42 Z-3.992
N12050 G1 X415.356 Z-3.969
N12055 G1 X415.292 Z-3.947
N12060 G1 X415.224 Z-3.939
N12065 G2 Y132.592 I0 J0.4
N12070 G1 X415.457
N12075 G1 X415.524 Z-3.947
N12080 G1 X415.589 Z-3.969
N12085 G1 X415.653 Z-3.992
N12090 G1 X415.721 Z-4
N12095 G1 X421.899
N12100 G1 X422.379 Z-4.018
N12105 G1 X422.821 Z-4.073
N12110 G1 X423.264 Z-4.166
N12115 G1 X423.7 Z-4.297
N12120 G1 X424.113 Z-4.461
N12125 G1 X424.513 Z-4.661
N12130 G1 X424.89 Z-4.892
N12135 G1 X425.252 Z-5.158
N12140 G1 X425.58 Z-5.448
N12145 G1 X425.889 Z-5.772
N12150 G1 X426.163 Z-6.116
N12155 G1 X426.406 Z-6.484
N12160 G1 X426.613 Z-6.866
N12165 G1 X426.789 Z-7.274
N12170 G1 X426.921 Z-7.672
N12175 G1 X427.021 Z-8.098
N12180 G1 X427.084 Z-8.538
N12185 G1 X427.107 Z-9
N12190 G1 X427.156 Y132.792
N12195 G1 X427.205 Y132.992
N12200 G1 X427.3 Y133.392
N12205 G1 X427.278 Z-8.548
N12210 G1 X427.214 Z-8.097
N12215 G1 X427.115 Z-7.677
N12220 G1 X426.982 Z-7.271
N12225 G1 X426.809 Z-6.87
N12230 G1 X426.599 Z-6.481
N12235 G1 X426.355 Z-6.113
N12240 G1 X426.081 Z-5.769
N12245 G1 X425.778 Z-5.449
N12250 G1 X425.444 Z-5.155
N12255 G1 X425.08 Z-4.887
N12260 G1 X424.712 Z-4.661
N12265 G1 X424.312 Z-4.461
N12270 G1 X423.901 Z-4.297
N12275 G1 X423.465 Z-4.165
N12280 G1 X423.046 Z-4.076
N12285 G1 X422.582 Z-4.018
N12290 G1 X422.125 Z-4
N12295 G1 X415.942
N12300 G1 X415.875 Z-3.992
N12305 G1 X415.81 Z-3.969
N12310 G1 X415.746 Z-3.947
N12315 G1 X415.678 Z-3.939
N12320 G2 Y134.192 I0 J0.4
N12325 G1 X415.892
N12330 G1 X415.96 Z-3.947
N12335 G1 X416.024 Z-3.969
N12340 G1 X416.088 Z-3.992
N12345 G1 X416.156 Z-4
N12350 G1 X422.301
N12355 G1 X422.779 Z-4.018
N12360 G1 X423.218 Z-4.073
N12365 G1 X423.658 Z-4.165
N12370 G1 X424.093 Z-4.297
N12375 G1 X424.504 Z-4.461
N12380 G1 X424.903 Z-4.661
N12385 G1 X425.279 Z-4.892
N12390 G1 X425.634 Z-5.156
N12395 G1 X425.967 Z-5.45
N12400 G1 X426.27 Z-5.77
N12405 G1 X426.544 Z-6.115
N12410 G1 X426.787 Z-6.483
N12415 G1 X426.994 Z-6.868
N12420 G1 X427.167 Z-7.269
N12425 G1 X427.3 Z-7.676
N12430 G1 X427.401 Z-8.106
N12435 G1 X427.462 Z-8.545
N12440 G1 X427.485 Z-9
N12445 G1 X427.53 Y134.392
N12450 G1 X427.575 Y134.592
N12455 G1 X427.662 Y134.992
N12460 G1 X427.641 Z-8.556
N12465 G1 X427.579 Z-8.109
N12470 G1 X427.482 Z-7.691
N12475 G1 X427.346 Z-7.274
N12480 G1 X427.174 Z-6.871
N12485 G1 X426.964 Z-6.48
N12490 G1 X426.724 Z-6.117
N12495 G1 X426.45 Z-5.771
N12500 G1 X426.147 Z-5.45
N12505 G1 X425.816 Z-5.156
N12510 G1 X425.46 Z-4.892
N12515 G1 X425.086 Z-4.661
N12520 G1 X424.687 Z-4.461
N12525 G1 X424.277 Z-4.297
N12530 G1 X423.844 Z-4.166
N12535 G1 X423.404 Z-4.073
N12540 G1 X422.968 Z-4.018
N12545 G1 X422.484 Z-4
N12550 G1 X416.36
N12555 G1 X416.292 Z-3.992
N12560 G1 X416.228 Z-3.969
N12565 G1 X416.163 Z-3.947
N12570 G1 X416.096 Z-3.939
N12575 G2 Y135.792 I0 J0.4
N12580 G1 X416.29
N12585 G1 X416.358 Z-3.947
N12590 G1 X416.422 Z-3.969
N12595 G1 X416.487 Z-3.992
N12600 G1 X416.554 Z-4
N12605 G1 X422.665
N12610 G1 X423.148 Z-4.018
N12615 G1 X423.583 Z-4.073
N12620 G1 X424.021 Z-4.166
N12625 G1 X424.444 Z-4.294
N12630 G1 X424.864 Z-4.462
N12635 G1 X425.255 Z-4.659
N12640 G1 X425.636 Z-4.893
N12645 G1 X425.978 Z-5.148
N12650 G1 X426.318 Z-5.449
N12655 G1 X426.621 Z-5.77
N12660 G1 X426.895 Z-6.115
N12665 G1 X427.137 Z-6.484
N12670 G1 X427.344 Z-6.87
N12675 G1 X427.516 Z-7.274
N12680 G1 X427.652 Z-7.691
N12685 G1 X427.749 Z-8.111
N12690 G1 X427.811 Z-8.558
N12695 G1 X427.831 Z-9
N12700 G1 X427.913 Y136.192
N12705 G1 X427.953 Y136.392
N12710 G1 X427.993 Y136.592
N12715 G1 X427.972 Z-8.555
N12720 G1 X427.913 Z-8.121
N12725 G1 X427.813 Z-7.689
N12730 G1 X427.677 Z-7.271
N12735 G1 X427.505 Z-6.868
N12740 G1 X427.298 Z-6.482
N12745 G1 X427.056 Z-6.112
N12750 G1 X426.786 Z-5.771
N12755 G1 X426.483 Z-5.449
N12760 G1 X426.156 Z-5.158
N12765 G1 X425.802 Z-4.894
N12770 G1 X425.422 Z-4.659
N12775 G1 X425.031 Z-4.461
N12780 G1 X424.613 Z-4.294
N12785 G1 X424.191 Z-4.166
N12790 G1 X423.752 Z-4.073
N12795 G1 X423.318 Z-4.018
N12800 G1 X422.843 Z-4
N12805 G1 X416.74
N12810 G1 X416.672 Z-3.992
N12815 G1 X416.608 Z-3.969
N12820 G1 X416.543 Z-3.947
N12825 G1 X416.476 Z-3.939
N12830 G2 Y137.392 I0 J0.4
N12835 G1 X416.652
N12840 G1 X416.72 Z-3.947
N12845 G1 X416.784 Z-3.969
N12850 G1 X416.849 Z-3.992
N12855 G1 X416.916 Z-4
N12860 G1 X423.02
N12865 G1 X423.494 Z-4.019
N12870 G1 X423.93 Z-4.075
N12875 G1 X424.359 Z-4.167
N12880 G1 X424.779 Z-4.296
N12885 G1 X425.188 Z-4.46
N12890 G1 X425.584 Z-4.661
N12895 G1 X425.957 Z-4.892
N12900 G1 X426.311 Z-5.156
N12905 G1 X426.637 Z-5.447
N12910 G1 X426.94 Z-5.768
N12915 G1 X427.214 Z-6.115
N12920 G1 X427.452 Z-6.48
N12925 G1 X427.659 Z-6.866
N12930 G1 X427.832 Z-7.27
N12935 G1 X427.967 Z-7.686
N12940 G1 X428.067 Z-8.12
N12945 G1 X428.126 Z-8.555
N12950 G1 X428.147 Z-9
N12955 G1 X428.221 Y137.792
N12960 G1 X428.258 Y137.992
N12965 G1 X428.294 Y138.192
N12970 G1 X428.273 Z-8.554
N12975 G1 X428.214 Z-8.121
N12980 G1 X428.115 Z-7.688
N12985 G1 X427.979 Z-7.27
N12990 G1 X427.806 Z-6.865
N12995 G1 X427.6 Z-6.479
N13000 G1 X427.362 Z-6.114
N13005 G1 X427.076 Z-5.754
N13010 G1 X426.79 Z-5.45
N13015 G1 X426.459 Z-5.155
N13020 G1 X426.11 Z-4.894
N13025 G1 X425.731 Z-4.659
N13030 G1 X425.341 Z-4.461
N13035 G1 X424.934 Z-4.297
N13040 G1 X424.505 Z-4.166
N13045 G1 X424.069 Z-4.073
N13050 G1 X423.636 Z-4.018
N13055 G1 X423.163 Z-4
N13060 G1 X417.085
N13065 G1 X417.017 Z-3.992
N13070 G1 X416.953 Z-3.969
N13075 G1 X416.888 Z-3.947
N13080 G1 X416.821 Z-3.939
N13085 G2 Y138.992 I0 J0.4
N13090 G1 X416.98
N13095 G1 X417.048 Z-3.947
N13100 G1 X417.112 Z-3.969
N13105 G1 X417.176 Z-3.992
N13110 G1 X417.244 Z-4
N13115 G1 X423.304
N13120 G1 X423.783 Z-4.018
N13125 G1 X424.215 Z-4.073
N13130 G1 X424.651 Z-4.166
N13135 G1 X425.072 Z-4.295
N13140 G1 X425.48 Z-4.459
N13145 G1 X425.876 Z-4.66
N13150 G1 X426.249 Z-4.891
N13155 G1 X426.602 Z-5.156
N13160 G1 X426.932 Z-5.451
N13165 G1 X427.231 Z-5.769
N13170 G1 X427.491 Z-6.099
N13175 G1 X427.742 Z-6.482
N13180 G1 X427.949 Z-6.869
N13185 G1 X428.118 Z-7.267
N13190 G1 X428.254 Z-7.685
N13195 G1 X428.353 Z-8.12
N13200 G1 X428.413 Z-8.556
N13205 G1 X428.433 Z-8.999
N13210 G1 X428.533 Y139.592
N13215 G1 X428.565 Y139.792
N13220 G1 X428.545 Z-8.554
N13225 G1 X428.486 Z-8.119
N13230 G1 X428.386 Z-7.685
N13235 G1 X428.25 Z-7.267
N13240 G1 X428.074 Z-6.855
N13245 G1 X427.874 Z-6.48
N13250 G1 X427.636 Z-6.114
N13255 G1 X427.367 Z-5.772
N13260 G1 X427.065 Z-5.45
N13265 G1 X426.74 Z-5.158
N13270 G1 X426.388 Z-4.894
N13275 G1 X426.016 Z-4.662
N13280 G1 X425.62 Z-4.461
N13285 G1 X425.214 Z-4.296
N13290 G1 X424.795 Z-4.167
N13295 G1 X424.369 Z-4.075
N13300 G1 X423.935 Z-4.019
N13305 G1 X423.464 Z-4
N13310 G1 X417.395
N13315 G1 X417.327 Z-3.992
N13320 G1 X417.263 Z-3.969
N13325 G1 X417.198 Z-3.947
N13330 G1 X417.13 Z-3.939
N13335 G2 Y140.592 I0 J0.4
N13340 G1 X417.273
N13345 G1 X417.341 Z-3.947
N13350 G1 X417.405 Z-3.969
N13355 G1 X417.469 Z-3.992
N13360 G1 X417.537 Z-4
N13365 G1 X423.584
N13370 G1 X424.054 Z-4.018
N13375 G1 X424.485 Z-4.073
N13380 G1 X424.918 Z-4.166
N13385 G1 X425.338 Z-4.294
N13390 G1 X425.745 Z-4.459
N13395 G1 X426.14 Z-4.66
N13400 G1 X426.513 Z-4.892
N13405 G1 X426.864 Z-5.156
N13410 G1 X427.19 Z-5.448
N13415 G1 X427.492 Z-5.77
N13420 G1 X427.761 Z-6.114
N13425 G1 X427.999 Z-6.479
N13430 G1 X428.205 Z-6.867
N13435 G1 X428.378 Z-7.273
N13440 G1 X428.504 Z-7.664
N13445 G1 X428.604 Z-8.091
N13450 G1 X428.668 Z-8.543
N13455 G1 X428.69 Z-8.999
N13460 G1 X428.778 Y141.192 Z-9
N13465 G1 X428.807 Y141.392
N13470 G1 X428.785 Z-8.542
N13475 G1 X428.726 Z-8.109
N13480 G1 X428.625 Z-7.673
N13485 G1 X428.486 Z-7.25
N13490 G1 X428.324 Z-6.866
N13495 G1 X428.121 Z-6.484
N13500 G1 X427.878 Z-6.112
N13505 G1 X427.61 Z-5.769
N13510 G1 X427.312 Z-5.451
N13515 G1 X426.987 Z-5.158
N13520 G1 X426.635 Z-4.893
N13525 G1 X426.264 Z-4.661
N13530 G1 X425.87 Z-4.46
N13535 G1 X425.466 Z-4.296
N13540 G1 X425.048 Z-4.167
N13545 G1 X424.623 Z-4.075
N13550 G1 X424.192 Z-4.019
N13555 G1 X423.716 Z-4
N13560 G1 X417.671
N13565 G1 X417.603 Z-3.992
N13570 G1 X417.539 Z-3.969
N13575 G1 X417.475 Z-3.947
N13580 G1 X417.407 Z-3.939
N13585 G2 Y142.192 I0 J0.4
N13590 G1 X417.533
N13595 G1 X417.601 Z-3.947
N13600 G1 X417.665 Z-3.969
N13605 G1 X417.729 Z-3.992
N13610 G1 X417.797 Z-4
N13615 G1 X423.827
N13620 G1 X424.303 Z-4.019
N13625 G1 X424.735 Z-4.074
N13630 G1 X425.159 Z-4.166
N13635 G1 X425.577 Z-4.295
N13640 G1 X425.984 Z-4.46
N13645 G1 X426.377 Z-4.661
N13650 G1 X426.747 Z-4.893
N13655 G1 X427.098 Z-5.157
N13660 G1 X427.424 Z-5.45
N13665 G1 X427.721 Z-5.768
N13670 G1 X427.993 Z-6.117
N13675 G1 X428.231 Z-6.484
N13680 G1 X428.434 Z-6.866
N13685 G1 X428.606 Z-7.273
N13690 G1 X428.739 Z-7.684
N13695 G1 X428.839 Z-8.12
N13700 G1 X428.898 Z-8.556
N13705 G1 X428.918 Z-9
N13710 G1 X428.944 Y142.392
N13715 G1 X429.021 Y142.992
N13720 G1 X428.998 Z-8.539
N13725 G1 X428.937 Z-8.099
N13730 G1 X428.838 Z-7.673
N13735 G1 X428.709 Z-7.272
N13740 G1 X428.54 Z-6.871
N13745 G1 X428.334 Z-6.482
N13750 G1 X428.096 Z-6.115
N13755 G1 X427.827 Z-5.771
N13760 G1 X427.53 Z-5.451
N13765 G1 X427.201 Z-5.155
N13770 G1 X426.854 Z-4.893
N13775 G1 X426.483 Z-4.661
N13780 G1 X426.091 Z-4.46
N13785 G1 X425.687 Z-4.296
N13790 G1 X425.27 Z-4.167
N13795 G1 X424.846 Z-4.075
N13800 G1 X424.415 Z-4.019
N13805 G1 X423.939 Z-4
N13810 G1 X417.915
N13815 G1 X417.847 Z-3.992
N13820 G1 X417.783 Z-3.969
N13825 G1 X417.718 Z-3.947
N13830 G1 X417.651 Z-3.939
N13835 G2 Y143.792 I0 J0.4
N13840 G1 X417.76
N13845 G1 X417.828 Z-3.947
N13850 G1 X417.892 Z-3.969
N13855 G1 X417.956 Z-3.992
N13860 G1 X418.024 Z-4
N13865 G1 X424.037
N13870 G1 X424.512 Z-4.019
N13875 G1 X424.943 Z-4.074
N13880 G1 X425.366 Z-4.166
N13885 G1 X425.783 Z-4.295
N13890 G1 X426.189 Z-4.46
N13895 G1 X426.582 Z-4.661
N13900 G1 X426.952 Z-4.893
N13905 G1 X427.303 Z-5.158
N13910 G1 X427.627 Z-5.451
N13915 G1 X427.925 Z-5.771
N13920 G1 X428.193 Z-6.114
N13925 G1 X428.43 Z-6.481
N13930 G1 X428.637 Z-6.871
N13935 G1 X428.805 Z-7.271
N13940 G1 X428.938 Z-7.683
N13945 G1 X429.038 Z-8.119
N13950 G1 X429.097 Z-8.556
N13955 G1 X429.117 Z-9
N13960 G1 X429.14 Y143.992
N13965 G1 X429.163 Y144.192
N13970 G1 X429.206 Y144.592
N13975 G1 X429.183 Z-8.533
N13980 G1 X429.122 Z-8.099
N13985 G1 X429.024 Z-7.671
N13990 G1 X428.895 Z-7.271
N13995 G1 X428.726 Z-6.87
N14000 G1 X428.52 Z-6.481
N14005 G1 X428.282 Z-6.113
N14010 G1 X428.013 Z-5.769
N14015 G1 X427.716 Z-5.449
N14020 G1 X427.392 Z-5.156
N14025 G1 X427.042 Z-4.892
N14030 G1 X426.671 Z-4.659
N14035 G1 X426.285 Z-4.461
N14040 G1 X425.881 Z-4.297
N14045 G1 X425.456 Z-4.165
N14050 G1 X425.046 Z-4.075
N14055 G1 X424.595 Z-4.018
N14060 G1 X424.121 Z-4
N14065 G1 X418.125
N14070 G1 X418.057 Z-3.992
N14075 G1 X417.993 Z-3.969
N14080 G1 X417.929 Z-3.947
N14085 G1 X417.861 Z-3.939
N14090 G2 Y145.392 I0 J0.4
N14095 G1 X417.955
N14100 G1 X418.023 Z-3.947
N14105 G1 X418.087 Z-3.969
N14110 G1 X418.151 Z-3.992
N14115 G1 X418.219 Z-4
N14120 G1 X424.219
N14125 G1 X424.694 Z-4.019
N14130 G1 X425.112 Z-4.073
N14135 G1 X425.547 Z-4.166
N14140 G1 X425.962 Z-4.295
N14145 G1 X426.367 Z-4.46
N14150 G1 X426.76 Z-4.661
N14155 G1 X427.129 Z-4.893
N14160 G1 X427.475 Z-5.155
N14165 G1 X427.799 Z-5.448
N14170 G1 X428.1 Z-5.771
N14175 G1 X428.368 Z-6.116
N14180 G1 X428.602 Z-6.479
N14185 G1 X428.808 Z-6.869
N14190 G1 X428.977 Z-7.269
N14195 G1 X429.106 Z-7.671
N14200 G1 X429.205 Z-8.098
N14205 G1 X429.267 Z-8.542
N14210 G1 X429.289 Z-9
N14215 G1 X429.328 Y145.792
N14220 G1 X429.347 Y145.992
N14225 G1 X429.365 Y146.192
N14230 G1 X429.344 Z-8.553
N14235 G1 X429.285 Z-8.115
N14240 G1 X429.188 Z-7.69
N14245 G1 X429.053 Z-7.268
N14250 G1 X428.884 Z-6.867
N14255 G1 X428.681 Z-6.483
N14260 G1 X428.444 Z-6.115
N14265 G1 X428.175 Z-5.77
N14270 G1 X427.879 Z-5.451
N14275 G1 X427.555 Z-5.157
N14280 G1 X427.205 Z-4.892
N14285 G1 X426.835 Z-4.659
N14290 G1 X426.449 Z-4.462
N14295 G1 X426.047 Z-4.297
N14300 G1 X425.621 Z-4.165
N14305 G1 X425.212 Z-4.075
N14310 G1 X424.759 Z-4.018
N14315 G1 X424.292 Z-4
N14320 G1 X418.305
N14325 G1 X418.237 Z-3.992
N14330 G1 X418.173 Z-3.969
N14335 G1 X418.109 Z-3.947
N14340 G1 X418.041 Z-3.939
N14345 G2 Y146.992 I0 J0.4
N14350 G1 X418.118
N14355 G1 X418.186 Z-3.947
N14360 G1 X418.25 Z-3.969
N14365 G1 X418.315 Z-3.992
N14370 G1 X418.382 Z-4
N14375 G1 X424.363
N14380 G1 X424.837 Z-4.018
N14385 G1 X425.264 Z-4.073
N14390 G1 X425.696 Z-4.166
N14395 G1 X426.112 Z-4.295
N14400 G1 X426.517 Z-4.46
N14405 G1 X426.899 Z-4.656
N14410 G1 X427.278 Z-4.894
N14415 G1 X427.623 Z-5.155
N14420 G1 X427.947 Z-5.449
N14425 G1 X428.244 Z-5.769
N14430 G1 X428.512 Z-6.113
N14435 G1 X428.75 Z-6.482
N14440 G1 X428.953 Z-6.866
N14445 G1 X429.122 Z-7.267
N14450 G1 X429.257 Z-7.688
N14455 G1 X429.354 Z-8.115
N14460 G1 X429.413 Z-8.552
N14465 G1 X429.434 Z-8.999
N14470 G1 X429.482 Y147.592 Z-8.998
N14475 G1 X429.497 Y147.792
N14480 G1 X429.476 Z-8.554
N14485 G1 X429.417 Z-8.117
N14490 G1 X429.321 Z-7.691
N14495 G1 X429.185 Z-7.268
N14500 G1 X429.016 Z-6.866
N14505 G1 X428.814 Z-6.482
N14510 G1 X428.576 Z-6.114
N14515 G1 X428.308 Z-5.769
N14520 G1 X427.996 Z-5.435
N14525 G1 X427.687 Z-5.155
N14530 G1 X427.341 Z-4.893
N14535 G1 X426.973 Z-4.661
N14540 G1 X426.581 Z-4.46
N14545 G1 X426.177 Z-4.295
N14550 G1 X425.761 Z-4.166
N14555 G1 X425.34 Z-4.074
N14560 G1 X424.911 Z-4.019
N14565 G1 X424.445 Z-4
N14570 G1 X418.453
N14575 G1 X418.385 Z-3.992
N14580 G1 X418.321 Z-3.969
N14585 G1 X418.257 Z-3.947
N14590 G1 X418.189 Z-3.939
N14595 G2 Y148.592 I0 J0.4
N14600 G1 X418.252
N14605 G1 X418.32 Z-3.947
N14610 G1 X418.384 Z-3.969
N14615 G1 X418.448 Z-3.992
N14620 G1 X418.516 Z-4
N14625 G1 X424.491
N14630 G1 X424.957 Z-4.018
N14635 G1 X425.406 Z-4.075
N14640 G1 X425.815 Z-4.165
N14645 G1 X426.24 Z-4.297
N14650 G1 X426.642 Z-4.462
N14655 G1 X427.027 Z-4.66
N14660 G1 X427.397 Z-4.892
N14665 G1 X427.747 Z-5.158
N14670 G1 X428.067 Z-5.448
N14675 G1 X428.367 Z-5.772
N14680 G1 X428.631 Z-6.112
N14685 G1 X428.869 Z-6.481
N14690 G1 X429.072 Z-6.865
N14695 G1 X429.244 Z-7.273
N14700 G1 X429.376 Z-7.688
N14705 G1 X429.473 Z-8.115
N14710 G1 X429.529 Z-8.53
N14715 G1 X429.553 Z-9
N14720 G1 X429.565 Y148.792
N14725 G1 X429.602 Y149.392
N14730 G1 X429.582 Z-8.556
N14735 G1 X429.522 Z-8.116
N14740 G1 X429.426 Z-7.69
N14745 G1 X429.291 Z-7.268
N14750 G1 X429.121 Z-6.866
N14755 G1 X428.919 Z-6.481
N14760 G1 X428.681 Z-6.113
N14765 G1 X428.413 Z-5.768
N14770 G1 X428.116 Z-5.448
N14775 G1 X427.797 Z-5.158
N14780 G1 X427.447 Z-4.892
N14785 G1 X427.077 Z-4.66
N14790 G1 X426.692 Z-4.461
N14795 G1 X426.291 Z-4.297
N14800 G1 X425.866 Z-4.165
N14805 G1 X425.459 Z-4.076
N14810 G1 X425.01 Z-4.018
N14815 G1 X424.571 Z-4
N14820 G1 X418.572
N14825 G1 X418.504 Z-3.992
N14830 G1 X418.44 Z-3.969
N14835 G1 X418.376 Z-3.947
N14840 G1 X418.308 Z-3.939
N14845 G2 Y150.192 I0 J0.4
N14850 G1 X418.356
N14855 G1 X418.424 Z-3.947
N14860 G1 X418.488 Z-3.969
N14865 G1 X418.553 Z-3.992
N14870 G1 X418.621 Z-4
N14875 G1 X424.613
N14880 G1 X425.052 Z-4.018
N14885 G1 X425.503 Z-4.075
N14890 G1 X425.911 Z-4.165
N14895 G1 X426.335 Z-4.297
N14900 G1 X426.737 Z-4.462
N14905 G1 X427.121 Z-4.66
N14910 G1 X427.49 Z-4.892
N14915 G1 X427.84 Z-5.158
N14920 G1 X428.163 Z-5.451
N14925 G1 X428.46 Z-5.772
N14930 G1 X428.724 Z-6.112
N14935 G1 X428.961 Z-6.481
N14940 G1 X429.164 Z-6.865
N14945 G1 X429.333 Z-7.267
N14950 G1 X429.469 Z-7.69
N14955 G1 X429.565 Z-8.118
N14960 G1 X429.624 Z-8.556
N14965 G1 X429.644 Z-9
N14970 G1 X429.655 Y150.392
N14975 G1 X429.664 Y150.592
N14980 G1 X429.681 Y150.992
N14985 G1 X429.659 Z-8.548
N14990 G1 X429.597 Z-8.097
N14995 G1 X429.5 Z-7.675
N15000 G1 X429.372 Z-7.274
N15005 G1 X429.203 Z-6.87
N15010 G1 X428.997 Z-6.48
N15015 G1 X428.763 Z-6.116
N15020 G1 X428.495 Z-5.77
N15025 G1 X428.2 Z-5.45
N15030 G1 X427.876 Z-5.157
N15035 G1 X427.527 Z-4.891
N15040 G1 X427.157 Z-4.659
N15045 G1 X426.773 Z-4.461
N15050 G1 X426.371 Z-4.296
N15055 G1 X425.956 Z-4.167
N15060 G1 X425.536 Z-4.075
N15065 G1 X425.11 Z-4.019
N15070 G1 X424.645 Z-4
N15075 G1 X418.661
N15080 G1 X418.594 Z-3.992
N15085 G1 X418.529 Z-3.969
N15090 G1 X418.465 Z-3.947
N15095 G1 X418.397 Z-3.939
N15100 G2 Y151.792 I0 J0.4
N15105 G1 X418.431
N15110 G1 X418.499 Z-3.947
N15115 G1 X418.563 Z-3.969
N15120 G1 X418.627 Z-3.992
N15125 G1 X418.695 Z-4
N15130 G1 X424.669
N15135 G1 X425.141 Z-4.019
N15140 G1 X425.567 Z-4.075
N15145 G1 X425.988 Z-4.167
N15150 G1 X426.402 Z-4.296
N15155 G1 X426.803 Z-4.46
N15160 G1 X427.188 Z-4.659
N15165 G1 X427.557 Z-4.891
N15170 G1 X427.907 Z-5.157
N15175 G1 X428.23 Z-5.45
N15180 G1 X428.526 Z-5.771
N15185 G1 X428.794 Z-6.116
N15190 G1 X429.028 Z-6.48
N15195 G1 X429.234 Z-6.871
N15200 G1 X429.402 Z-7.273
N15205 G1 X429.535 Z-7.688
N15210 G1 X429.631 Z-8.115
N15215 G1 X429.69 Z-8.555
N15220 G1 X429.711 Z-9
N15225 G1 X429.724 Y152.192 Z-8.999
N15230 G1 X429.73 Y152.392
N15235 G1 X429.735 Y152.592
N15240 G1 X429.714 Z-8.552
N15245 G1 X429.655 Z-8.114
N15250 G1 X429.559 Z-7.688
N15255 G1 X429.426 Z-7.272
N15260 G1 X429.257 Z-6.869
N15265 G1 X429.051 Z-6.479
N15270 G1 X428.817 Z-6.115
N15275 G1 X428.55 Z-5.77
N15280 G1 X428.254 Z-5.45
N15285 G1 X427.93 Z-5.156
N15290 G1 X427.585 Z-4.894
N15295 G1 X427.218 Z-4.661
N15300 G1 X426.826 Z-4.46
N15305 G1 X426.423 Z-4.295
N15310 G1 X426.008 Z-4.166
N15315 G1 X425.588 Z-4.074
N15320 G1 X425.163 Z-4.019
N15325 G1 X424.697 Z-4
N15330 G1 X418.722
N15335 G1 X418.654 Z-3.992
N15340 G1 X418.59 Z-3.969
N15345 G1 X418.525 Z-3.947
N15350 G1 X418.458 Z-3.939
N15355 G2 Y153.392 I0 J0.4
N15360 G1 X418.477
N15365 G1 X418.545 Z-3.947
N15370 G1 X418.609 Z-3.969
N15375 G1 X418.674 Z-3.992
N15380 G1 X418.741 Z-4
N15385 G1 X424.71
N15390 G1 X425.181 Z-4.019
N15395 G1 X425.609 Z-4.075
N15400 G1 X426.031 Z-4.167
N15405 G1 X426.445 Z-4.296
N15410 G1 X426.846 Z-4.46
N15415 G1 X427.231 Z-4.659
N15420 G1 X427.599 Z-4.891
N15425 G1 X427.949 Z-5.156
N15430 G1 X428.272 Z-5.45
N15435 G1 X428.568 Z-5.77
N15440 G1 X428.836 Z-6.115
N15445 G1 X429.069 Z-6.479
N15450 G1 X429.275 Z-6.87
N15455 G1 X429.444 Z-7.273
N15460 G1 X429.577 Z-7.688
N15465 G1 X429.673 Z-8.116
N15470 G1 X429.732 Z-8.554
N15475 G1 X429.753 Z-8.997
N15480 G1 X429.761 Y153.992 Z-8.995
N15485 G1 X429.764 Y154.192
N15490 G1 X429.741 Z-8.528
N15495 G1 X429.68 Z-8.092
N15500 G1 X429.582 Z-7.666
N15505 G1 X429.447 Z-7.252
N15510 G1 X429.276 Z-6.849
N15515 G1 X429.071 Z-6.463
N15520 G1 X428.834 Z-6.098
N15525 G1 X428.566 Z-5.754
N15530 G1 X428.268 Z-5.435
N15535 G1 X427.962 Z-5.157
N15540 G1 X427.612 Z-4.891
N15545 G1 X427.243 Z-4.659
N15550 G1 X426.859 Z-4.461
N15555 G1 X426.457 Z-4.296
N15560 G1 X426.043 Z-4.167
N15565 G1 X425.622 Z-4.075
N15570 G1 X425.194 Z-4.019
N15575 G1 X424.729 Z-4
N15580 G1 X418.754
N15585 G1 X418.686 Z-3.992
N15590 G1 X418.622 Z-3.969
N15595 G1 X418.558 Z-3.947
N15600 G1 X418.49 Z-3.939
N15605 G2 Y154.992 I0 J0.4
N15610 G1 X418.495
N15615 G1 X418.563 Z-3.947
N15620 G1 X418.627 Z-3.969
N15625 G1 X418.692 Z-3.992
N15630 G1 X418.759 Z-4
N15635 G1 X424.729
N15640 G1 X425.201 Z-4.019
N15645 G1 X425.629 Z-4.075
N15650 G1 X426.049 Z-4.167
N15655 G1 X426.463 Z-4.296
N15660 G1 X426.865 Z-4.461
N15665 G1 X427.249 Z-4.659
N15670 G1 X427.617 Z-4.892
N15675 G1 X427.966 Z-5.157
N15680 G1 X428.29 Z-5.45
N15685 G1 X428.586 Z-5.771
N15690 G1 X428.853 Z-6.116
N15695 G1 X429.087 Z-6.481
N15700 G1 X429.29 Z-6.865
N15705 G1 X429.459 Z-7.268
N15710 G1 X429.594 Z-7.69
N15715 G1 X429.69 Z-8.117
N15720 G1 X429.749 Z-8.556
N15725 G1 X429.769 Z-9
N15730 G1 X429.77 Y155.192
N15735 G1 X429.769 Y155.592
N15740 G1 X429.768 Y155.792
N15745 G1 X429.748 Z-8.554
N15750 G1 X429.689 Z-8.115
N15755 G1 X429.592 Z-7.688
N15760 G1 X429.46 Z-7.273
N15765 G1 X429.291 Z-6.87
N15770 G1 X429.088 Z-6.484
N15775 G1 X428.851 Z-6.115
N15780 G1 X428.583 Z-5.769
N15785 G1 X428.287 Z-5.45
N15790 G1 X427.964 Z-5.156
N15795 G1 X427.62 Z-4.894
N15800 G1 X427.251 Z-4.661
N15805 G1 X426.861 Z-4.46
N15810 G1 X426.457 Z-4.295
N15815 G1 X426.044 Z-4.166
N15820 G1 X425.614 Z-4.073
N15825 G1 X425.179 Z-4.018
N15830 G1 X424.753 Z-4
N15835 G1 X418.759
N15840 G1 X418.691 Z-3.992
N15845 G1 X418.627 Z-3.969
N15850 G1 X418.563 Z-3.947
N15855 G1 X418.495 Z-3.939
N15860 G1 X418.493
N15865 G2 Y156.592 I0 J0.4
N15870 G1 X418.561 Z-3.947
N15875 G1 X418.625 Z-3.969
N15880 G1 X418.69 Z-3.992
N15885 G1 X418.757 Z-4
N15890 G1 X424.777
N15895 G1 X425.061 Z-4.01
N15900 G1 X425.245 Z-4.024
N15905 G1 X425.468 Z-4.05
N15910 G1 X425.747 Z-4.097
N15915 G1 X425.972 Z-4.149
N15920 G1 X426.174 Z-4.203
N15925 G1 X426.359 Z-4.262
N15930 G1 X426.55 Z-4.33
N15935 G1 X426.738 Z-4.406
N15940 G1 X426.923 Z-4.49
N15945 G1 X427.112 Z-4.585
N15950 G1 X427.316 Z-4.7
N15955 G1 X427.499 Z-4.814
N15960 G1 X427.67 Z-4.931
N15965 G1 X427.833 Z-5.052
N15970 G1 X427.996 Z-5.184
N15975 G1 X428.147 Z-5.318
N15980 G1 X428.296 Z-5.46
N15985 G1 X428.439 Z-5.609
N15990 G1 X428.596 Z-5.786
N15995 G1 X428.731 Z-5.956
N16000 G1 X428.852 Z-6.119
N16005 G1 X428.965 Z-6.287
N16010 G1 X429.073 Z-6.461
N16015 G1 X429.173 Z-6.64
N16020 G1 X429.269 Z-6.828
N16025 G1 X429.356 Z-7.019
N16030 G1 X429.448 Z-7.246
N16035 G1 X429.52 Z-7.453
N16040 G1 X429.578 Z-7.645
N16045 G1 X429.63 Z-7.843
N16050 G1 X429.672 Z-8.037
N16055 G1 X429.708 Z-8.242
N16060 G1 X429.737 Z-8.468
N16065 G1 X429.758 Z-8.708
N16070 G1 X429.766 Z-8.999
N16075 G1 Y157.392
N16080 G1 X429.758 Z-8.708
N16085 G1 X429.737 Z-8.468
N16090 G1 X429.708 Z-8.242
N16095 G1 X429.672 Z-8.037
N16100 G1 X429.63 Z-7.843
N16105 G1 X429.581 Z-7.656
N16110 G1 X429.52 Z-7.453
N16115 G1 X429.448 Z-7.246
N16120 G1 X429.356 Z-7.019
N16125 G1 X429.269 Z-6.828
N16130 G1 X429.173 Z-6.64
N16135 G1 X429.076 Z-6.466
N16140 G1 X428.969 Z-6.293
N16145 G1 X428.859 Z-6.13
N16150 G1 X428.736 Z-5.961
N16155 G1 X428.6 Z-5.791
N16160 G1 X428.444 Z-5.614
N16165 G1 X428.302 Z-5.466
N16170 G1 X428.149 Z-5.319
N16175 G1 X427.998 Z-5.186
N16180 G1 X427.84 Z-5.057
N16185 G1 X427.678 Z-4.937
N16190 G1 X427.512 Z-4.823
N16195 G1 X427.32 Z-4.702
N16200 G1 X427.116 Z-4.587
N16205 G1 X426.928 Z-4.492
N16210 G1 X426.736 Z-4.405
N16215 G1 X426.541 Z-4.327
N16220 G1 X426.349 Z-4.258
N16225 G1 X426.151 Z-4.197
N16230 G1 X425.96 Z-4.146
N16235 G1 X425.718 Z-4.091
N16240 G1 X425.468 Z-4.05
N16245 G1 X425.245 Z-4.024
N16250 G1 X425.061 Z-4.01
N16255 G1 X424.777 Z-4
N16260 G1 X418.757
N16265 G1 X418.69 Z-3.992
N16270 G1 X418.625 Z-3.969
N16275 G1 X418.561 Z-3.947
N16280 G1 X418.493 Z-3.939
N16285 G2 Y158.192 I0 J0.4
N16290 G1 X418.561 Z-3.947
N16295 G1 X418.625 Z-3.969
N16300 G1 X418.69 Z-3.992
N16305 G1 X418.757 Z-4
N16310 G1 X424.776
N16315 G1 X425.059 Z-4.009
N16320 G1 X425.244 Z-4.024
N16325 G1 X425.466 Z-4.05
N16330 G1 X425.716 Z-4.091
N16335 G1 X425.958 Z-4.145
N16340 G1 X426.15 Z-4.197
N16345 G1 X426.348 Z-4.258
N16350 G1 X426.541 Z-4.326
N16355 G1 X426.728 Z-4.402
N16360 G1 X426.921 Z-4.489
N16365 G1 X427.116 Z-4.588
N16370 G1 X427.32 Z-4.702
N16375 G1 X427.513 Z-4.823
N16380 G1 X427.684 Z-4.94
N16385 G1 X427.84 Z-5.058
N16390 G1 X427.999 Z-5.186
N16395 G1 X428.145 Z-5.316
N16400 G1 X428.294 Z-5.458
N16405 G1 X428.444 Z-5.614
N16410 G1 X428.601 Z-5.792
N16415 G1 X428.736 Z-5.962
N16420 G1 X428.863 Z-6.135
N16425 G1 X428.973 Z-6.299
N16430 G1 X429.08 Z-6.473
N16435 G1 X429.177 Z-6.647
N16440 G1 X429.273 Z-6.835
N16445 G1 X429.359 Z-7.027
N16450 G1 X429.448 Z-7.246
N16455 G1 X429.52 Z-7.453
N16460 G1 X429.581 Z-7.656
N16465 G1 X429.63 Z-7.843
N16470 G1 X429.672 Z-8.037
N16475 G1 X429.708 Z-8.242
N16480 G1 X429.737 Z-8.468
N16485 G1 X429.758 Z-8.708
N16490 G1 X429.766 Z-8.999
N16495 G1 Y158.992
N16500 G1 X429.758 Z-8.708
N16505 G1 X429.737 Z-8.468
N16510 G1 X429.708 Z-8.242
N16515 G1 X429.672 Z-8.037
N16520 G1 X429.627 Z-7.831
N16525 G1 X429.582 Z-7.658
N16530 G1 X429.52 Z-7.454
N16535 G1 X429.449 Z-7.247
N16540 G1 X429.36 Z-7.028
N16545 G1 X429.273 Z-6.836
N16550 G1 X429.177 Z-6.648
N16555 G1 X429.08 Z-6.474
N16560 G1 X428.973 Z-6.299
N16565 G1 X428.864 Z-6.136
N16570 G1 X428.733 Z-5.958
N16575 G1 X428.598 Z-5.788
N16580 G1 X428.445 Z-5.615
N16585 G1 X428.299 Z-5.463
N16590 G1 X428.15 Z-5.32
N16595 G1 X428 Z-5.187
N16600 G1 X427.841 Z-5.059
N16605 G1 X427.68 Z-4.938
N16610 G1 X427.514 Z-4.824
N16615 G1 X427.315 Z-4.699
N16620 G1 X427.117 Z-4.588
N16625 G1 X426.922 Z-4.49
N16630 G1 X426.737 Z-4.406
N16635 G1 X426.55 Z-4.33
N16640 G1 X426.359 Z-4.262
N16645 G1 X426.162 Z-4.2
N16650 G1 X425.972 Z-4.149
N16655 G1 X425.725 Z-4.093
N16660 G1 X425.467 Z-4.05
N16665 G1 X425.245 Z-4.024
N16670 G1 X425.061 Z-4.01
N16675 G1 X424.777 Z-4
N16680 G1 X418.757
N16685 G1 X418.689 Z-3.992
N16690 G1 X418.625 Z-3.969
N16695 G1 X418.561 Z-3.947
N16700 G1 X418.493 Z-3.939
N16705 G2 Y159.792 I0 J0.4
N16710 G1 X418.561 Z-3.947
N16715 G1 X418.625 Z-3.969
N16720 G1 X418.69 Z-3.992
N16725 G1 X418.758 Z-4
N16730 G1 X424.771
N16735 G1 X425.061 Z-4.01
N16740 G1 X425.246 Z-4.024
N16745 G1 X425.49 Z-4.053
N16750 G1 X425.761 Z-4.101
N16755 G1 X425.984 Z-4.152
N16760 G1 X426.162 Z-4.2
N16765 G1 X426.359 Z-4.262
N16770 G1 X426.551 Z-4.33
N16775 G1 X426.737 Z-4.406
N16780 G1 X426.93 Z-4.493
N16785 G1 X427.117 Z-4.588
N16790 G1 X427.315 Z-4.699
N16795 G1 X427.514 Z-4.824
N16800 G1 X427.68 Z-4.938
N16805 G1 X427.841 Z-5.058
N16810 G1 X427.999 Z-5.187
N16815 G1 X428.15 Z-5.32
N16820 G1 X428.299 Z-5.463
N16825 G1 X428.441 Z-5.611
N16830 G1 X428.59 Z-5.78
N16835 G1 X428.726 Z-5.948
N16840 G1 X428.86 Z-6.131
N16845 G1 X428.969 Z-6.294
N16850 G1 X429.08 Z-6.473
N16855 G1 X429.181 Z-6.654
N16860 G1 X429.273 Z-6.836
N16865 G1 X429.36 Z-7.028
N16870 G1 X429.449 Z-7.247
N16875 G1 X429.52 Z-7.454
N16880 G1 X429.585 Z-7.669
N16885 G1 X429.627 Z-7.832
N16890 G1 X429.672 Z-8.037
N16895 G1 X429.708 Z-8.242
N16900 G1 X429.737 Z-8.468
N16905 G1 X429.758 Z-8.708
N16910 G1 X429.766 Z-8.999
N16915 G1 Y160.591
N16920 G1 X429.758 Z-8.708
N16925 G1 X429.737 Z-8.468
N16930 G1 X429.708 Z-8.242
N16935 G1 X429.672 Z-8.037
N16940 G1 X429.627 Z-7.832
N16945 G1 X429.585 Z-7.67
N16950 G1 X429.524 Z-7.464
N16955 G1 X429.449 Z-7.248
N16960 G1 X429.36 Z-7.029
N16965 G1 X429.273 Z-6.837
N16970 G1 X429.181 Z-6.655
N16975 G1 X429.084 Z-6.48
N16980 G1 X428.973 Z-6.3
N16985 G1 X428.864 Z-6.136
N16990 G1 X428.726 Z-5.949
N16995 G1 X428.594 Z-5.784
N17000 G1 X428.446 Z-5.616
N17005 G1 X428.299 Z-5.463
N17010 G1 X428.151 Z-5.321
N17015 G1 X428 Z-5.188
N17020 G1 X427.841 Z-5.059
N17025 G1 X427.68 Z-4.938
N17030 G1 X427.515 Z-4.824
N17035 G1 X427.31 Z-4.696
N17040 G1 X427.112 Z-4.585
N17045 G1 X426.924 Z-4.49
N17050 G1 X426.738 Z-4.406
N17055 G1 X426.551 Z-4.33
N17060 G1 X426.36 Z-4.262
N17065 G1 X426.163 Z-4.201
N17070 G1 X425.986 Z-4.152
N17075 G1 X425.763 Z-4.101
N17080 G1 X425.492 Z-4.054
N17085 G1 X425.261 Z-4.025
N17090 G1 X425.045 Z-4.009
N17095 G1 X424.696 Z-4
N17100 G1 X418.757
N17105 G1 X418.689 Z-3.992
N17110 G1 X418.625 Z-3.969
N17115 G1 X418.561 Z-3.947
N17120 G1 X418.493 Z-3.939
N17125 G2 Y161.391 I0 J0.4
N17130 G1 X418.561 Z-3.947
N17135 G1 X418.625 Z-3.969
N17140 G1 X418.69 Z-3.992
N17145 G1 X418.757 Z-4
N17150 G1 X424.693
N17155 G1 X425.041 Z-4.009
N17160 G1 X425.225 Z-4.022
N17165 G1 X425.492 Z-4.054
N17170 G1 X425.76 Z-4.101
N17175 G1 X425.985 Z-4.152
N17180 G1 X426.173 Z-4.203
N17185 G1 X426.36 Z-4.262
N17190 G1 X426.551 Z-4.331
N17195 G1 X426.738 Z-4.406
N17200 G1 X426.93 Z-4.493
N17205 G1 X427.112 Z-4.585
N17210 G1 X427.31 Z-4.696
N17215 G1 X427.514 Z-4.824
N17220 G1 X427.68 Z-4.938
N17225 G1 X427.836 Z-5.055
N17230 G1 X428 Z-5.187
N17235 G1 X428.15 Z-5.321
N17240 G1 X428.303 Z-5.467
N17245 G1 X428.445 Z-5.616
N17250 G1 X428.594 Z-5.784
N17255 G1 X428.726 Z-5.949
N17260 G1 X428.868 Z-6.142
N17265 G1 X428.977 Z-6.305
N17270 G1 X429.084 Z-6.48
N17275 G1 X429.181 Z-6.655
N17280 G1 X429.277 Z-6.844
N17285 G1 X429.36 Z-7.029
N17290 G1 X429.449 Z-7.248
N17295 G1 X429.521 Z-7.455
N17300 G1 X429.585 Z-7.67
N17305 G1 X429.627 Z-7.832
N17310 G1 X429.672 Z-8.037
N17315 G1 X429.708 Z-8.242
N17320 G1 X429.737 Z-8.468
N17325 G1 X429.758 Z-8.708
N17330 G1 X429.766 Z-8.999
N17335 G1 Y162.191
N17340 G1 X429.758 Z-8.708
N17345 G1 X429.737 Z-8.468
N17350 G1 X429.708 Z-8.242
N17355 G1 X429.672 Z-8.037
N17360 G1 X429.627 Z-7.832
N17365 G1 X429.588 Z-7.68
N17370 G1 X429.521 Z-7.455
N17375 G1 X429.449 Z-7.248
N17380 G1 X429.36 Z-7.029
N17385 G1 X429.277 Z-6.844
N17390 G1 X429.181 Z-6.655
N17395 G1 X429.084 Z-6.48
N17400 G1 X428.977 Z-6.306
N17405 G1 X428.868 Z-6.142
N17410 G1 X428.722 Z-5.944
N17415 G1 X428.591 Z-5.78
N17420 G1 X428.445 Z-5.616
N17425 G1 X428.304 Z-5.467
N17430 G1 X428.151 Z-5.321
N17435 G1 X428.005 Z-5.192
N17440 G1 X427.842 Z-5.059
N17445 G1 X427.685 Z-4.942
N17450 G1 X427.514 Z-4.824
N17455 G1 X427.304 Z-4.693
N17460 G1 X427.111 Z-4.585
N17465 G1 X426.93 Z-4.493
N17470 G1 X426.738 Z-4.406
N17475 G1 X426.552 Z-4.331
N17480 G1 X426.361 Z-4.262
N17485 G1 X426.162 Z-4.201
N17490 G1 X426.001 Z-4.156
N17495 G1 X425.78 Z-4.105
N17500 G1 X425.522 Z-4.058
N17505 G1 X425.261 Z-4.025
N17510 G1 X425.044 Z-4.009
N17515 G1 X424.695 Z-4
N17520 G1 X418.757
N17525 G1 X418.689 Z-3.992
N17530 G1 X418.625 Z-3.969
N17535 G1 X418.56 Z-3.947
N17540 G1 X418.493 Z-3.939
N17545 G2 Y162.991 I0 J0.4
N17550 G1 X418.561 Z-3.947
N17555 G1 X418.625 Z-3.969
N17560 G1 X418.69 Z-3.992
N17565 G1 X418.757 Z-4
N17570 G1 X424.694
N17575 G1 X425.042 Z-4.009
N17580 G1 X425.259 Z-4.025
N17585 G1 X425.534 Z-4.059
N17590 G1 X425.776 Z-4.104
N17595 G1 X425.999 Z-4.155
N17600 G1 X426.162 Z-4.201
N17605 G1 X426.361 Z-4.262
N17610 G1 X426.552 Z-4.331
N17615 G1 X426.739 Z-4.407
N17620 G1 X426.931 Z-4.494
N17625 G1 X427.112 Z-4.586
N17630 G1 X427.304 Z-4.693
N17635 G1 X427.514 Z-4.824
N17640 G1 X427.685 Z-4.942
N17645 G1 X427.842 Z-5.059
N17650 G1 X428.005 Z-5.192
N17655 G1 X428.155 Z-5.325
N17660 G1 X428.303 Z-5.467
N17665 G1 X428.441 Z-5.612
N17670 G1 X428.587 Z-5.776
N17675 G1 X428.719 Z-5.939
N17680 G1 X428.868 Z-6.142
N17685 G1 X428.977 Z-6.306
N17690 G1 X429.084 Z-6.48
N17695 G1 X429.181 Z-6.655
N17700 G1 X429.277 Z-6.844
N17705 G1 X429.363 Z-7.037
N17710 G1 X429.449 Z-7.248
N17715 G1 X429.521 Z-7.454
N17720 G1 X429.588 Z-7.68
N17725 G1 X429.627 Z-7.833
N17730 G1 X429.672 Z-8.037
N17735 G1 X429.708 Z-8.242
N17740 G1 X429.737 Z-8.468
N17745 G1 X429.758 Z-8.708
N17750 G1 X429.766 Z-8.999
N17755 G1 Y163.791
N17760 G1 X429.758 Z-8.708
N17765 G1 X429.737 Z-8.468
N17770 G1 X429.708 Z-8.242
N17775 G1 X429.672 Z-8.037
N17780 G1 X429.63 Z-7.846
N17785 G1 X429.588 Z-7.68
N17790 G1 X429.521 Z-7.454
N17795 G1 X429.449 Z-7.248
N17800 G1 X429.363 Z-7.037
N17805 G1 X429.277 Z-6.844
N17810 G1 X429.184 Z-6.662
N17815 G1 X429.087 Z-6.486
N17820 G1 X428.977 Z-6.306
N17825 G1 X428.868 Z-6.142
N17830 G1 X428.719 Z-5.939
N17835 G1 X428.587 Z-5.776
N17840 G1 X428.445 Z-5.616
N17845 G1 X428.304 Z-5.467
N17850 G1 X428.155 Z-5.325
N17855 G1 X428.005 Z-5.191
N17860 G1 X427.846 Z-5.063
N17865 G1 X427.685 Z-4.942
N17870 G1 X427.514 Z-4.824
N17875 G1 X427.304 Z-4.693
N17880 G1 X427.118 Z-4.589
N17885 G1 X426.93 Z-4.493
N17890 G1 X426.738 Z-4.406
N17895 G1 X426.551 Z-4.33
N17900 G1 X426.36 Z-4.262
N17905 G1 X426.162 Z-4.201
N17910 G1 X425.998 Z-4.155
N17915 G1 X425.775 Z-4.104
N17920 G1 X425.533 Z-4.059
N17925 G1 X425.259 Z-4.025
N17930 G1 X425.042 Z-4.009
N17935 G1 X424.726 Z-4
N17940 G1 X418.757
N17945 G1 X418.689 Z-3.992
N17950 G1 X418.625 Z-3.969
N17955 G1 X418.561 Z-3.947
N17960 G1 X418.493 Z-3.939
N17965 G2 Y164.591 I0 J0.4
N17970 G1 X418.56 Z-3.947
N17975 G1 X418.625 Z-3.969
N17980 G1 X418.689 Z-3.992
N17985 G1 X418.757 Z-4
N17990 G1 X424.696
N17995 G1 X425.044 Z-4.009
N18000 G1 X425.261 Z-4.025
N18005 G1 X425.536 Z-4.06
N18010 G1 X425.778 Z-4.105
N18015 G1 X426.001 Z-4.156
N18020 G1 X426.163 Z-4.201
N18025 G1 X426.361 Z-4.262
N18030 G1 X426.561 Z-4.334
N18035 G1 X426.739 Z-4.407
N18040 G1 X426.931 Z-4.494
N18045 G1 X427.118 Z-4.589
N18050 G1 X427.304 Z-4.693
N18055 G1 X427.514 Z-4.824
N18060 G1 X427.685 Z-4.942
N18065 G1 X427.846 Z-5.063
N18070 G1 X428.005 Z-5.191
N18075 G1 X428.155 Z-5.325
N18080 G1 X428.308 Z-5.471
N18085 G1 X428.445 Z-5.616
N18090 G1 X428.583 Z-5.771
N18095 G1 X428.715 Z-5.934
N18100 G1 X428.868 Z-6.141
N18105 G1 X428.977 Z-6.306
N18110 G1 X429.087 Z-6.485
N18115 G1 X429.184 Z-6.662
N18120 G1 X429.28 Z-6.85
N18125 G1 X429.363 Z-7.037
N18130 G1 X429.449 Z-7.248
N18135 G1 X429.521 Z-7.454
N18140 G1 X429.588 Z-7.68
N18145 G1 X429.627 Z-7.833
N18150 G1 X429.672 Z-8.037
N18155 G1 X429.708 Z-8.242
N18160 G1 X429.737 Z-8.468
N18165 G1 X429.758 Z-8.708
N18170 G1 X429.766 Z-8.999
N18175 G1 Y165.391
N18180 G1 X429.758 Z-8.708
N18185 G1 X429.737 Z-8.468
N18190 G1 X429.708 Z-8.242
N18195 G1 X429.672 Z-8.037
N18200 G1 X429.627 Z-7.834
N18205 G1 X429.588 Z-7.68
N18210 G1 X429.517 Z-7.445
N18215 G1 X429.446 Z-7.24
N18220 G1 X429.36 Z-7.03
N18225 G1 X429.28 Z-6.85
N18230 G1 X429.184 Z-6.662
N18235 G1 X429.087 Z-6.486
N18240 G1 X428.977 Z-6.306
N18245 G1 X428.871 Z-6.147
N18250 G1 X428.715 Z-5.934
N18255 G1 X428.583 Z-5.771
N18260 G1 X428.441 Z-5.612
N18265 G1 X428.308 Z-5.471
N18270 G1 X428.154 Z-5.325
N18275 G1 X428.009 Z-5.195
N18280 G1 X427.851 Z-5.066
N18285 G1 X427.69 Z-4.945
N18290 G1 X427.52 Z-4.828
N18295 G1 X427.304 Z-4.693
N18300 G1 X427.118 Z-4.589
N18305 G1 X426.931 Z-4.494
N18310 G1 X426.738 Z-4.407
N18315 G1 X426.56 Z-4.334
N18320 G1 X426.361 Z-4.262
N18325 G1 X426.161 Z-4.201
N18330 G1 X425.998 Z-4.155
N18335 G1 X425.775 Z-4.104
N18340 G1 X425.535 Z-4.06
N18345 G1 X425.261 Z-4.025
N18350 G1 X425.044 Z-4.009
N18355 G1 X424.744 Z-4
N18360 G1 X418.757
N18365 G1 X418.689 Z-3.992
N18370 G1 X418.625 Z-3.969
N18375 G1 X418.561 Z-3.947
N18380 G1 X418.493 Z-3.939
N18385 G2 Y166.191 I0 J0.4
N18390 G1 X418.56 Z-3.947
N18395 G1 X418.625 Z-3.969
N18400 G1 X418.689 Z-3.992
N18405 G1 X418.757 Z-4
N18410 G1 X424.728
N18415 G1 X425.044 Z-4.009
N18420 G1 X425.261 Z-4.025
N18425 G1 X425.552 Z-4.063
N18430 G1 X425.775 Z-4.104
N18435 G1 X425.998 Z-4.155
N18440 G1 X426.161 Z-4.201
N18445 G1 X426.361 Z-4.262
N18450 G1 X426.56 Z-4.334
N18455 G1 X426.746 Z-4.41
N18460 G1 X426.937 Z-4.497
N18465 G1 X427.118 Z-4.589
N18470 G1 X427.304 Z-4.693
N18475 G1 X427.52 Z-4.828
N18480 G1 X427.691 Z-4.945
N18485 G1 X427.851 Z-5.067
N18490 G1 X428.01 Z-5.196
N18495 G1 X428.15 Z-5.321
N18500 G1 X428.304 Z-5.468
N18505 G1 X428.437 Z-5.608
N18510 G1 X428.575 Z-5.762
N18515 G1 X428.711 Z-5.93
N18520 G1 X428.871 Z-6.147
N18525 G1 X428.98 Z-6.312
N18530 G1 X429.091 Z-6.492
N18535 G1 X429.184 Z-6.662
N18540 G1 X429.28 Z-6.85
N18545 G1 X429.363 Z-7.038
N18550 G1 X429.446 Z-7.24
N18555 G1 X429.517 Z-7.445
N18560 G1 X429.588 Z-7.68
N18565 G1 X429.627 Z-7.834
N18570 G1 X429.672 Z-8.037
N18575 G1 X429.708 Z-8.242
N18580 G1 X429.737 Z-8.468
N18585 G1 X429.758 Z-8.708
N18590 G1 X429.766 Z-8.999
N18595 G1 Y166.991
N18600 G1 X429.758 Z-8.708
N18605 G1 X429.737 Z-8.468
N18610 G1 X429.708 Z-8.242
N18615 G1 X429.672 Z-8.037
N18620 G1 X429.624 Z-7.822
N18625 G1 X429.588 Z-7.679
N18630 G1 X429.514 Z-7.436
N18635 G1 X429.443 Z-7.232
N18640 G1 X429.363 Z-7.038
N18645 G1 X429.28 Z-6.85
N18650 G1 X429.184 Z-6.662
N18655 G1 X429.091 Z-6.491
N18660 G1 X428.984 Z-6.317
N18665 G1 X428.871 Z-6.147
N18670 G1 X428.707 Z-5.925
N18675 G1 X428.575 Z-5.762
N18680 G1 X428.437 Z-5.608
N18685 G1 X428.308 Z-5.471
N18690 G1 X428.159 Z-5.329
N18695 G1 X428.009 Z-5.195
N18700 G1 X427.846 Z-5.063
N18705 G1 X427.69 Z-4.945
N18710 G1 X427.52 Z-4.828
N18715 G1 X427.304 Z-4.693
N18720 G1 X427.118 Z-4.589
N18725 G1 X426.937 Z-4.497
N18730 G1 X426.746 Z-4.41
N18735 G1 X426.56 Z-4.334
N18740 G1 X426.37 Z-4.265
N18745 G1 X426.172 Z-4.204
N18750 G1 X426.013 Z-4.159
N18755 G1 X425.792 Z-4.108
N18760 G1 X425.608 Z-4.072
N18765 G1 X425.324 Z-4.031
N18770 G1 X425.106 Z-4.012
N18775 G1 X424.76 Z-4
N18780 G1 X418.757
N18785 G1 X418.69 Z-3.992
N18790 G1 X418.625 Z-3.969
N18795 G1 X418.561 Z-3.947
N18800 G1 X418.493 Z-3.939
N18805 G2 Y167.791 I0 J0.4
N18810 G1 X418.561 Z-3.947
N18815 G1 X418.625 Z-3.969
N18820 G1 X418.689 Z-3.992
N18825 G1 X418.757 Z-4
N18830 G1 X424.748
N18835 G1 X425.048 Z-4.009
N18840 G1 X425.264 Z-4.026
N18845 G1 X425.573 Z-4.066
N18850 G1 X425.777 Z-4.105
N18855 G1 X426 Z-4.156
N18860 G1 X426.141 Z-4.195
N18865 G1 X426.362 Z-4.263
N18870 G1 X426.561 Z-4.334
N18875 G1 X426.746 Z-4.41
N18880 G1 X426.938 Z-4.497
N18885 G1 X427.118 Z-4.589
N18890 G1 X427.305 Z-4.693
N18895 G1 X427.52 Z-4.828
N18900 G1 X427.691 Z-4.946
N18905 G1 X427.846 Z-5.063
N18910 G1 X428.01 Z-5.196
N18915 G1 X428.159 Z-5.329
N18920 G1 X428.308 Z-5.472
N18925 G1 X428.441 Z-5.612
N18930 G1 X428.575 Z-5.762
N18935 G1 X428.707 Z-5.925
N18940 G1 X428.871 Z-6.146
N18945 G1 X428.98 Z-6.311
N18950 G1 X429.091 Z-6.491
N18955 G1 X429.187 Z-6.668
N18960 G1 X429.28 Z-6.85
N18965 G1 X429.363 Z-7.038
N18970 G1 X429.443 Z-7.232
N18975 G1 X429.514 Z-7.436
N18980 G1 X429.588 Z-7.679
N18985 G1 X429.624 Z-7.822
N18990 G1 X429.672 Z-8.037
N18995 G1 X429.708 Z-8.242
N19000 G1 X429.737 Z-8.468
N19005 G1 X429.758 Z-8.708
N19010 G1 X429.766 Z-8.999
N19015 G1 Y168.591
N19020 G1 X429.758 Z-8.708
N19025 G1 X429.737 Z-8.468
N19030 G1 X429.708 Z-8.242
N19035 G1 X429.672 Z-8.037
N19040 G1 X429.621 Z-7.81
N19045 G1 X429.588 Z-7.679
N19050 G1 X429.514 Z-7.436
N19055 G1 X429.443 Z-7.232
N19060 G1 X429.363 Z-7.038
N19065 G1 X429.28 Z-6.85
N19070 G1 X429.184 Z-6.662
N19075 G1 X429.091 Z-6.491
N19080 G1 X428.98 Z-6.312
N19085 G1 X428.875 Z-6.152
N19090 G1 X428.704 Z-5.92
N19095 G1 X428.571 Z-5.758
N19100 G1 X428.433 Z-5.603
N19105 G1 X428.308 Z-5.471
N19110 G1 X428.159 Z-5.329
N19115 G1 X428.014 Z-5.199
N19120 G1 X427.851 Z-5.066
N19125 G1 X427.69 Z-4.945
N19130 G1 X427.52 Z-4.828
N19135 G1 X427.31 Z-4.696
N19140 G1 X427.118 Z-4.589
N19145 G1 X426.937 Z-4.497
N19150 G1 X426.746 Z-4.41
N19155 G1 X426.561 Z-4.334
N19160 G1 X426.37 Z-4.265
N19165 G1 X426.172 Z-4.204
N19170 G1 X426.013 Z-4.159
N19175 G1 X425.79 Z-4.107
N19180 G1 X425.607 Z-4.072
N19185 G1 X425.323 Z-4.031
N19190 G1 X425.105 Z-4.012
N19195 G1 X424.767 Z-4
N19200 G1 X418.757
N19205 G1 X418.69 Z-3.992
N19210 G1 X418.625 Z-3.969
N19215 G1 X418.561 Z-3.947
N19220 G1 X418.493 Z-3.939
N19225 G2 Y169.391 I0 J0.4
N19230 G1 X418.561 Z-3.947
N19235 G1 X418.625 Z-3.969
N19240 G1 X418.689 Z-3.992
N19245 G1 X418.757 Z-4
N19250 G1 X424.765
N19255 G1 X425.053 Z-4.01
N19260 G1 X425.33 Z-4.032
N19265 G1 X425.607 Z-4.072
N19270 G1 X425.79 Z-4.108
N19275 G1 X426.013 Z-4.159
N19280 G1 X426.171 Z-4.204
N19285 G1 X426.371 Z-4.266
N19290 G1 X426.561 Z-4.334
N19295 G1 X426.746 Z-4.41
N19300 G1 X426.938 Z-4.497
N19305 G1 X427.118 Z-4.589
N19310 G1 X427.311 Z-4.697
N19315 G1 X427.52 Z-4.828
N19320 G1 X427.691 Z-4.945
N19325 G1 X427.851 Z-5.067
N19330 G1 X428.014 Z-5.199
N19335 G1 X428.159 Z-5.329
N19340 G1 X428.308 Z-5.472
N19345 G1 X428.433 Z-5.604
N19350 G1 X428.572 Z-5.758
N19355 G1 X428.704 Z-5.92
N19360 G1 X428.875 Z-6.152
N19365 G1 X428.98 Z-6.312
