%
(RoundedOutline)
(RoundedOutline)
(T1 D=6 CR=0 - ZMIN=-21.168 - flat end mill)
N10 G90 G94
N15 G17
N20 G21
N25 G28 G91 Z0
N30 G90

(RoundedOutline)
N35 T1 M6
N40 S14000 M3
N45 G54
N50 G0 X305.27 Y74.526
N55 G0 G43 Z15 H1
N60 G0 Z-5.037
N65 G1 Z-6.404 F1000
N70 G18 G3 X304.62 Z-7.002 I-0.6 K0
N75 G1 X302.968 Z-6.863 F840
N80 G1 X301.874 Z-6.793
N85 G1 X301.301 Z-6.775
N90 G1 X301.004 Z-6.784
N95 G1 X300.918 Z-6.803
N100 G1 X300.904 Z-6.816
N105 G1 X300.89 Z-7
N110 G1 X300.276 Y74.672 Z-6.999
N115 G1 X300.072 Y74.721
N120 G1 X299.05 Y74.97 Z-6.998
N125 G1 X298.846 Y75.02 Z-6.997
N130 G1 X297.622 Y75.326 Z-6.996
N135 G1 X297.702 Z-6.559
N140 G1 X297.757 Z-6.43
N145 G1 X297.786 Z-6.412
N150 G1 X297.914 Z-6.394
N155 G1 X298.262 Z-6.389
N160 G1 X298.933 Z-6.414
N165 G1 X300.157 Z-6.494
N170 G1 X302.002 Z-6.651
N175 G1 X305.149 Z-6.955
N180 G1 X305.204
N185 G1 X305.258 Z-6.945
N190 G1 X305.31 Z-6.926
N195 G1 X305.374 Z-6.903
N200 G1 X305.442 Z-6.895
N205 G1 X305.483 Y75.327 Z-6.894
N210 G1 X305.524 Y75.333 Z-6.892
N215 G1 X305.564 Y75.341 Z-6.887
N220 G1 X305.604 Y75.353 Z-6.881
N225 G1 X305.642 Y75.368 Z-6.874
N230 G1 X305.678 Y75.386 Z-6.865
N235 G1 X305.712 Y75.407 Z-6.854
N240 G1 X305.744 Y75.43 Z-6.842
N245 G1 X305.773 Y75.456 Z-6.829
N250 G1 X305.799 Y75.485 Z-6.815
N255 G1 X305.823 Y75.515 Z-6.8
N260 G1 X305.843 Y75.547 Z-6.784
N265 G1 X305.859 Y75.581 Z-6.767
N270 G1 X305.873 Y75.616 Z-6.749
N275 G1 X305.882 Y75.652 Z-6.731
N280 G1 X305.888 Y75.689 Z-6.712
N285 G1 X305.89 Y75.726 Z-6.694
N290 G1 X305.888 Y75.763 Z-6.675
N295 G1 X305.882 Y75.799 Z-6.657
N300 G1 X305.873 Y75.835 Z-6.639
N305 G1 X305.859 Y75.87 Z-6.621
N310 G1 X305.843 Y75.904 Z-6.604
N315 G1 X305.823 Y75.936 Z-6.588
N320 G1 X305.799 Y75.967 Z-6.573
N325 G1 X305.773 Y75.995 Z-6.559
N330 G1 X305.744 Y76.021 Z-6.545
N335 G1 X305.712 Y76.045 Z-6.534
N340 G1 X305.678 Y76.066 Z-6.523
N345 G1 X305.642 Y76.084 Z-6.514
N350 G1 X305.604 Y76.099 Z-6.507
N355 G1 X305.564 Y76.11 Z-6.501
N360 G1 X305.524 Y76.119 Z-6.496
N365 G1 X305.483 Y76.124 Z-6.494
N370 G1 X305.442 Y76.126 Z-6.493
N375 G1 X302.233
N380 G1 X302.165 Z-6.501
N385 G1 X302.101 Z-6.524
N390 G1 X302.049 Z-6.543
N395 G1 X301.995 Z-6.553
N400 G1 X301.941
N405 G1 X298.944 Z-6.274
N410 G1 X297.156 Z-6.13
N415 G1 X295.977 Z-6.058
N420 G1 X295.4 Z-6.039
N425 G1 X295.023 Z-6.045
N430 G1 X294.889 Z-6.064
N435 G1 X294.857 Z-6.082
N440 G1 X294.814 Z-6.141
N445 G1 X294.596 Z-6.565
N450 G1 X294.523 Z-6.994
N455 G1 X293.413 Y76.422 Z-6.996
N460 G1 X293.228 Y76.471 Z-6.997
N465 G1 X291.934 Y76.823 Z-6.999
N470 G1 X291.75 Y76.874 Z-7
N475 G1 X291.565 Y76.926
N480 G1 X291.636 Z-6.564
N485 G1 X291.845 Z-6.138
N490 G1 X292.15 Z-5.763
N495 G1 X292.183 Z-5.744
N500 G1 X292.336 Z-5.724
N505 G1 X292.757 Z-5.718
N510 G1 X293.309 Z-5.736
N515 G1 X294.478 Z-5.805
N520 G1 X296.147 Z-5.934
N525 G1 X299.008 Z-6.191
N530 G1 X299.062
N535 G1 X299.115 Z-6.181
N540 G1 X299.166 Z-6.162
N545 G1 X299.231 Z-6.139
N550 G1 X299.298 Z-6.131
N555 G1 X299.338 Y76.927 Z-6.13
N560 G1 X299.378 Y76.932 Z-6.128
N565 G1 X299.417 Y76.941 Z-6.125
N570 G1 X299.455 Y76.953 Z-6.12
N575 G1 X299.491 Y76.968 Z-6.114
N580 G1 X299.526 Y76.986 Z-6.106
N585 G1 X299.559 Y77.006 Z-6.098
N590 G1 X299.59 Y77.03 Z-6.088
N595 G1 X299.618 Y77.056 Z-6.077
N600 G1 X299.644 Y77.085 Z-6.065
N605 G1 X299.666 Y77.115 Z-6.053
N610 G1 X299.686 Y77.147 Z-6.039
N615 G1 X299.702 Y77.181 Z-6.026
N620 G1 X299.715 Y77.216 Z-6.011
N625 G1 X299.724 Y77.252 Z-5.996
N630 G1 X299.729 Y77.289 Z-5.981
N635 G1 X299.731 Y77.326 Z-5.966
N640 G1 X299.729 Y77.363 Z-5.951
N645 G1 X299.724 Y77.399 Z-5.935
N650 G1 X299.715 Y77.435 Z-5.921
N655 G1 X299.702 Y77.47 Z-5.906
N660 G1 X299.686 Y77.504 Z-5.892
N665 G1 X299.666 Y77.536 Z-5.879
N670 G1 X299.644 Y77.567 Z-5.866
N675 G1 X299.618 Y77.595 Z-5.855
N680 G1 X299.59 Y77.621 Z-5.844
N685 G1 X299.559 Y77.645 Z-5.834
N690 G1 X299.526 Y77.666 Z-5.825
N695 G1 X299.491 Y77.684 Z-5.818
N700 G1 X299.455 Y77.699 Z-5.812
N705 G1 X299.417 Y77.71 Z-5.807
N710 G1 X299.378 Y77.719 Z-5.803
N715 G1 X299.338 Y77.724 Z-5.801
N720 G1 X299.298 Y77.726
N725 G1 X296.575
N730 G1 X296.507 Z-5.808
N735 G1 X296.443 Z-5.831
N740 G1 X296.392 Z-5.851
N745 G1 X296.339 Z-5.861
N750 G1 X296.285
N755 G1 X293.42 Z-5.613
N760 G1 X291.751 Z-5.491
N765 G1 X290.636 Z-5.433
N770 G1 X290.042 Z-5.421
N775 G1 X289.734 Z-5.433
N780 G1 X289.626 Z-5.454
N785 G1 X289.587 Z-5.484
N790 G1 X289.344 Z-5.708
N795 G1 X289 Z-6.137
N800 G1 X288.797 Z-6.566
N805 G1 X288.728 Z-7
N810 G1 X287.703 Y78.022 Z-6.999
N815 G1 X287.533 Y78.072
N820 G1 X286.338 Y78.424 Z-6.998
N825 G1 X286.168 Y78.475
N830 G1 X285.997 Y78.526
N835 G1 X286.063 Z-6.566
N840 G1 X286.26 Z-6.136
N845 G1 X286.589 Z-5.713
N850 G1 X287.042 Z-5.306
N855 G1 X287.186 Z-5.195
N860 G1 X287.231 Z-5.172
N865 G1 X287.384 Z-5.152
N870 G1 X287.822 Z-5.146
N875 G1 X288.275 Z-5.157
N880 G1 X289.386 Z-5.214
N885 G1 X290.986 Z-5.327
N890 G1 X293.722 Z-5.556
N895 G1 X293.776
N900 G1 X293.829 Z-5.546
N905 G1 X293.879 Z-5.526
N910 G1 X293.943 Z-5.503
N915 G1 X294.011 Z-5.496
N920 G1 X294.05 Y78.527 Z-5.495
N925 G1 X294.089 Y78.532 Z-5.493
N930 G1 X294.127 Y78.541 Z-5.49
N935 G1 X294.164 Y78.553 Z-5.486
N940 G1 X294.2 Y78.568 Z-5.481
N945 G1 X294.235 Y78.586 Z-5.475
N950 G1 X294.267 Y78.606 Z-5.467
N955 G1 X294.297 Y78.63 Z-5.459
N960 G1 X294.325 Y78.656 Z-5.45
N965 G1 X294.35 Y78.685 Z-5.439
N970 G1 X294.372 Y78.715 Z-5.429
N975 G1 X294.391 Y78.747 Z-5.417
N980 G1 X294.407 Y78.781 Z-5.405
N985 G1 X294.419 Y78.816 Z-5.393
N990 G1 X294.428 Y78.852 Z-5.38
N995 G1 X294.434 Y78.889 Z-5.367
N1000 G1 X294.435 Y78.926 Z-5.354
N1005 G1 X294.434 Y78.963 Z-5.341
N1010 G1 X294.428 Y78.999 Z-5.328
N1015 G1 X294.419 Y79.035 Z-5.315
N1020 G1 X294.407 Y79.07 Z-5.303
N1025 G1 X294.391 Y79.104 Z-5.291
N1030 G1 X294.372 Y79.136 Z-5.28
N1035 G1 X294.35 Y79.167 Z-5.269
N1040 G1 X294.325 Y79.195 Z-5.259
N1045 G1 X294.297 Y79.221 Z-5.249
N1050 G1 X294.267 Y79.245 Z-5.241
N1055 G1 X294.235 Y79.266 Z-5.234
N1060 G1 X294.2 Y79.284 Z-5.227
N1065 G1 X294.164 Y79.299 Z-5.222
N1070 G1 X294.127 Y79.31 Z-5.218
N1075 G1 X294.089 Y79.319 Z-5.215
N1080 G1 X294.05 Y79.324 Z-5.213
N1085 G1 X294.011 Y79.326
N1090 G1 X291.585
N1095 G1 X291.517 Z-5.22
N1100 G1 X291.453 Z-5.243
N1105 G1 X291.403 Z-5.262
N1110 G1 X291.35 Z-5.272
N1115 G1 X291.297 Z-5.273
N1120 G1 X288.588 Z-5.055
N1125 G1 X286.994 Z-4.947
N1130 G1 X285.915 Z-4.897
N1135 G1 X285.385 Z-4.887
N1140 G1 X285.03 Z-4.9
N1145 G1 X284.913 Z-4.921
N1150 G1 X284.829 Z-4.977
N1155 G1 X284.382 Z-5.297
N1160 G1 X283.936 Z-5.711
N1165 G1 X283.616 Z-6.134
N1170 G1 X283.422 Z-6.567
N1175 G1 X283.36 Z-6.993
N1180 G1 X282.082 Y79.723 Z-6.997
N1185 G1 X281.763 Y79.823
N1190 G1 X280.806 Y80.126 Z-7
N1195 G1 X280.869 Z-6.566
N1200 G1 X281.055 Z-6.14
N1205 G1 X281.365 Z-5.715
N1210 G1 X281.797 Z-5.298
N1215 G1 X282.344 Z-4.901
N1220 G1 X282.699 Z-4.684
N1225 G1 X282.782 Z-4.664
N1230 G1 X283.063 Z-4.648
N1235 G1 X283.676 Z-4.654
N1240 G1 X284.687 Z-4.697
N1245 G1 X286.278 Z-4.798
N1250 G1 X289.008 Z-5.01
N1255 G1 X289.061
N1260 G1 X289.113 Z-5
N1265 G1 X289.163 Z-4.981
N1270 G1 X289.227 Z-4.958
N1275 G1 X289.295 Z-4.95
N1280 G1 X289.334 Y80.127
N1285 G1 X289.372 Y80.132 Z-4.948
N1290 G1 X289.41 Y80.141 Z-4.945
N1295 G1 X289.446 Y80.153 Z-4.942
N1300 G1 X289.482 Y80.168 Z-4.937
N1305 G1 X289.515 Y80.185 Z-4.932
N1310 G1 X289.547 Y80.206 Z-4.925
N1315 G1 X289.577 Y80.23 Z-4.918
N1320 G1 X289.604 Y80.256 Z-4.91
N1325 G1 X289.629 Y80.285 Z-4.901
N1330 G1 X289.651 Y80.315 Z-4.892
N1335 G1 X289.67 Y80.347 Z-4.882
N1340 G1 X289.685 Y80.381 Z-4.871
N1345 G1 X289.698 Y80.416 Z-4.861
N1350 G1 X289.706 Y80.452 Z-4.849
N1355 G1 X289.712 Y80.489 Z-4.838
N1360 G1 X289.714 Y80.526 Z-4.827
N1365 G1 X289.712 Y80.562 Z-4.815
N1370 G1 X289.706 Y80.599 Z-4.804
N1375 G1 X289.698 Y80.635 Z-4.793
N1380 G1 X289.685 Y80.67 Z-4.782
N1385 G1 X289.67 Y80.704 Z-4.772
N1390 G1 X289.651 Y80.736 Z-4.762
N1395 G1 X289.629 Y80.767 Z-4.753
N1400 G1 X289.604 Y80.795 Z-4.744
N1405 G1 X289.577 Y80.821 Z-4.736
N1410 G1 X289.547 Y80.845 Z-4.728
N1415 G1 X289.515 Y80.866 Z-4.722
N1420 G1 X289.482 Y80.884 Z-4.716
N1425 G1 X289.446 Y80.899 Z-4.712
N1430 G1 X289.41 Y80.91 Z-4.708
N1435 G1 X289.372 Y80.919 Z-4.706
N1440 G1 X289.334 Y80.924 Z-4.704
N1445 G1 X289.295 Y80.926
N1450 G1 X287.094
N1455 G1 X287.027 Z-4.711
N1460 G1 X286.962 Z-4.734
N1465 G1 X286.913 Z-4.753
N1470 G1 X286.861 Z-4.763
N1475 G1 X286.808 Z-4.764
N1480 G1 X284.099 Z-4.561
N1485 G1 X282.501 Z-4.464
N1490 G1 X281.509 Z-4.425
N1495 G1 X280.931 Z-4.422
N1500 G1 X280.663 Z-4.439
N1505 G1 X280.578 Z-4.461
N1510 G1 X280.397 Z-4.562
N1515 G1 X279.831 Z-4.897
N1520 G1 X279.29 Z-5.299
N1525 G1 X278.872 Z-5.713
N1530 G1 X278.569 Z-6.14
N1535 G1 X278.387 Z-6.572
N1540 G1 X278.33 Z-6.981
N1545 G1 X277.125 Y81.323 Z-6.99
N1550 G1 X276.824 Y81.423 Z-6.993
N1555 G1 X275.921 Y81.726 Z-7
N1560 G1 X275.981 Z-6.563
N1565 G1 X276.156 Z-6.14
N1570 G1 X276.452 Z-5.712
N1575 G1 X276.861 Z-5.297
N1580 G1 X277.387 Z-4.896
N1585 G1 X278.017 Z-4.514
N1590 G1 X278.534 Z-4.251
N1595 G1 X278.608 Z-4.229
N1600 G1 X278.857 Z-4.21
N1605 G1 X279.482 Z-4.212
N1610 G1 X280.447 Z-4.247
N1615 G1 X282.015 Z-4.338
N1620 G1 X284.699 Z-4.533
N1625 G1 X284.752 Z-4.532
N1630 G1 X284.804 Z-4.522
N1635 G1 X284.853 Z-4.503
N1640 G1 X284.917 Z-4.48
N1645 G1 X284.985 Z-4.472
N1650 G1 X285.026 Y81.727
N1655 G1 X285.066 Y81.733 Z-4.47
N1660 G1 X285.105 Y81.743 Z-4.468
N1665 G1 X285.144 Y81.756 Z-4.464
N1670 G1 X285.18 Y81.773 Z-4.459
N1675 G1 X285.215 Y81.793 Z-4.454
N1680 G1 X285.248 Y81.816 Z-4.448
N1685 G1 X285.278 Y81.843 Z-4.44
N1690 G1 X285.305 Y81.872 Z-4.432
N1695 G1 X285.33 Y81.903 Z-4.424
N1700 G1 X285.35 Y81.937 Z-4.415
N1705 G1 X285.368 Y81.972 Z-4.405
N1710 G1 X285.382 Y82.009 Z-4.395
N1715 G1 X285.391 Y82.047 Z-4.385
N1720 G1 X285.397 Y82.086 Z-4.374
N1725 G1 X285.399 Y82.126 Z-4.363
N1730 G1 X285.397 Y82.165 Z-4.353
N1735 G1 X285.391 Y82.204 Z-4.342
N1740 G1 X285.382 Y82.242 Z-4.332
N1745 G1 X285.368 Y82.279 Z-4.322
N1750 G1 X285.35 Y82.314 Z-4.312
N1755 G1 X285.33 Y82.348 Z-4.303
N1760 G1 X285.305 Y82.379 Z-4.294
N1765 G1 X285.278 Y82.408 Z-4.287
N1770 G1 X285.248 Y82.435 Z-4.279
N1775 G1 X285.215 Y82.458 Z-4.273
N1780 G1 X285.18 Y82.478 Z-4.268
N1785 G1 X285.144 Y82.495 Z-4.263
N1790 G1 X285.105 Y82.508 Z-4.259
N1795 G1 X285.066 Y82.518 Z-4.257
N1800 G1 X285.026 Y82.524 Z-4.255
N1805 G1 X284.985 Y82.526
N1810 G1 X282.956
N1815 G1 X282.889 Z-4.262
N1820 G1 X282.824 Z-4.285
N1825 G1 X282.775 Z-4.304
N1830 G1 X282.724 Z-4.314
N1835 G1 X282.671 Z-4.315
N1840 G1 X280.018 Z-4.13
N1845 G1 X278.462 Z-4.043
N1850 G1 X277.47 Z-4.009
N1855 G1 X276.857 Z-4.011
N1860 G1 X276.632 Z-4.03
N1865 G1 X276.562 Z-4.051
N1870 G1 X276.329 Z-4.157
N1875 G1 X275.623 Z-4.512
N1880 G1 X275.004 Z-4.899
N1885 G1 X274.495 Z-5.298
N1890 G1 X274.094 Z-5.711
N1895 G1 X273.804 Z-6.137
N1900 G1 X273.632 Z-6.569
N1905 G1 X273.576 Z-6.991
N1910 G1 X272.432 Y82.923 Z-6.996
N1915 G1 X272.146 Y83.023 Z-6.997
N1920 G1 X271.289 Y83.325 Z-7
N1925 G1 X271.346 Z-6.563
N1930 G1 X271.514 Z-6.14
N1935 G1 X271.795 Z-5.714
N1940 G1 X272.187 Z-5.298
N1945 G1 X272.687 Z-4.897
N1950 G1 X273.297 Z-4.51
N1955 G1 X274 Z-4.146
N1960 G1 X274.654 Z-3.863
N1965 G1 X274.731 Z-3.84
N1970 G1 X274.975 Z-3.821
N1975 G1 X275.547 Z-3.819
N1980 G1 X276.56 Z-3.852
N1985 G1 X278.095 Z-3.933
N1990 G1 X280.715 Z-4.11
N1995 G1 X280.767 Z-4.109
N2000 G1 X280.819 Z-4.099
N2005 G1 X280.867 Z-4.08
N2010 G1 X280.932 Z-4.057
N2015 G1 X280.999 Z-4.05
N2020 G1 X281.04 Y83.327 Z-4.049
N2025 G1 X281.08 Y83.333 Z-4.048
N2030 G1 X281.119 Y83.343 Z-4.045
N2035 G1 X281.157 Y83.356 Z-4.042
N2040 G1 X281.193 Y83.373 Z-4.038
N2045 G1 X281.228 Y83.393 Z-4.033
N2050 G1 X281.26 Y83.416 Z-4.028
N2055 G1 X281.29 Y83.443 Z-4.021
N2060 G1 X281.317 Y83.472 Z-4.014
N2065 G1 X281.342 Y83.503 Z-4.006
N2070 G1 X281.362 Y83.537 Z-3.998
N2075 G1 X281.38 Y83.572 Z-3.99
N2080 G1 X281.393 Y83.609 Z-3.981
N2085 G1 X281.403 Y83.647 Z-3.971
N2090 G1 X281.409 Y83.686 Z-3.962
N2095 G1 X281.411 Y83.725 Z-3.952
N2100 G1 X281.409 Y83.765 Z-3.943
N2105 G1 X281.403 Y83.804 Z-3.933
N2110 G1 X281.393 Y83.842 Z-3.924
N2115 G1 X281.38 Y83.879 Z-3.915
N2120 G1 X281.362 Y83.914 Z-3.907
N2125 G1 X281.342 Y83.948 Z-3.898
N2130 G1 X281.317 Y83.979 Z-3.891
N2135 G1 X281.29 Y84.008 Z-3.884
N2140 G1 X281.26 Y84.035 Z-3.877
N2145 G1 X281.228 Y84.058 Z-3.872
N2150 G1 X281.193 Y84.078 Z-3.867
N2155 G1 X281.157 Y84.095 Z-3.863
N2160 G1 X281.119 Y84.108 Z-3.86
N2165 G1 X281.08 Y84.118 Z-3.857
N2170 G1 X281.04 Y84.124 Z-3.856
N2175 G1 X280.999 Y84.125 Z-3.855
N2180 G1 X279.097
N2185 G1 X279.029 Z-3.863
N2190 G1 X278.965 Z-3.886
N2195 G1 X278.916 Z-3.905
N2200 G1 X278.865 Z-3.915
N2205 G1 X278.813 Z-3.916
N2210 G1 X276.281 Z-3.751
N2215 G1 X274.756 Z-3.672
N2220 G1 X273.772 Z-3.641
N2225 G1 X273.137 Z-3.642
N2230 G1 X272.888 Z-3.661
N2235 G1 X272.798 Z-3.687
N2240 G1 X272.491 Z-3.806
N2245 G1 X271.714 Z-4.145
N2250 G1 X271.021 Z-4.51
N2255 G1 X270.428 Z-4.896
N2260 G1 X269.936 Z-5.298
N2265 G1 X269.551 Z-5.713
N2270 G1 X269.276 Z-6.136
N2275 G1 X269.111 Z-6.564
N2280 G1 X269.057 Z-6.992
N2285 G1 X267.965 Y84.523 Z-6.996
N2290 G1 X267.692 Y84.623 Z-6.997
N2295 G1 X266.875 Y84.925 Z-7
N2300 G1 X266.93 Z-6.564
N2305 G1 X267.091 Z-6.139
N2310 G1 X267.359 Z-5.716
N2315 G1 X267.736 Z-5.299
N2320 G1 X268.214 Z-4.899
N2325 G1 X268.799 Z-4.511
N2330 G1 X269.485 Z-4.141
N2335 G1 X270.251 Z-3.801
N2340 G1 X270.963 Z-3.534
N2345 G1 X271.069 Z-3.497
N2350 G1 X271.279 Z-3.476
N2355 G1 X271.871 Z-3.47
N2360 G1 X272.895 Z-3.498
N2365 G1 X274.441 Z-3.574
N2370 G1 X276.99 Z-3.734
N2375 G1 X277.042 Z-3.733
N2380 G1 X277.093 Z-3.723
N2385 G1 X277.141 Z-3.704
N2390 G1 X277.205 Z-3.681
N2395 G1 X277.273 Z-3.673
N2400 G1 X277.313 Y84.927
N2405 G1 X277.353 Y84.933 Z-3.672
N2410 G1 X277.392 Y84.943 Z-3.67
N2415 G1 X277.43 Y84.956 Z-3.667
N2420 G1 X277.466 Y84.973 Z-3.663
N2425 G1 X277.5 Y84.993 Z-3.659
N2430 G1 X277.533 Y85.016 Z-3.654
N2435 G1 X277.562 Y85.043 Z-3.648
N2440 G1 X277.589 Y85.072 Z-3.642
N2445 G1 X277.613 Y85.103 Z-3.635
N2450 G1 X277.634 Y85.137 Z-3.628
N2455 G1 X277.651 Y85.172 Z-3.62
N2460 G1 X277.665 Y85.209 Z-3.612
N2465 G1 X277.674 Y85.247 Z-3.604
N2470 G1 X277.68 Y85.286 Z-3.596
N2475 G1 X277.682 Y85.325 Z-3.587
N2480 G1 X277.68 Y85.365 Z-3.579
N2485 G1 X277.674 Y85.403 Z-3.57
N2490 G1 X277.665 Y85.442 Z-3.562
N2495 G1 X277.651 Y85.478 Z-3.554
N2500 G1 X277.634 Y85.514 Z-3.547
N2505 G1 X277.613 Y85.548 Z-3.539
N2510 G1 X277.589 Y85.579 Z-3.532
N2515 G1 X277.562 Y85.608 Z-3.526
N2520 G1 X277.533 Y85.635 Z-3.521
N2525 G1 X277.5 Y85.658 Z-3.515
N2530 G1 X277.466 Y85.678 Z-3.511
N2535 G1 X277.43 Y85.695 Z-3.508
N2540 G1 X277.392 Y85.708 Z-3.505
N2545 G1 X277.353 Y85.718 Z-3.503
N2550 G1 X277.313 Y85.723 Z-3.501
N2555 G1 X277.273 Y85.725
N2560 G1 X275.505
N2565 G1 X275.437 Z-3.509
N2570 G1 X275.373 Z-3.532
N2575 G1 X275.325 Z-3.55
N2580 G1 X275.275 Z-3.56
N2585 G1 X275.223 Z-3.562
N2590 G1 X272.594 Z-3.403
N2595 G1 X271.023 Z-3.331
N2600 G1 X270.122 Z-3.309
N2605 G1 X269.552 Z-3.316
N2610 G1 X269.337 Z-3.336
N2615 G1 X268.926 Z-3.47
N2620 G1 X268.063 Z-3.796
N2625 G1 X267.296 Z-4.144
N2630 G1 X266.623 Z-4.513
N2635 G1 X266.055 Z-4.899
N2640 G1 X265.585 Z-5.301
N2645 G1 X265.218 Z-5.712
N2650 G1 X264.951 Z-6.138
N2655 G1 X264.792 Z-6.568
N2660 G1 X264.741 Z-6.984
N2665 G1 X263.434 Y86.223 Z-6.994
N2670 G1 X263.173 Y86.324 Z-6.996
N2675 G1 X262.912 Y86.425 Z-6.998
N2680 G1 X262.651 Y86.525 Z-7
N2685 G1 X262.704 Z-6.568
N2690 G1 X262.86 Z-6.138
N2695 G1 X263.119 Z-5.714
N2700 G1 X263.478 Z-5.301
N2705 G1 X263.946 Z-4.896
N2710 G1 X264.506 Z-4.511
N2715 G1 X265.159 Z-4.143
N2720 G1 X265.909 Z-3.797
N2725 G1 X266.741 Z-3.476
N2730 G1 X267.148 Z-3.344
N2735 G1 X267.648 Z-3.186
N2740 G1 X267.852 Z-3.166
N2745 G1 X268.413 Z-3.158
N2750 G1 X269.418 Z-3.182
N2755 G1 X270.929 Z-3.249
N2760 G1 X273.505 Z-3.398
N2765 G1 X273.556 Z-3.397
N2770 G1 X273.607 Z-3.387
N2775 G1 X273.654 Z-3.368
N2780 G1 X273.719 Z-3.345
N2785 G1 X273.786 Z-3.338
N2790 G1 X273.826 Y86.527 Z-3.337
N2795 G1 X273.866 Y86.533 Z-3.336
N2800 G1 X273.905 Y86.543 Z-3.334
N2805 G1 X273.942 Y86.556 Z-3.332
N2810 G1 X273.979 Y86.573 Z-3.329
N2815 G1 X274.013 Y86.593 Z-3.325
N2820 G1 X274.045 Y86.616 Z-3.32
N2825 G1 X274.075 Y86.643 Z-3.315
N2830 G1 X274.101 Y86.672 Z-3.31
N2835 G1 X274.125 Y86.703 Z-3.303
N2840 G1 X274.146 Y86.737 Z-3.297
N2845 G1 X274.163 Y86.772 Z-3.29
N2850 G1 X274.176 Y86.809 Z-3.283
N2855 G1 X274.186 Y86.847 Z-3.276
N2860 G1 X274.192 Y86.886 Z-3.268
N2865 G1 X274.194 Y86.925 Z-3.261
N2870 G1 X274.192 Y86.965 Z-3.253
N2875 G1 X274.186 Y87.003 Z-3.246
N2880 G1 X274.176 Y87.041 Z-3.238
N2885 G1 X274.163 Y87.078 Z-3.231
N2890 G1 X274.146 Y87.114 Z-3.224
N2895 G1 X274.125 Y87.148 Z-3.218
N2900 G1 X274.101 Y87.179 Z-3.212
N2905 G1 X274.075 Y87.208 Z-3.206
N2910 G1 X274.045 Y87.235 Z-3.201
N2915 G1 X274.013 Y87.258 Z-3.196
N2920 G1 X273.979 Y87.278 Z-3.193
N2925 G1 X273.942 Y87.295 Z-3.189
N2930 G1 X273.905 Y87.308 Z-3.187
N2935 G1 X273.866 Y87.318 Z-3.185
N2940 G1 X273.826 Y87.323 Z-3.184
N2945 G1 X273.786 Y87.325 Z-3.183
N2950 G1 X272.115
N2955 G1 X272.047 Z-3.191
N2960 G1 X271.983 Z-3.214
N2965 G1 X271.935 Z-3.233
N2970 G1 X271.885 Z-3.243
N2975 G1 X271.834 Z-3.244
N2980 G1 X269.288 Z-3.102
N2985 G1 X267.694 Z-3.034
N2990 G1 X266.782 Z-3.016
N2995 G1 X266.212 Z-3.024
N3000 G1 X266.005 Z-3.044
N3005 G1 X265.5 Z-3.188
N3010 G1 X264.619 Z-3.478
N3015 G1 X263.798 Z-3.799
N3020 G1 X263.067 Z-4.145
N3025 G1 X262.425 Z-4.511
N3030 G1 X261.874 Z-4.897
N3035 G1 X261.422 Z-5.298
N3040 G1 X261.066 Z-5.713
N3045 G1 X260.809 Z-6.14
N3050 G1 X260.656 Z-6.568
N3055 G1 X260.605 Z-6.996
N3060 G1 X260.353 Y87.424 Z-6.997
N3065 G1 X259.1 Y87.924 Z-6.999
N3070 G1 X258.849 Y88.024 Z-7
N3075 G1 X258.599 Y88.125
N3080 G1 X258.649 Z-6.569
N3085 G1 X258.798 Z-6.141
N3090 G1 X259.049 Z-5.715
N3095 G1 X259.399 Z-5.301
N3100 G1 X259.847 Z-4.898
N3105 G1 X260.388 Z-4.511
N3110 G1 X261.018 Z-4.145
N3115 G1 X261.739 Z-3.799
N3120 G1 X262.541 Z-3.478
N3125 G1 X263.434 Z-3.181
N3130 G1 X264.409 Z-2.91
N3135 G1 X264.633 Z-2.889
N3140 G1 X265.201 Z-2.881
N3145 G1 X266.085 Z-2.898
N3150 G1 X267.628 Z-2.959
N3155 G1 X270.224 Z-3.099
N3160 G1 X270.275 Z-3.098
N3165 G1 X270.325 Z-3.087
N3170 G1 X270.372 Z-3.069
N3175 G1 X270.436 Z-3.046
N3180 G1 X270.504 Z-3.038
N3185 G1 X270.544 Y88.127
N3190 G1 X270.583 Y88.133 Z-3.037
N3195 G1 X270.622 Y88.143 Z-3.035
N3200 G1 X270.659 Y88.156 Z-3.033
N3205 G1 X270.695 Y88.173 Z-3.03
N3210 G1 X270.73 Y88.193 Z-3.027
N3215 G1 X270.762 Y88.216 Z-3.023
N3220 G1 X270.791 Y88.243 Z-3.018
N3225 G1 X270.818 Y88.272 Z-3.013
N3230 G1 X270.842 Y88.303 Z-3.008
N3235 G1 X270.862 Y88.337 Z-3.002
N3240 G1 X270.879 Y88.372 Z-2.996
N3245 G1 X270.893 Y88.409 Z-2.989
N3250 G1 X270.902 Y88.447 Z-2.983
N3255 G1 X270.908 Y88.486 Z-2.976
N3260 G1 X270.91 Y88.525 Z-2.969
N3265 G1 X270.908 Y88.565 Z-2.962
N3270 G1 X270.902 Y88.603 Z-2.956
N3275 G1 X270.893 Y88.641 Z-2.949
N3280 G1 X270.879 Y88.678 Z-2.943
N3285 G1 X270.862 Y88.714 Z-2.937
N3290 G1 X270.842 Y88.748 Z-2.931
N3295 G1 X270.818 Y88.779 Z-2.925
N3300 G1 X270.791 Y88.808 Z-2.92
N3305 G1 X270.762 Y88.835 Z-2.916
N3310 G1 X270.73 Y88.858 Z-2.912
N3315 G1 X270.695 Y88.878 Z-2.908
N3320 G1 X270.659 Y88.895 Z-2.905
N3325 G1 X270.622 Y88.908 Z-2.903
N3330 G1 X270.583 Y88.918 Z-2.901
N3335 G1 X270.544 Y88.923 Z-2.9
N3340 G1 X270.504 Y88.925
N3345 G1 X268.922
N3350 G1 X268.854 Z-2.908
N3355 G1 X268.79 Z-2.931
N3360 G1 X268.743 Z-2.949
N3365 G1 X268.693 Z-2.959
N3370 G1 X268.642 Z-2.961
N3375 G1 X266.056 Z-2.827
N3380 G1 X264.503 Z-2.769
N3385 G1 X263.73 Z-2.754
N3390 G1 X263.127 Z-2.76
N3395 G1 X262.879 Z-2.78
N3400 G1 X262.306 Z-2.92
N3405 G1 X261.378 Z-3.182
N3410 G1 X260.513 Z-3.476
N3415 G1 X259.718 Z-3.8
N3420 G1 X259.015 Z-4.142
N3425 G1 X258.392 Z-4.511
N3430 G1 X257.857 Z-4.899
N3435 G1 X257.419 Z-5.299
N3440 G1 X257.076 Z-5.714
N3445 G1 X256.832 Z-6.135
N3450 G1 X256.683 Z-6.564
N3455 G1 X256.633 Z-7
N3460 G1 X256.632 Z-20.868
N3465 G3 X256.032 I-0.3 K0 F1000
N3470 G1 Z-6.958 F840
N3475 G1 X256.025 Y88.928 Z-6.84
N3480 G1 X256.004 Y88.937 Z-6.725
N3485 G1 X255.969 Y88.952 Z-6.614
N3490 G1 X255.921 Y88.972 Z-6.508
N3495 G1 X255.861 Y88.997 Z-6.41
N3500 G1 X255.789 Y89.026 Z-6.322
N3505 G1 X255.707 Y89.06 Z-6.244
N3510 G1 X255.617 Y89.098 Z-6.179
N3515 G1 X255.519 Y89.138 Z-6.126
N3520 G1 X255.416 Y89.181 Z-6.089
N3525 G1 X255.31 Y89.225 Z-6.066
N3530 G1 X255.201 Y89.27 Z-6.058
N3535 G1 X254.936 Y89.38
N3540 G1 X254.827 Y89.425 Z-6.066
N3545 G1 X254.721 Y89.47 Z-6.089
N3550 G1 X254.618 Y89.512 Z-6.126
N3555 G1 X254.52 Y89.553 Z-6.179
N3560 G1 X254.43 Y89.59 Z-6.244
N3565 G1 X254.348 Y89.624 Z-6.322
N3570 G1 X254.276 Y89.654 Z-6.41
N3575 G1 X254.216 Y89.679 Z-6.508
N3580 G1 X254.168 Y89.699 Z-6.614
N3585 G1 X254.133 Y89.714 Z-6.725
N3590 G1 X254.112 Y89.722 Z-6.84
N3595 G1 X254.104 Y89.725 Z-6.958
N3600 G2 X254.702 Z-6.992 I0.3 K0 F1000
N3605 G1 X254.751 Z-6.567 F840
N3610 G1 X254.898 Z-6.136
N3615 G1 X255.139 Z-5.716
N3620 G1 X255.48 Z-5.297
N3625 G1 X255.911 Z-4.895
N3630 G1 X256.433 Z-4.511
N3635 G1 X257.044 Z-4.144
N3640 G1 X257.744 Z-3.796
N3645 G1 X258.519 Z-3.477
N3650 G1 X259.373 Z-3.181
N3655 G1 X260.296 Z-2.916
N3660 G1 X261.349 Z-2.667
N3665 G1 X261.529 Z-2.647
N3670 G1 X262.087 Z-2.635
N3675 G1 X263.052 Z-2.65
N3680 G1 X264.577 Z-2.705
N3685 G1 X267.124 Z-2.831
N3690 G1 X267.175 Z-2.83
N3695 G1 X267.224 Z-2.819
N3700 G1 X267.271 Z-2.801
N3705 G1 X267.335 Z-2.778
N3710 G1 X267.403 Z-2.77
N3715 G1 X267.443 Y89.727
N3720 G1 X267.482 Y89.733 Z-2.769
N3725 G1 X267.521 Y89.743 Z-2.768
N3730 G1 X267.558 Y89.756 Z-2.766
N3735 G1 X267.594 Y89.773 Z-2.763
N3740 G1 X267.628 Y89.793 Z-2.76
N3745 G1 X267.66 Y89.816 Z-2.757
N3750 G1 X267.689 Y89.842 Z-2.753
N3755 G1 X267.716 Y89.872 Z-2.748
N3760 G1 X267.74 Y89.903 Z-2.743
N3765 G1 X267.76 Y89.937 Z-2.738
N3770 G1 X267.777 Y89.972 Z-2.733
N3775 G1 X267.79 Y90.009 Z-2.727
N3780 G1 X267.8 Y90.047 Z-2.721
N3785 G1 X267.806 Y90.086 Z-2.715
N3790 G1 X267.808 Y90.125 Z-2.709
N3795 G1 X267.806 Y90.164 Z-2.703
N3800 G1 X267.8 Y90.203 Z-2.697
N3805 G1 X267.79 Y90.241 Z-2.692
N3810 G1 X267.777 Y90.278 Z-2.686
N3815 G1 X267.76 Y90.314 Z-2.681
N3820 G1 X267.74 Y90.348 Z-2.675
N3825 G1 X267.716 Y90.379 Z-2.671
N3830 G1 X267.689 Y90.408 Z-2.666
N3835 G1 X267.66 Y90.434 Z-2.662
N3840 G1 X267.628 Y90.458 Z-2.659
N3845 G1 X267.594 Y90.478 Z-2.656
N3850 G1 X267.558 Y90.495 Z-2.653
N3855 G1 X267.521 Y90.508 Z-2.651
N3860 G1 X267.482 Y90.518 Z-2.65
N3865 G1 X267.443 Y90.523 Z-2.649
N3870 G1 X267.403 Y90.525 Z-2.648
N3875 G1 X265.929
N3880 G1 X265.861 Z-2.656
N3885 G1 X265.797 Z-2.679
N3890 G1 X265.75 Z-2.697
N3895 G1 X265.701 Z-2.707
N3900 G1 X265.651 Z-2.709
N3905 G1 X263.097 Z-2.588
N3910 G1 X261.568 Z-2.535
N3915 G1 X260.602 Z-2.523
N3920 G1 X260.074 Z-2.535
N3925 G1 X259.894 Z-2.555
N3930 G1 X259.263 Z-2.686
N3935 G1 X258.31 Z-2.916
N3940 G1 X257.404 Z-3.182
N3945 G1 X256.56 Z-3.477
N3950 G1 X255.798 Z-3.799
N3955 G1 X255.113 Z-4.144
N3960 G1 X254.511 Z-4.511
N3965 G1 X253.997 Z-4.897
N3970 G1 X253.569 Z-5.302
N3975 G1 X253.238 Z-5.714
N3980 G1 X252.996 Z-6.142
N3985 G1 X252.854 Z-6.572
N3990 G1 X252.807 Z-7
N3995 G1 X251.645 Y91.024
N4000 G1 X251.412 Y91.124
N4005 G1 X250.948 Y91.325
N4010 G1 X250.996 Z-6.569
N4015 G1 X251.138 Z-6.135
N4020 G1 X251.37 Z-5.716
N4025 G1 X251.697 Z-5.301
N4030 G1 X252.117 Z-4.899
N4035 G1 X252.627 Z-4.511
N4040 G1 X253.216 Z-4.144
N4045 G1 X253.891 Z-3.799
N4050 G1 X254.646 Z-3.476
N4055 G1 X255.474 Z-3.181
N4060 G1 X256.371 Z-2.914
N4065 G1 X257.332 Z-2.679
N4070 G1 X258.467 Z-2.455
N4075 G1 X258.651 Z-2.432
N4080 G1 X259.119 Z-2.418
N4085 G1 X260.076 Z-2.427
N4090 G1 X261.655 Z-2.477
N4095 G1 X264.231 Z-2.594
N4100 G1 X264.281 Z-2.593
N4105 G1 X264.33 Z-2.582
N4110 G1 X264.377 Z-2.564
N4115 G1 X264.441 Z-2.541
N4120 G1 X264.509 Z-2.534
N4125 G1 X264.548 Y91.327 Z-2.533
N4130 G1 X264.587 Y91.333 Z-2.532
N4135 G1 X264.626 Y91.342 Z-2.531
N4140 G1 X264.663 Y91.356 Z-2.529
N4145 G1 X264.699 Y91.372 Z-2.527
N4150 G1 X264.733 Y91.393 Z-2.524
N4155 G1 X264.765 Y91.416 Z-2.521
N4160 G1 X264.794 Y91.442 Z-2.518
N4165 G1 X264.821 Y91.471 Z-2.514
N4170 G1 X264.844 Y91.503 Z-2.509
N4175 G1 X264.865 Y91.537 Z-2.505
N4180 G1 X264.882 Y91.572 Z-2.5
N4185 G1 X264.895 Y91.609 Z-2.495
N4190 G1 X264.905 Y91.647 Z-2.49
N4195 G1 X264.91 Y91.686 Z-2.484
N4200 G1 X264.912 Y91.725 Z-2.479
N4205 G1 X264.91 Y91.764 Z-2.474
N4210 G1 X264.905 Y91.803 Z-2.469
N4215 G1 X264.895 Y91.841 Z-2.463
N4220 G1 X264.882 Y91.878 Z-2.458
N4225 G1 X264.865 Y91.914 Z-2.453
N4230 G1 X264.844 Y91.947 Z-2.449
N4235 G1 X264.821 Y91.979 Z-2.445
N4240 G1 X264.794 Y92.008 Z-2.441
N4245 G1 X264.765 Y92.034 Z-2.437
N4250 G1 X264.733 Y92.058 Z-2.434
N4255 G1 X264.699 Y92.078 Z-2.431
N4260 G1 X264.663 Y92.095 Z-2.429
N4265 G1 X264.626 Y92.108 Z-2.427
N4270 G1 X264.587 Y92.118 Z-2.426
N4275 G1 X264.548 Y92.123 Z-2.425
N4280 G1 X264.509 Y92.125
N4285 G1 X263.12
N4290 G1 X263.052 Z-2.432
N4295 G1 X262.988 Z-2.455
N4300 G1 X262.941 Z-2.473
N4305 G1 X262.893 Z-2.484
N4310 G1 X262.843 Z-2.486
N4315 G1 X260.285 Z-2.374
N4320 G1 X258.728 Z-2.328
N4325 G1 X257.758 Z-2.321
N4330 G1 X257.298 Z-2.335
N4335 G1 X257.119 Z-2.358
N4340 G1 X256.394 Z-2.479
N4345 G1 X255.394 Z-2.682
N4350 G1 X254.456 Z-2.916
N4355 G1 X253.572 Z-3.182
N4360 G1 X252.764 Z-3.476
N4365 G1 X252.017 Z-3.8
N4370 G1 X251.354 Z-4.146
N4375 G1 X250.774 Z-4.511
N4380 G1 X250.273 Z-4.897
N4385 G1 X249.859 Z-5.301
N4390 G1 X249.539 Z-5.713
N4395 G1 X249.308 Z-6.135
N4400 G1 X249.167 Z-6.567
N4405 G1 X249.12 Z-7
N4410 G1 X248.894 Y92.225
N4415 G1 X248.669 Y92.324 Z-6.999
N4420 G1 X248.443 Y92.424
N4425 G1 X247.316 Y92.925 Z-6.998
N4430 G1 X247.362 Z-6.566
N4435 G1 X247.5 Z-6.138
N4440 G1 X247.732 Z-5.712
N4445 G1 X248.051 Z-5.299
N4450 G1 X248.457 Z-4.898
N4455 G1 X248.951 Z-4.512
N4460 G1 X249.525 Z-4.146
N4465 G1 X250.185 Z-3.797
N4470 G1 X250.912 Z-3.477
N4475 G1 X251.712 Z-3.183
N4480 G1 X252.579 Z-2.917
N4485 G1 X253.512 Z-2.68
N4490 G1 X254.5 Z-2.477
N4495 G1 X255.468 Z-2.319
N4500 G1 X255.797 Z-2.272
N4505 G1 X256.026 Z-2.245
N4510 G1 X256.523 Z-2.23
N4515 G1 X257.512 Z-2.237
N4520 G1 X258.997 Z-2.279
N4525 G1 X261.526 Z-2.385
N4530 G1 X261.576 Z-2.383
N4535 G1 X261.625 Z-2.373
N4540 G1 X261.671 Z-2.354
N4545 G1 X261.735 Z-2.332
N4550 G1 X261.803 Z-2.324
N4555 G1 X261.842 Y92.927
N4560 G1 X261.881 Y92.933 Z-2.323
N4565 G1 X261.92 Y92.942 Z-2.322
N4570 G1 X261.957 Y92.956 Z-2.32
N4575 G1 X261.993 Y92.972 Z-2.318
N4580 G1 X262.027 Y92.993 Z-2.316
N4585 G1 X262.058 Y93.016 Z-2.313
N4590 G1 X262.088 Y93.042 Z-2.31
N4595 G1 X262.114 Y93.071 Z-2.307
N4600 G1 X262.138 Y93.103 Z-2.303
N4605 G1 X262.158 Y93.137 Z-2.299
N4610 G1 X262.175 Y93.172 Z-2.295
N4615 G1 X262.188 Y93.209 Z-2.29
N4620 G1 X262.198 Y93.247 Z-2.286
N4625 G1 X262.204 Y93.286 Z-2.281
N4630 G1 X262.206 Y93.325 Z-2.277
N4635 G1 X262.204 Y93.364 Z-2.272
N4640 G1 X262.198 Y93.403 Z-2.268
N4645 G1 X262.188 Y93.441 Z-2.263
N4650 G1 X262.175 Y93.478 Z-2.259
N4655 G1 X262.158 Y93.514 Z-2.254
N4660 G1 X262.138 Y93.547 Z-2.251
N4665 G1 X262.114 Y93.579 Z-2.247
N4670 G1 X262.088 Y93.608 Z-2.243
N4675 G1 X262.058 Y93.634 Z-2.24
N4680 G1 X262.027 Y93.658 Z-2.238
N4685 G1 X261.993 Y93.678 Z-2.235
N4690 G1 X261.957 Y93.695 Z-2.233
N4695 G1 X261.92 Y93.708 Z-2.232
N4700 G1 X261.881 Y93.717 Z-2.231
N4705 G1 X261.842 Y93.723 Z-2.23
N4710 G1 X261.803 Y93.725
N4715 G1 X260.547
N4720 G1 X260.479 Z-2.237
N4725 G1 X260.415 Z-2.26
N4730 G1 X260.369 Z-2.278
N4735 G1 X260.32 Z-2.288
N4740 G1 X260.271 Z-2.291
N4745 G1 X257.814 Z-2.192
N4750 G1 X256.319 Z-2.155
N4755 G1 X255.221 Z-2.151
N4760 G1 X254.773 Z-2.169
N4765 G1 X253.656 Z-2.307
N4770 G1 X252.618 Z-2.479
N4775 G1 X251.653 Z-2.682
N4780 G1 X250.746 Z-2.914
N4785 G1 X249.887 Z-3.182
N4790 G1 X249.095 Z-3.476
N4795 G1 X248.373 Z-3.798
N4800 G1 X247.723 Z-4.144
N4805 G1 X247.149 Z-4.513
N4810 G1 X246.66 Z-4.899
N4815 G1 X246.255 Z-5.301
N4820 G1 X245.937 Z-5.717
N4825 G1 X245.71 Z-6.138
N4830 G1 X245.572 Z-6.564
N4835 G1 X245.526 Z-7
N4840 G1 X245.303 Y93.825
N4845 G1 X244.187 Y94.325
N4850 G1 X243.741 Y94.525
N4855 G1 X243.787 Z-6.567
N4860 G1 X243.925 Z-6.139
N4865 G1 X244.152 Z-5.717
N4870 G1 X244.47 Z-5.301
N4875 G1 X244.874 Z-4.899
N4880 G1 X245.363 Z-4.513
N4885 G1 X245.931 Z-4.145
N4890 G1 X246.577 Z-3.799
N4895 G1 X247.295 Z-3.477
N4900 G1 X248.079 Z-3.183
N4905 G1 X248.932 Z-2.915
N4910 G1 X249.827 Z-2.682
N4915 G1 X250.79 Z-2.478
N4920 G1 X251.801 Z-2.308
N4925 G1 X252.805 Z-2.18
N4930 G1 X253.632 Z-2.101
N4935 G1 X254.041 Z-2.087
N4940 G1 X255.296 Z-2.09
N4945 G1 X257.003 Z-2.128
N4950 G1 X259.101 Z-2.204
N4955 G1 X259.15 Z-2.202
N4960 G1 X259.198 Z-2.191
N4965 G1 X259.244 Z-2.174
N4970 G1 X259.308 Z-2.151
N4975 G1 X259.376 Z-2.143
N4980 G1 X259.415 Y94.527
N4985 G1 X259.454 Y94.533 Z-2.142
N4990 G1 X259.492 Y94.542 Z-2.141
N4995 G1 X259.529 Y94.556 Z-2.14
N5000 G1 X259.565 Y94.572 Z-2.139
N5005 G1 X259.599 Y94.593 Z-2.137
N5010 G1 X259.63 Y94.616 Z-2.135
N5015 G1 X259.66 Y94.642 Z-2.132
N5020 G1 X259.686 Y94.671 Z-2.13
N5025 G1 X259.71 Y94.703 Z-2.127
N5030 G1 X259.73 Y94.737 Z-2.124
N5035 G1 X259.747 Y94.772 Z-2.12
N5040 G1 X259.76 Y94.809 Z-2.117
N5045 G1 X259.77 Y94.847 Z-2.114
N5050 G1 X259.775 Y94.886 Z-2.11
N5055 G1 X259.777 Y94.925 Z-2.107
N5060 G1 X259.775 Y94.964 Z-2.103
N5065 G1 X259.77 Y95.003 Z-2.099
N5070 G1 X259.76 Y95.041 Z-2.096
N5075 G1 X259.747 Y95.078 Z-2.093
N5080 G1 X259.73 Y95.114 Z-2.089
N5085 G1 X259.71 Y95.147 Z-2.086
N5090 G1 X259.686 Y95.179 Z-2.084
N5095 G1 X259.66 Y95.208 Z-2.081
N5100 G1 X259.63 Y95.234 Z-2.078
N5105 G1 X259.599 Y95.258 Z-2.076
N5110 G1 X259.565 Y95.278 Z-2.075
N5115 G1 X259.529 Y95.295 Z-2.073
N5120 G1 X259.492 Y95.308 Z-2.072
N5125 G1 X259.454 Y95.317 Z-2.071
N5130 G1 X259.415 Y95.323 Z-2.07
N5135 G1 X259.376 Y95.325
N5140 G1 X258.358
N5145 G1 X258.29 Z-2.078
N5150 G1 X258.226 Z-2.101
N5155 G1 X258.181 Z-2.119
N5160 G1 X258.134 Z-2.129
N5165 G1 X258.085 Z-2.131
N5170 G1 X256.313 Z-2.08
N5175 G1 X254.673 Z-2.049
N5180 G1 X253.24 Z-2.039
N5185 G1 X252.514 Z-2.051
N5190 G1 X252.035 Z-2.083
N5195 G1 X251.002 Z-2.176
N5200 G1 X249.965 Z-2.31
N5205 G1 X248.986 Z-2.476
N5210 G1 X248.033 Z-2.68
N5215 G1 X247.131 Z-2.916
N5220 G1 X246.294 Z-3.181
N5225 G1 X245.512 Z-3.476
N5230 G1 X244.794 Z-3.798
N5235 G1 X244.148 Z-4.144
N5240 G1 X243.58 Z-4.511
N5245 G1 X243.091 Z-4.897
N5250 G1 X242.686 Z-5.298
N5255 G1 X242.366 Z-5.712
N5260 G1 X242.136 Z-6.139
N5265 G1 X241.997 Z-6.573
N5270 G1 X241.952 Z-6.998
N5275 G1 X241.501 Y95.526
N5280 G1 X241.276 Y95.626 Z-6.999
N5285 G1 X240.373 Y96.025 Z-7
N5290 G1 X240.147 Y96.125
N5295 G1 X240.194 Z-6.565
N5300 G1 X240.334 Z-6.134
N5305 G1 X240.562 Z-5.717
N5310 G1 X240.886 Z-5.299
N5315 G1 X241.293 Z-4.9
N5320 G1 X241.787 Z-4.512
N5325 G1 X242.358 Z-4.145
N5330 G1 X243.007 Z-3.798
N5335 G1 X243.725 Z-3.476
N5340 G1 X244.509 Z-3.181
N5345 G1 X245.347 Z-2.916
N5350 G1 X246.238 Z-2.682
N5355 G1 X247.187 Z-2.478
N5360 G1 X248.179 Z-2.308
N5365 G1 X249.184 Z-2.178
N5370 G1 X250.234 Z-2.081
N5375 G1 X251.381 Z-2.019
N5380 G1 X252.42 Z-2.012
N5385 G1 X254.52 Z-2.026
N5390 G1 X255.764 Z-2.046
N5395 G1 X257.282 Z-2.08
N5400 G1 X257.33 Z-2.078
N5405 G1 X257.376 Z-2.067
N5410 G1 X257.421 Z-2.05
N5415 G1 X257.485 Z-2.027
N5420 G1 X257.553 Z-2.019
N5425 G1 X257.592 Y96.127
N5430 G1 X257.631 Y96.133
N5435 G1 X257.669 Y96.142 Z-2.018
N5440 G1 X257.706 Y96.156
N5445 G1 X257.742 Y96.172 Z-2.017
N5450 G1 X257.775 Y96.193 Z-2.016
N5455 G1 X257.807 Y96.216 Z-2.015
N5460 G1 X257.836 Y96.242 Z-2.014
N5465 G1 X257.862 Y96.271 Z-2.012
N5470 G1 X257.886 Y96.303 Z-2.011
N5475 G1 X257.906 Y96.337 Z-2.009
N5480 G1 X257.923 Y96.372 Z-2.007
N5485 G1 X257.936 Y96.409 Z-2.005
N5490 G1 X257.945 Y96.447 Z-2.003
N5495 G1 X257.951 Y96.486 Z-2.002
N5500 G1 X257.953 Y96.525 Z-2
N5505 G1 X257.951 Y96.564 Z-1.998
N5510 G1 X257.945 Y96.603 Z-1.996
N5515 G1 X257.936 Y96.641 Z-1.994
N5520 G1 X257.923 Y96.678 Z-1.992
N5525 G1 X257.906 Y96.714 Z-1.99
N5530 G1 X257.886 Y96.747 Z-1.989
N5535 G1 X257.862 Y96.779 Z-1.987
N5540 G1 X257.836 Y96.808 Z-1.986
N5545 G1 X257.807 Y96.834 Z-1.984
N5550 G1 X257.775 Y96.858 Z-1.983
N5555 G1 X257.742 Y96.878 Z-1.982
N5560 G1 X257.706 Y96.895 Z-1.981
N5565 G1 X257.669 Y96.908
N5570 G1 X257.631 Y96.917 Z-1.98
N5575 G1 X257.592 Y96.923
N5580 G1 X257.553 Y96.925
N5585 G1 X256.718
N5590 G1 X256.651 Z-1.988
N5595 G1 X256.586 Z-2.01
N5600 G1 X256.543 Z-2.028
N5605 G1 X256.497 Z-2.038
N5610 G1 X256.45 Z-2.041
N5615 G1 X254.494 Z-2.013
N5620 G1 X251.811 Z-2.001
N5625 G1 X250.118 Z-2.007
N5630 G1 X249.493 Z-2.022
N5635 G1 X248.451 Z-2.08
N5640 G1 X247.4 Z-2.177
N5645 G1 X246.382 Z-2.31
N5650 G1 X245.405 Z-2.477
N5655 G1 X244.455 Z-2.681
N5660 G1 X243.564 Z-2.915
N5665 G1 X242.714 Z-3.183
N5670 G1 X241.929 Z-3.478
N5675 G1 X241.206 Z-3.799
N5680 G1 X240.553 Z-4.146
N5685 G1 X239.978 Z-4.511
N5690 G1 X239.478 Z-4.898
N5695 G1 X239.065 Z-5.299
N5700 G1 X238.74 Z-5.714
N5705 G1 X238.505 Z-6.142
N5710 G1 X238.365 Z-6.568
N5715 G1 X238.316 Z-7
N5720 G1 X238.315
N5725 G1 X238.082 Y97.026 Z-6.999
N5730 G1 X237.381 Y97.328 Z-6.996
N5735 G1 X237.147 Y97.428 Z-6.995
N5740 G1 X236.445 Y97.725 Z-6.992
N5745 G1 X236.493 Z-6.563
N5750 G1 X236.637 Z-6.137
N5755 G1 X236.877 Z-5.714
N5760 G1 X237.209 Z-5.302
N5765 G1 X237.63 Z-4.899
N5770 G1 X238.138 Z-4.51
N5775 G1 X238.722 Z-4.147
N5780 G1 X239.386 Z-3.799
N5785 G1 X240.117 Z-3.477
N5790 G1 X240.909 Z-3.183
N5795 G1 X241.765 Z-2.916
N5800 G1 X242.662 Z-2.682
N5805 G1 X243.618 Z-2.477
N5810 G1 X244.595 Z-2.31
N5815 G1 X245.615 Z-2.177
N5820 G1 X246.644 Z-2.081
N5825 G1 X247.732 Z-2.021
N5830 G1 X248.7 Z-2.002
N5835 G1 X253.686
N5840 G1 X255.771 Z-2.016
N5845 G1 X255.817 Z-2.013
N5850 G1 X255.862 Z-2.003
N5855 G1 X255.905 Z-1.986
N5860 G1 X255.929 Z-1.974
N5865 G1 X255.993 Z-1.951
N5870 G1 X256.061 Z-1.944
N5875 G17 G3 Y98.525 I0 J0.4
N5880 G1 X255.691
N5885 G1 X255.623 Z-1.951
N5890 G1 X255.559 Z-1.974
N5895 G1 X255.494 Z-1.997
N5900 G1 X255.427 Z-2.005
N5905 G1 X246.965 Z-2.001
N5910 G1 X245.95 Z-2.02
N5915 G1 X244.887 Z-2.079
N5920 G1 X243.826 Z-2.177
N5925 G1 X242.799 Z-2.311
N5930 G1 X241.816 Z-2.477
N5935 G1 X240.856 Z-2.682
N5940 G1 X239.947 Z-2.915
N5945 G1 X239.083 Z-3.182
N5950 G1 X238.275 Z-3.477
N5955 G1 X237.529 Z-3.799
N5960 G1 X236.851 Z-4.146
N5965 G1 X236.256 Z-4.511
N5970 G1 X235.733 Z-4.899
N5975 G1 X235.302 Z-5.301
N5980 G1 X234.963 Z-5.713
N5985 G1 X234.715 Z-6.139
N5990 G1 X234.566 Z-6.568
N5995 G1 X234.516 Z-7
N6000 G1 X234.017 Y98.729
N6005 G1 X233.766 Y98.829
N6010 G1 X233.265 Y99.029
N6015 G1 X233.015 Y99.129
N6020 G1 X232.513 Y99.325
N6025 G1 X232.565 Z-6.563
N6030 G1 X232.718 Z-6.14
N6035 G1 X232.976 Z-5.714
N6040 G1 X233.327 Z-5.302
N6045 G1 X233.774 Z-4.898
N6050 G1 X234.313 Z-4.511
N6055 G1 X234.927 Z-4.145
N6060 G1 X235.626 Z-3.798
N6065 G1 X236.383 Z-3.479
N6070 G1 X237.211 Z-3.182
N6075 G1 X238.095 Z-2.916
N6080 G1 X239.016 Z-2.682
N6085 G1 X239.992 Z-2.478
N6090 G1 X240.99 Z-2.31
N6095 G1 X242.018 Z-2.178
N6100 G1 X243.075 Z-2.081
N6105 G1 X244.163 Z-2.02
N6110 G1 X245.109 Z-2.003
N6115 G1 X255.211 Z-2.001
N6120 G1 X255.278 Z-1.993
N6125 G1 X255.343 Z-1.97
N6130 G1 X255.344 Z-1.969
N6135 G1 X255.408 Z-1.947
N6140 G1 X255.476 Z-1.939
N6145 G3 Y100.125 I0 J0.4
N6150 G1 X255.287
N6155 G1 X255.219 Z-1.947
N6160 G1 X255.155 Z-1.969
N6165 G1 X255.091 Z-1.992
N6170 G1 X255.023 Z-2
N6175 G1 X243.341 Z-2.002
N6180 G1 X242.362 Z-2.02
N6185 G1 X241.285 Z-2.079
N6190 G1 X240.202 Z-2.177
N6195 G1 X239.154 Z-2.31
N6200 G1 X238.13 Z-2.479
N6205 G1 X237.149 Z-2.679
N6210 G1 X236.193 Z-2.915
N6215 G1 X235.288 Z-3.182
N6220 G1 X234.438 Z-3.477
N6225 G1 X233.65 Z-3.798
N6230 G1 X232.925 Z-4.146
N6235 G1 X232.288 Z-4.512
N6240 G1 X231.729 Z-4.897
N6245 G1 X231.261 Z-5.302
N6250 G1 X230.894 Z-5.712
N6255 G1 X230.626 Z-6.136
N6260 G1 X230.464 Z-6.568
N6265 G1 X230.411 Z-7
N6270 G1 X230.131 Y100.227
N6275 G1 X229.573 Y100.431
N6280 G1 X229.293 Y100.531
N6285 G1 X228.733 Y100.73
N6290 G1 X228.452 Y100.828
N6295 G1 X228.171 Y100.925
N6300 G1 X228.23 Z-6.564
N6305 G1 X228.4 Z-6.14
N6310 G1 X228.688 Z-5.712
N6315 G1 X229.075 Z-5.301
N6320 G1 X229.568 Z-4.899
N6325 G1 X230.155 Z-4.512
N6330 G1 X230.831 Z-4.144
N6335 G1 X231.579 Z-3.801
N6340 G1 X232.398 Z-3.48
N6345 G1 X233.289 Z-3.182
N6350 G1 X234.224 Z-2.916
N6355 G1 X235.205 Z-2.681
N6360 G1 X236.228 Z-2.477
N6365 G1 X237.266 Z-2.311
N6370 G1 X238.339 Z-2.177
N6375 G1 X239.44 Z-2.079
N6380 G1 X240.516 Z-2.022
N6385 G1 X241.484 Z-2.003
N6390 G1 X254.62 Z-2
N6395 G1 X254.688 Z-1.992
N6400 G1 X254.752 Z-1.969
N6405 G1 X254.817 Z-1.947
N6410 G1 X254.884 Z-1.939
N6415 G3 Y101.725 I0 J0.4
N6420 G1 X254.068
N6425 G1 X254 Z-1.947
N6430 G1 X253.936 Z-1.969
N6435 G1 X253.871 Z-1.992
N6440 G1 X253.804 Z-2
N6445 G1 X239.699 Z-2.002
N6450 G1 X238.635 Z-2.023
N6455 G1 X237.548 Z-2.08
N6460 G1 X236.43 Z-2.177
N6465 G1 X235.33 Z-2.31
N6470 G1 X234.242 Z-2.479
N6475 G1 X233.198 Z-2.68
N6480 G1 X232.166 Z-2.917
N6485 G1 X231.192 Z-3.182
N6490 G1 X230.262 Z-3.478
N6495 G1 X229.393 Z-3.801
N6500 G1 X228.602 Z-4.144
N6505 G1 X227.881 Z-4.514
N6510 G1 X227.259 Z-4.897
N6515 G1 X226.73 Z-5.298
N6520 G1 X226.312 Z-5.712
N6525 G1 X226.003 Z-6.136
N6530 G1 X225.816 Z-6.568
N6535 G1 X225.754 Z-6.999
N6540 G1 X225.588 Y101.778 Z-6.997
N6545 G1 X225.423 Y101.83 Z-6.996
N6550 G1 X224.924 Y101.984 Z-6.993
N6555 G1 X224.758 Y102.035 Z-6.992
N6560 G1 X224.258 Y102.185 Z-6.989
N6565 G1 X224.092 Y102.235 Z-6.988
N6570 G1 X223.424 Y102.43 Z-6.984
N6575 G1 X223.257 Y102.478 Z-6.983
N6580 G1 X223.09 Y102.525 Z-6.982
N6585 G1 X223.157 Z-6.564
N6590 G1 X223.363 Z-6.14
N6595 G1 X223.699 Z-5.713
N6600 G1 X224.163 Z-5.299
N6605 G1 X224.738 Z-4.898
N6610 G1 X225.419 Z-4.513
N6615 G1 X226.195 Z-4.145
N6620 G1 X227.05 Z-3.8
N6625 G1 X227.982 Z-3.477
N6630 G1 X228.966 Z-3.183
N6635 G1 X230.004 Z-2.916
N6640 G1 X231.075 Z-2.681
N6645 G1 X232.182 Z-2.478
N6650 G1 X233.312 Z-2.309
N6655 G1 X234.453 Z-2.176
N6660 G1 X235.604 Z-2.08
N6665 G1 X236.761 Z-2.021
N6670 G1 X237.753 Z-2.003
N6675 G1 X252.72 Z-2
N6680 G1 X252.788 Z-1.992
N6685 G1 X252.852 Z-1.969
N6690 G1 X252.916 Z-1.947
N6695 G1 X252.984 Z-1.939
N6700 G3 Y103.325 I0 J0.4
N6705 G1 X251.291
N6710 G1 X251.224 Z-1.947
N6715 G1 X251.159 Z-1.969
N6720 G1 X251.095 Z-1.992
N6725 G1 X251.027 Z-2
N6730 G1 X235.85 Z-2.002
N6735 G1 X234.757 Z-2.022
N6740 G1 X233.564 Z-2.081
N6745 G1 X232.364 Z-2.178
N6750 G1 X231.174 Z-2.311
N6755 G1 X230.003 Z-2.477
N6760 G1 X228.82 Z-2.683
N6765 G1 X227.685 Z-2.916
N6770 G1 X226.563 Z-3.185
N6775 G1 X225.506 Z-3.477
N6780 G1 X224.498 Z-3.798
N6785 G1 X223.551 Z-4.145
N6790 G1 X222.69 Z-4.513
N6795 G1 X221.93 Z-4.898
N6800 G1 X221.282 Z-5.299
N6805 G1 X220.762 Z-5.711
N6810 G1 X220.382 Z-6.134
N6815 G1 X220.149 Z-6.564
N6820 G1 X220.068 Z-7
N6825 G1 X219.852 Y103.378
N6830 G1 X219.636 Y103.431 Z-6.999
N6835 G1 X219.42 Y103.484
N6840 G1 X218.77 Y103.638 Z-6.998
N6845 G1 X218.554 Y103.689
N6850 G1 X217.903 Y103.838 Z-6.997
N6855 G1 X217.686 Y103.887
N6860 G1 X217.252 Y103.983 Z-6.996
N6865 G1 X217.034 Y104.031
N6870 G1 X216.599 Y104.125 Z-6.995
N6875 G1 X216.688 Z-6.57
N6880 G1 X216.956 Z-6.138
N6885 G1 X217.391 Z-5.714
N6890 G1 X217.988 Z-5.3
N6895 G1 X218.728 Z-4.898
N6900 G1 X219.592 Z-4.512
N6905 G1 X220.566 Z-4.145
N6910 G1 X221.627 Z-3.798
N6915 G1 X222.746 Z-3.48
N6920 G1 X223.944 Z-3.181
N6925 G1 X225.154 Z-2.917
N6930 G1 X226.399 Z-2.681
N6935 G1 X227.652 Z-2.479
N6940 G1 X228.92 Z-2.31
N6945 G1 X230.177 Z-2.178
N6950 G1 X231.439 Z-2.081
N6955 G1 X232.695 Z-2.021
N6960 G1 X233.782 Z-2.003
N6965 G1 X249.242 Z-2
N6970 G1 X249.31 Z-1.992
N6975 G1 X249.374 Z-1.969
N6980 G1 X249.438 Z-1.947
N6985 G1 X249.506 Z-1.939
N6990 G3 Y104.925 I0 J0.4
N6995 G1 X247.72
N7000 G1 X247.653 Z-1.947
N7005 G1 X247.588 Z-1.969
N7010 G1 X247.524 Z-1.992
N7015 G1 X247.456 Z-2
N7020 G1 X231.724 Z-2.002
N7025 G1 X230.482 Z-2.022
N7030 G1 X229.179 Z-2.081
N7035 G1 X227.827 Z-2.178
N7040 G1 X226.472 Z-2.311
N7045 G1 X225.1 Z-2.479
N7050 G1 X223.708 Z-2.684
N7055 G1 X222.33 Z-2.919
N7060 G1 X220.963 Z-3.185
N7065 G1 X219.63 Z-3.48
N7070 G1 X218.347 Z-3.801
N7075 G1 X217.13 Z-4.148
N7080 G1 X216.019 Z-4.513
N7085 G1 X215.025 Z-4.897
N7090 G1 X214.166 Z-5.299
N7095 G1 X213.473 Z-5.713
N7100 G1 X212.967 Z-6.135
N7105 G1 X212.652 Z-6.564
N7110 G1 X212.544 Z-7
N7115 G1 X212.236 Y104.98
N7120 G1 X211.929 Y105.035
N7125 G1 X211.313 Y105.142
N7130 G1 X211.005 Y105.195 Z-6.999
N7135 G1 X210.389 Y105.298
N7140 G1 X210.08 Y105.348
N7145 G1 X209.772 Y105.397
N7150 G1 X209.463 Y105.447
N7155 G1 X208.846 Y105.542
N7160 G1 X208.537 Y105.589 Z-6.998
N7165 G1 X207.918 Y105.68
N7170 G1 X207.609 Y105.725
N7175 G1 X207.744 Z-6.567
N7180 G1 X208.134 Z-6.134
N7185 G1 X208.766 Z-5.714
N7190 G1 X209.616 Z-5.299
N7195 G1 X210.647 Z-4.898
N7200 G1 X211.835 Z-4.512
N7205 G1 X213.149 Z-4.146
N7210 G1 X214.555 Z-3.801
N7215 G1 X216.035 Z-3.481
N7220 G1 X217.587 Z-3.182
N7225 G1 X219.124 Z-2.92
N7230 G1 X220.677 Z-2.685
N7235 G1 X222.236 Z-2.481
N7240 G1 X223.784 Z-2.31
N7245 G1 X225.275 Z-2.178
N7250 G1 X226.736 Z-2.081
N7255 G1 X228.153 Z-2.022
N7260 G1 X229.322 Z-2.004
N7265 G1 X245.662 Z-2
N7270 G1 X245.729 Z-1.992
N7275 G1 X245.794 Z-1.969
N7280 G1 X245.858 Z-1.947
N7285 G1 X245.926 Z-1.939
N7290 G3 Y106.525 I0 J0.4
N7295 G1 X244.111
N7300 G1 X244.043 Z-1.947
N7305 G1 X243.979 Z-1.969
N7310 G1 X243.915 Z-1.992
N7315 G1 X243.847 Z-2
N7320 G1 X226.923 Z-2.003
N7325 G1 X225.588 Z-2.022
N7330 G1 X224.065 Z-2.08
N7335 G1 X222.438 Z-2.176
N7340 G1 X220.733 Z-2.311
N7345 G1 X219.003 Z-2.48
N7350 G1 X217.227 Z-2.684
N7355 G1 X215.422 Z-2.92
N7360 G1 X213.63 Z-3.184
N7365 G1 X211.819 Z-3.482
N7370 G1 X210.056 Z-3.801
N7375 G1 X208.319 Z-4.148
N7380 G1 X206.66 Z-4.515
N7385 G1 X205.103 Z-4.903
N7390 G1 X203.741 Z-5.287
N7395 G1 X202.507 Z-5.713
N7400 G1 X201.571 Z-6.137
N7405 G1 X200.966 Z-6.564
N7410 G1 X200.76 Z-7
N7415 G1 X200.756
N7420 G18 G3 X200.156 Z-6.4 I0 K0.6 F1000
N7425 G0 Z5
N7430 G0 X94.084 Y86.525
N7435 G0 Z-2.167
N7440 G1 Z-6.61 F1000
N7445 G3 X93.021 Z-6.992 I-0.6 K0
N7450 G1 X92.911 Z-6.858 F840
N7455 G1 X92.648 Z-6.563
N7460 G1 X91.834 Z-6.259
N7465 G1 X91.434 Z-6.129
N7470 G1 X90.722 Z-5.991
N7475 G1 X89.636 Z-5.81
N7480 G1 X88.875 Z-5.703
N7485 G1 X88.395 Z-5.659
N7490 G1 X87.427 Z-5.583
N7495 G1 X86.348 Z-5.519
N7500 G1 X85.334 Z-5.478
N7505 G1 X84.316 Z-5.46
N7510 G1 X83.073 Z-5.469
N7515 G1 X81.952 Z-5.509
N7520 G1 X80.957 Z-5.571
N7525 G1 X79.963 Z-5.659
N7530 G1 X79.511 Z-5.712
N7535 G1 X79.013 Z-5.794
N7540 G1 X78.067 Z-5.986
N7545 G1 X77.452 Z-6.135
N7550 G1 X77.148 Z-6.261
N7555 G1 X76.505 Z-6.566
N7560 G1 X76.244 Z-6.942
N7565 G1 X76.22 Z-6.98
N7570 G3 X75.108 Z-6.667 I-0.512 K0.313 F1000
N7575 G0 Z5
N7580 G0 X67.589 Y87.325
N7585 G0 Z-2.299
N7590 G1 Z-6.829 F1000
N7595 G2 X68.765 Z-7 I0.6 K0
N7600 G1 X68.893 Z-6.568 F840
N7605 G1 X69.276 Z-6.138
N7610 G1 X69.955 Z-5.714
N7615 G1 X70.061 Z-5.666
N7620 G1 X70.968 Z-5.296
N7625 G1 X71.761 Z-5.068
N7630 G1 X72.395 Z-4.899
N7635 G1 X72.616 Z-4.85
N7640 G1 X73.508 Z-4.678
N7645 G1 X74.479 Z-4.508
N7650 G1 X75.233 Z-4.411
N7655 G1 X76.131 Z-4.308
N7660 G1 X77.065 Z-4.214
N7665 G1 X77.986 Z-4.134
N7670 G1 X78.86 Z-4.081
N7675 G1 X79.745 Z-4.037
N7680 G1 X80.706 Z-4
N7685 G1 X81.728 Z-3.971
N7690 G1 X82.469 Z-3.957
N7695 G1 X83.675 Z-3.946
N7700 G1 X85.016 Z-3.95
N7705 G1 X86.172 Z-3.966
N7710 G1 X87.164 Z-3.989
N7715 G1 X88.209 Z-4.021
N7720 G1 X89.35 Z-4.065
N7725 G1 X90.661 Z-4.126
N7730 G1 X91.552 Z-4.185
N7735 G1 X92.646 Z-4.267
N7740 G1 X93.756 Z-4.361
N7745 G1 X95.109 Z-4.491
N7750 G1 X95.918 Z-4.594
N7755 G1 X96.973 Z-4.742
N7760 G1 X97.854 Z-4.876
N7765 G1 X98.111 Z-4.924
N7770 G1 X99.135 Z-5.136
N7775 G1 X99.801 Z-5.284
N7780 G1 X100.272 Z-5.422
N7785 G1 X101.162 Z-5.702
N7790 G1 X101.358 Z-5.789
N7795 G1 X102.073 Z-6.131
N7800 G1 X102.372 Z-6.372
N7805 G1 X102.602 Z-6.564
N7810 G1 X102.768 Z-6.996
N7815 G2 X103.928 Z-6.78 I0.56 K0.216 F1000
N7820 G0 Z5
N7825 G0 X109.95 Y88.125
N7830 G0 Z-2.304
N7835 G1 Z-6.817 F1000
N7840 G3 X108.774 Z-6.984 I-0.6 K0
N7845 G1 X108.652 Z-6.562 F840
N7850 G1 X108.266 Z-6.128
N7855 G1 X107.632 Z-5.704
N7860 G1 X106.688 Z-5.283
N7865 G1 X105.468 Z-4.887
N7870 G1 X104.335 Z-4.613
N7875 G1 X103.791 Z-4.489
N7880 G1 X102.923 Z-4.331
N7885 G1 X102.083 Z-4.185
N7890 G1 X101.678 Z-4.12
N7895 G1 X100.301 Z-3.937
N7900 G1 X99.04 Z-3.785
N7905 G1 X97.733 Z-3.664
N7910 G1 X96.512 Z-3.561
N7915 G1 X95.247 Z-3.464
N7920 G1 X93.58 Z-3.371
N7925 G1 X92.059 Z-3.298
N7930 G1 X90.35 Z-3.23
N7935 G1 X88.672 Z-3.178
N7940 G1 X87.223 Z-3.149
N7945 G1 X85.699 Z-3.13
N7950 G1 X83.553 Z-3.123
N7955 G1 X81.763 Z-3.137
N7960 G1 X80.273 Z-3.164
N7965 G1 X79.041 Z-3.202
N7970 G1 X77.826 Z-3.255
N7975 G1 X76.678 Z-3.316
N7980 G1 X75.402 Z-3.397
N7985 G1 X74.441 Z-3.47
N7990 G1 X73.426 Z-3.573
N7995 G1 X72.53 Z-3.673
N8000 G1 X71.664 Z-3.779
N8005 G1 X70.923 Z-3.894
N8010 G1 X70.029 Z-4.045
N8015 G1 X69.49 Z-4.144
N8020 G1 X68.376 Z-4.401
N8025 G1 X67.932 Z-4.513
N8030 G1 X67.438 Z-4.666
N8035 G1 X66.736 Z-4.893
N8040 G1 X65.816 Z-5.287
N8045 G1 X65.094 Z-5.714
N8050 G1 X64.617 Z-6.134
N8055 G1 X64.326 Z-6.567
N8060 G1 X64.232 Z-6.989
N8065 G1 X64.01 Y88.172
N8070 G1 X63.566 Y88.265 Z-6.99
N8075 G1 X63.343 Y88.311
N8080 G1 X62.678 Y88.458 Z-6.991
N8085 G1 X62.457 Y88.507
N8090 G1 X61.793 Y88.66 Z-6.992
N8095 G1 X61.572 Y88.712
N8100 G1 X60.91 Y88.871 Z-6.993
N8105 G1 X60.689 Y88.925
N8110 G1 X60.768 Z-6.562
N8115 G1 X61.002 Z-6.138
N8120 G1 X61.403 Z-5.713
N8125 G1 X61.59 Z-5.573
N8130 G1 X61.971 Z-5.297
N8135 G1 X62.731 Z-4.887
N8140 G1 X63.645 Z-4.513
N8145 G1 X64.128 Z-4.355
N8150 G1 X64.794 Z-4.147
N8155 G1 X65.047 Z-4.08
N8160 G1 X66.197 Z-3.801
N8165 G1 X66.713 Z-3.699
N8170 G1 X67.9 Z-3.482
N8175 G1 X68.233 Z-3.431
N8180 G1 X69.253 Z-3.29
N8185 G1 X70.278 Z-3.161
N8190 G1 X71.587 Z-3.035
N8195 G1 X72.81 Z-2.929
N8200 G1 X73.375 Z-2.889
N8205 G1 X74.821 Z-2.805
N8210 G1 X76.275 Z-2.734
N8215 G1 X77.793 Z-2.676
N8220 G1 X79.134 Z-2.642
N8225 G1 X81.002 Z-2.611
N8230 G1 X83.076 Z-2.594
N8235 G1 X86.027 Z-2.6
N8240 G1 X88.229 Z-2.624
N8245 G1 X90.429 Z-2.661
N8250 G1 X91.584 Z-2.69
N8255 G1 X93.555 Z-2.755
N8260 G1 X95.544 Z-2.834
N8265 G1 X97.21 Z-2.913
N8270 G1 X98.908 Z-3.022
N8275 G1 X100.695 Z-3.151
N8280 G1 X101.247 Z-3.198
N8285 G1 X102.787 Z-3.352
N8290 G1 X103.881 Z-3.469
N8295 G1 X105.02 Z-3.624
N8300 G1 X106.153 Z-3.786
N8305 G1 X107.044 Z-3.947
N8310 G1 X107.963 Z-4.121
N8315 G1 X108.358 Z-4.211
N8320 G1 X109.542 Z-4.498
N8325 G1 X110.756 Z-4.88
N8330 G1 X111.736 Z-5.283
N8335 G1 X112.477 Z-5.702
N8340 G1 X112.618 Z-5.815
N8345 G1 X112.996 Z-6.128
N8350 G1 X113.307 Z-6.564
N8355 G1 X113.41 Z-7
N8360 G1 X113.651 Y88.971
N8365 G1 X114.374 Y89.114
N8370 G1 X114.614 Y89.162
N8375 G1 X115.336 Y89.31
N8380 G1 X115.577 Y89.36
N8385 G1 X116.297 Y89.514
N8390 G1 X116.537 Y89.566
N8395 G1 X117.256 Y89.725
N8400 G1 X117.165 Z-6.558
N8405 G1 X116.901 Z-6.127
N8410 G1 X116.463 Z-5.701
N8415 G1 X115.829 Z-5.282
N8420 G1 X115.242 Z-4.99
N8425 G1 X115.01 Z-4.879
N8430 G1 X114.228 Z-4.58
N8435 G1 X113.978 Z-4.49
N8440 G1 X113.116 Z-4.232
N8445 G1 X112.733 Z-4.122
N8450 G1 X111.344 Z-3.799
N8455 G1 X110.34 Z-3.611
N8460 G1 X109.463 Z-3.456
N8465 G1 X108.013 Z-3.252
N8470 G1 X107.348 Z-3.163
N8475 G1 X105.736 Z-2.992
N8480 G1 X104.742 Z-2.894
N8485 G1 X102.824 Z-2.747
N8490 G1 X101.64 Z-2.665
N8495 G1 X99.489 Z-2.554
N8500 G1 X97.537 Z-2.466
N8505 G1 X95.025 Z-2.39
N8510 G1 X92.488 Z-2.329
N8515 G1 X90.776 Z-2.298
N8520 G1 X87.692 Z-2.266
N8525 G1 X83.936 Z-2.252
N8530 G1 X80.717 Z-2.265
N8535 G1 X78.34 Z-2.293
N8540 G1 X77.19 Z-2.316
N8545 G1 X75.349 Z-2.368
N8550 G1 X73.527 Z-2.435
N8555 G1 X72.607 Z-2.476
N8560 G1 X70.99 Z-2.575
N8565 G1 X69.575 Z-2.674
N8570 G1 X68.176 Z-2.809
N8575 G1 X67.182 Z-2.915
N8580 G1 X65.887 Z-3.091
N8585 G1 X65.285 Z-3.18
N8590 G1 X64.158 Z-3.385
N8595 G1 X63.67 Z-3.479
N8600 G1 X62.536 Z-3.747
N8605 G1 X62.313 Z-3.805
N8610 G1 X61.567 Z-4.027
N8615 G1 X61.188 Z-4.144
N8620 G1 X60.224 Z-4.512
N8625 G1 X59.431 Z-4.898
N8630 G1 X58.795 Z-5.298
N8635 G1 X58.318 Z-5.697
N8640 G1 X58.232 Z-5.797
N8645 G1 X57.955 Z-6.136
N8650 G1 X57.746 Z-6.564
N8655 G1 X57.675 Z-7
N8660 G1 X57.508 Y89.773
N8665 G1 X56.839 Y89.967 Z-6.998
N8670 G1 X56.672 Y90.016
N8675 G1 X56.005 Y90.216 Z-6.996
N8680 G1 X55.838 Y90.267
N8685 G1 X55.173 Y90.473 Z-6.995
N8690 G1 X55.007 Y90.525 Z-6.994
N8695 G1 X55.069 Z-6.564
N8700 G1 X55.256 Z-6.138
N8705 G1 X55.573 Z-5.715
N8710 G1 X56.014 Z-5.298
N8715 G1 X56.586 Z-4.9
N8720 G1 X56.674 Z-4.849
N8725 G1 X57.294 Z-4.513
N8730 G1 X57.444 Z-4.445
N8735 G1 X58.132 Z-4.149
N8740 G1 X58.293 Z-4.089
N8745 G1 X59.081 Z-3.817
N8750 G1 X59.237 Z-3.768
N8755 G1 X60.309 Z-3.47
N8760 G1 X61.505 Z-3.204
N8765 G1 X61.775 Z-3.15
N8770 G1 X63.087 Z-2.923
N8775 G1 X63.433 Z-2.873
N8780 G1 X64.859 Z-2.685
N8785 G1 X65.411 Z-2.626
N8790 G1 X66.979 Z-2.477
N8795 G1 X67.749 Z-2.421
N8800 G1 X69.518 Z-2.307
N8805 G1 X70.697 Z-2.255
N8810 G1 X72.792 Z-2.176
N8815 G1 X74.149 Z-2.144
N8820 G1 X76.819 Z-2.098
N8825 G1 X78.998 Z-2.074
N8830 G1 X84.363 Z-2.061
N8835 G1 X90.265 Z-2.078
N8840 G1 X93.603 Z-2.114
N8845 G1 X97.061 Z-2.166
N8850 G1 X98.884 Z-2.212
N8855 G1 X101.623 Z-2.296
N8860 G1 X102.61 Z-2.34
N8865 G1 X105.014 Z-2.46
N8870 G1 X105.721 Z-2.507
N8875 G1 X107.803 Z-2.66
N8880 G1 X108.412 Z-2.716
N8885 G1 X110.184 Z-2.896
N8890 G1 X110.741 Z-2.966
N8895 G1 X112.196 Z-3.162
N8900 G1 X112.877 Z-3.275
N8905 G1 X113.996 Z-3.472
N8910 G1 X115.387 Z-3.776
N8915 G1 X115.785 Z-3.882
N8920 G1 X116.644 Z-4.12
N8925 G1 X116.952 Z-4.222
N8930 G1 X117.72 Z-4.49
N8935 G1 X117.968 Z-4.595
N8940 G1 X118.608 Z-4.878
N8945 G1 X119.333 Z-5.286
N8950 G1 X119.874 Z-5.7
N8955 G1 X120.268 Z-6.131
N8960 G1 X120.497 Z-6.563
N8965 G1 X120.572 Z-6.989
N8970 G1 X121.313 Y90.718 Z-6.991
N8975 G1 X121.498 Y90.767
N8980 G1 X122.237 Y90.966 Z-6.993
N8985 G1 X122.421 Y91.016
N8990 G1 X123.159 Y91.221 Z-6.995
N8995 G1 X123.343 Y91.273
N9000 G1 X123.527 Y91.325 Z-6.996
N9005 G1 X123.456 Z-6.559
N9010 G1 X123.246 Z-6.126
N9015 G1 X122.891 Z-5.7
N9020 G1 X122.399 Z-5.284
N9025 G1 X121.772 Z-4.888
N9030 G1 X120.991 Z-4.501
N9035 G1 X120.043 Z-4.129
N9040 G1 X118.95 Z-3.784
N9045 G1 X117.7 Z-3.469
N9050 G1 X116.642 Z-3.253
N9055 G1 X116.148 Z-3.157
N9060 G1 X114.632 Z-2.917
N9065 G1 X113.759 Z-2.805
N9070 G1 X112.603 Z-2.666
N9075 G1 X110.656 Z-2.486
N9080 G1 X110.206 Z-2.45
N9085 G1 X107.97 Z-2.304
N9090 G1 X105.489 Z-2.192
N9095 G1 X104.819 Z-2.166
N9100 G1 X101.697 Z-2.084
N9105 G1 X100.906 Z-2.07
N9110 G1 X96.787 Z-2.021
N9115 G1 X86.811 Z-2
N9120 G1 X77.035 Z-2.007
N9125 G1 X73.345 Z-2.022
N9130 G1 X70.033 Z-2.075
N9135 G1 X67.996 Z-2.142
N9140 G1 X67.119 Z-2.177
N9145 G1 X65.01 Z-2.301
N9150 G1 X63.18 Z-2.459
N9155 G1 X62.307 Z-2.559
N9160 G1 X61.346 Z-2.678
N9165 G1 X59.907 Z-2.904
N9170 G1 X58.585 Z-3.17
N9175 G1 X57.48 Z-3.447
N9180 G1 X57.258 Z-3.511
N9185 G1 X56.35 Z-3.797
N9190 G1 X55.448 Z-4.145
N9195 G1 X54.682 Z-4.512
N9200 G1 X54.043 Z-4.893
N9205 G1 X53.516 Z-5.292
N9210 G1 X53.104 Z-5.712
N9215 G1 X52.81 Z-6.136
N9220 G1 X52.637 Z-6.563
N9225 G1 X52.578 Z-6.998
N9230 G1 X52.015 Y91.521
N9235 G1 X51.733 Y91.62 Z-6.997
N9240 G1 X51.171 Y91.819
N9245 G1 X50.891 Y91.921
N9250 G1 X50.33 Y92.125
N9255 G1 X50.385 Z-6.569
N9260 G1 X50.55 Z-6.137
N9265 G1 X50.822 Z-5.713
N9270 G1 X51.2 Z-5.301
N9275 G1 X51.7 Z-4.894
N9280 G1 X52.295 Z-4.513
N9285 G1 X53.006 Z-4.145
N9290 G1 X53.837 Z-3.797
N9295 G1 X54.773 Z-3.476
N9300 G1 X55.862 Z-3.173
N9305 G1 X57.051 Z-2.906
N9310 G1 X58.359 Z-2.673
N9315 G1 X59.809 Z-2.472
N9320 G1 X61.424 Z-2.304
N9325 G1 X63.222 Z-2.173
N9330 G1 X65.253 Z-2.078
N9335 G1 X67.566 Z-2.021
N9340 G1 X69.712 Z-2.005
N9345 G1 X99.704 Z-2
N9350 G1 X104.347 Z-2.018
N9355 G1 X107.57 Z-2.075
N9360 G1 X108.773 Z-2.116
N9365 G1 X110.403 Z-2.177
N9370 G1 X112.678 Z-2.306
N9375 G1 X114.71 Z-2.47
N9380 G1 X116.513 Z-2.668
N9385 G1 X118.05 Z-2.887
N9390 G1 X118.334 Z-2.934
N9395 G1 X119.619 Z-3.17
N9400 G1 X120.886 Z-3.459
N9405 G1 X122.011 Z-3.777
N9410 G1 X123.016 Z-4.125
N9415 G1 X123.849 Z-4.483
N9420 G1 X123.955 Z-4.536
N9425 G1 X124.595 Z-4.88
N9430 G1 X125.195 Z-5.289
N9435 G1 X125.645 Z-5.698
N9440 G1 X125.971 Z-6.122
N9445 G1 X126.173 Z-6.561
N9450 G1 X126.24 Z-7
N9455 G1 X126.559 Y92.222 Z-6.998
N9460 G1 X126.877 Y92.321 Z-6.997
N9465 G1 X127.514 Y92.52 Z-6.993
N9470 G1 X127.832 Y92.621 Z-6.992
N9475 G1 X128.467 Y92.824 Z-6.988
N9480 G1 X128.785 Y92.925 Z-6.987
N9485 G1 X128.722 Z-6.559
N9490 G1 X128.533 Z-6.126
N9495 G1 X128.22 Z-5.699
N9500 G1 X127.787 Z-5.284
N9505 G1 X127.23 Z-4.881
N9510 G1 X126.541 Z-4.489
N9515 G1 X125.733 Z-4.121
N9520 G1 X124.838 Z-3.785
N9525 G1 X123.788 Z-3.463
N9530 G1 X122.602 Z-3.166
N9535 G1 X121.302 Z-2.902
N9540 G1 X119.852 Z-2.668
N9545 G1 X118.249 Z-2.467
N9550 G1 X116.458 Z-2.299
N9555 G1 X114.449 Z-2.167
N9560 G1 X112.267 Z-2.075
N9565 G1 X109.864 Z-2.019
N9570 G1 X106.547 Z-2
N9575 G1 X65.455 Z-2.002
N9580 G1 X63.484 Z-2.023
N9585 G1 X61.655 Z-2.08
N9590 G1 X59.966 Z-2.174
N9595 G1 X58.385 Z-2.309
N9600 G1 X56.979 Z-2.475
N9605 G1 X55.684 Z-2.675
N9610 G1 X54.485 Z-2.91
N9615 G1 X53.379 Z-3.182
N9620 G1 X52.397 Z-3.477
N9625 G1 X51.523 Z-3.799
N9630 G1 X50.751 Z-4.145
N9635 G1 X50.083 Z-4.512
N9640 G1 X49.521 Z-4.892
N9645 G1 X49.05 Z-5.301
N9650 G1 X48.69 Z-5.712
N9655 G1 X48.432 Z-6.137
N9660 G1 X48.277 Z-6.564
N9665 G1 X48.225 Z-6.999
N9670 G1 X47.975 Y93.023
N9675 G1 X47.725 Y93.122 Z-6.998
N9680 G1 X47.226 Y93.321
N9685 G1 X46.977 Y93.421
N9690 G1 X46.479 Y93.624 Z-6.997
N9695 G1 X46.23 Y93.725
N9700 G1 X46.279 Z-6.57
N9705 G1 X46.429 Z-6.137
N9710 G1 X46.678 Z-5.712
N9715 G1 X47.025 Z-5.294
N9720 G1 X47.464 Z-4.898
N9725 G1 X48.01 Z-4.507
N9730 G1 X48.649 Z-4.14
N9735 G1 X49.375 Z-3.797
N9740 G1 X50.197 Z-3.477
N9745 G1 X51.116 Z-3.182
N9750 G1 X52.142 Z-2.913
N9755 G1 X53.257 Z-2.676
N9760 G1 X54.431 Z-2.479
N9765 G1 X55.759 Z-2.307
N9770 G1 X57.157 Z-2.175
N9775 G1 X58.632 Z-2.081
N9780 G1 X60.257 Z-2.022
N9785 G1 X61.837 Z-2.003
N9790 G1 X111.616 Z-2
N9795 G1 X114.066 Z-2.018
N9800 G1 X116.195 Z-2.076
N9805 G1 X118.069 Z-2.169
N9810 G1 X119.766 Z-2.298
N9815 G1 X121.338 Z-2.464
N9820 G1 X122.77 Z-2.662
N9825 G1 X124.095 Z-2.894
N9830 G1 X125.325 Z-3.162
N9835 G1 X126.419 Z-3.453
N9840 G1 X127.411 Z-3.774
N9845 G1 X128.308 Z-4.127
N9850 G1 X129.058 Z-4.49
N9855 G1 X129.715 Z-4.879
N9860 G1 X130.246 Z-5.281
N9865 G1 X130.667 Z-5.699
N9870 G1 X130.963 Z-6.121
N9875 G1 X131.145 Z-6.555
N9880 G1 X131.208 Z-7
N9885 G1 X131.793 Y93.923
N9890 G1 X132.085 Y94.022
N9895 G1 X132.669 Y94.223
N9900 G1 X132.961 Y94.323
N9905 G1 X133.545 Y94.525
N9910 G1 X133.483 Z-6.555
N9915 G1 X133.305 Z-6.12
N9920 G1 X133.017 Z-5.697
N9925 G1 X132.615 Z-5.284
N9930 G1 X132.093 Z-4.878
N9935 G1 X131.466 Z-4.492
N9940 G1 X130.723 Z-4.121
N9945 G1 X129.878 Z-3.775
N9950 G1 X128.946 Z-3.458
N9955 G1 X127.906 Z-3.165
N9960 G1 X126.759 Z-2.9
N9965 G1 X125.517 Z-2.667
N9970 G1 X124.163 Z-2.465
N9975 G1 X122.695 Z-2.297
N9980 G1 X121.15 Z-2.167
N9985 G1 X119.487 Z-2.074
N9990 G1 X117.737 Z-2.019
N9995 G1 X115.539 Z-2
N10000 G1 X58.872 Z-2.002
N10005 G1 X57.438 Z-2.022
N10010 G1 X55.988 Z-2.081
N10015 G1 X54.615 Z-2.177
N10020 G1 X53.332 Z-2.31
N10025 G1 X52.125 Z-2.478
N10030 G1 X51.008 Z-2.679
N10035 G1 X49.97 Z-2.913
N10040 G1 X49.017 Z-3.177
N10045 G1 X48.138 Z-3.473
N10050 G1 X47.348 Z-3.795
N10055 G1 X46.64 Z-4.145
N10060 G1 X46.035 Z-4.511
N10065 G1 X45.521 Z-4.893
N10070 G1 X45.093 Z-5.297
N10075 G1 X44.757 Z-5.715
N10080 G1 X44.52 Z-6.141
N10085 G1 X44.379 Z-6.567
N10090 G1 X44.332 Z-7
N10095 G1 X44.103 Y94.624
N10100 G1 X43.875 Y94.722
N10105 G1 X43.191 Y95.022
N10110 G1 X42.964 Y95.122
N10115 G1 X42.51 Y95.325
N10120 G1 X42.556 Z-6.571
N10125 G1 X42.693 Z-6.142
N10130 G1 X42.924 Z-5.713
N10135 G1 X43.244 Z-5.299
N10140 G1 X43.653 Z-4.9
N10145 G1 X44.152 Z-4.512
N10150 G1 X44.742 Z-4.143
N10155 G1 X45.412 Z-3.798
N10160 G1 X46.166 Z-3.477
N10165 G1 X47.001 Z-3.182
N10170 G1 X47.912 Z-2.916
N10175 G1 X48.914 Z-2.679
N10180 G1 X49.983 Z-2.476
N10185 G1 X51.122 Z-2.308
N10190 G1 X52.319 Z-2.176
N10195 G1 X53.6 Z-2.08
N10200 G1 X54.938 Z-2.021
N10205 G1 X56.143 Z-2.004
N10210 G1 X119.165 Z-2
N10215 G1 X120.797 Z-2.018
N10220 G1 X122.457 Z-2.075
N10225 G1 X123.98 Z-2.168
N10230 G1 X125.409 Z-2.297
N10235 G1 X126.764 Z-2.462
N10240 G1 X128.03 Z-2.661
N10245 G1 X129.219 Z-2.895
N10250 G1 X130.326 Z-3.161
N10255 G1 X131.335 Z-3.455
N10260 G1 X132.249 Z-3.775
N10265 G1 X133.071 Z-4.123
N10270 G1 X133.786 Z-4.49
N10275 G1 X134.402 Z-4.879
N10280 G1 X134.907 Z-5.281
N10285 G1 X135.305 Z-5.7
N10290 G1 X135.591 Z-6.128
N10295 G1 X135.761 Z-6.558
N10300 G1 X135.821 Z-6.998
N10305 G1 X136.1 Y95.425
N10310 G1 X136.939 Y95.724
N10315 G1 X137.218 Y95.824
N10320 G1 X137.777 Y96.025
N10325 G1 X138.056 Y96.125
N10330 G1 X138 Z-6.564
N10335 G1 X137.83 Z-6.128
N10340 G1 X137.548 Z-5.701
N10345 G1 X137.153 Z-5.28
N10350 G1 X136.658 Z-4.879
N10355 G1 X136.055 Z-4.492
N10360 G1 X135.345 Z-4.121
N10365 G1 X134.545 Z-3.775
N10370 G1 X133.649 Z-3.453
N10375 G1 X132.665 Z-3.159
N10380 G1 X131.605 Z-2.896
N10385 G1 X130.456 Z-2.662
N10390 G1 X129.219 Z-2.46
N10395 G1 X127.917 Z-2.295
N10400 G1 X126.554 Z-2.166
N10405 G1 X125.17 Z-2.075
N10410 G1 X123.619 Z-2.018
N10415 G1 X121.979 Z-2
N10420 G1 X53.859 Z-2.002
N10425 G1 X52.609 Z-2.022
N10430 G1 X51.392 Z-2.079
N10435 G1 X50.176 Z-2.176
N10440 G1 X49.034 Z-2.308
N10445 G1 X47.95 Z-2.476
N10450 G1 X46.931 Z-2.679
N10455 G1 X45.981 Z-2.915
N10460 G1 X45.101 Z-3.181
N10465 G1 X44.3 Z-3.474
N10470 G1 X43.562 Z-3.8
N10475 G1 X42.918 Z-4.144
N10480 G1 X42.352 Z-4.51
N10485 G1 X41.867 Z-4.896
N10490 G1 X41.468 Z-5.299
N10495 G1 X41.156 Z-5.716
N10500 G1 X40.934 Z-6.138
N10505 G1 X40.8 Z-6.564
N10510 G1 X40.756 Z-6.983
N10515 G1 X40.544 Y96.224
N10520 G1 X40.119 Y96.423 Z-6.982
N10525 G1 X39.907 Y96.522
N10530 G1 X39.271 Y96.824 Z-6.981
N10535 G1 X39.06 Y96.925
N10540 G1 X39.101 Z-6.567
N10545 G1 X39.233 Z-6.135
N10550 G1 X39.448 Z-5.717
N10555 G1 X39.75 Z-5.303
N10560 G1 X40.139 Z-4.898
N10565 G1 X40.607 Z-4.514
N10570 G1 X41.16 Z-4.145
N10575 G1 X41.795 Z-3.796
N10580 G1 X42.495 Z-3.477
N10585 G1 X43.279 Z-3.18
N10590 G1 X44.119 Z-2.917
N10595 G1 X45.033 Z-2.682
N10600 G1 X46.012 Z-2.478
N10605 G1 X47.054 Z-2.309
N10610 G1 X48.147 Z-2.176
N10615 G1 X49.302 Z-2.079
N10620 G1 X50.473 Z-2.022
N10625 G1 X51.767 Z-2
N10630 G1 X124.722
N10635 G1 X126.252 Z-2.018
N10640 G1 X127.699 Z-2.075
N10645 G1 X129.021 Z-2.165
N10650 G1 X130.362 Z-2.298
N10655 G1 X131.591 Z-2.46
N10660 G1 X132.792 Z-2.663
N10665 G1 X133.913 Z-2.897
N10670 G1 X134.951 Z-3.16
N10675 G1 X135.918 Z-3.455
N10680 G1 X136.792 Z-3.774
N10685 G1 X137.583 Z-4.121
N10690 G1 X138.281 Z-4.49
N10695 G1 X138.881 Z-4.879
N10700 G1 X139.373 Z-5.281
N10705 G1 X139.763 Z-5.698
N10710 G1 X140.039 Z-6.12
N10715 G1 X140.211 Z-6.557
N10720 G1 X140.27 Z-7
N10725 G1 X141.651 Y97.425
N10730 G1 X141.927 Y97.525
N10735 G1 X142.479 Y97.725
N10740 G1 X142.42 Z-6.556
N10745 G1 X142.253 Z-6.127
N10750 G1 X141.972 Z-5.699
N10755 G1 X141.582 Z-5.281
N10760 G1 X141.091 Z-4.879
N10765 G1 X140.493 Z-4.49
N10770 G1 X139.797 Z-4.121
N10775 G1 X139.011 Z-3.774
N10780 G1 X138.144 Z-3.454
N10785 G1 X137.187 Z-3.159
N10790 G1 X136.161 Z-2.895
N10795 G1 X135.056 Z-2.661
N10800 G1 X133.897 Z-2.461
N10805 G1 X132.67 Z-2.295
N10810 G1 X131.396 Z-2.166
N10815 G1 X130.118 Z-2.075
N10820 G1 X128.71 Z-2.018
N10825 G1 X127.379 Z-2
N10830 G1 X95.691
N10835 G1 X95.623 Z-1.992
N10840 G1 X95.559 Z-1.969
N10845 G1 X95.494 Z-1.947
N10850 G1 X95.427 Z-1.939
N10855 G17 G2 Y98.525 I0 J0.4
N10860 G1 X103.424
N10865 G1 X103.492 Z-1.947
N10870 G1 X103.556 Z-1.969
N10875 G1 X103.62 Z-1.992
N10880 G1 X103.688 Z-2
N10885 G1 X129.704
N10890 G1 X131.077 Z-2.018
N10895 G1 X132.444 Z-2.075
N10900 G1 X133.69 Z-2.166
N10905 G1 X134.937 Z-2.295
N10910 G1 X136.143 Z-2.461
N10915 G1 X137.288 Z-2.66
N10920 G1 X138.382 Z-2.895
N10925 G1 X139.401 Z-3.159
N10930 G1 X140.354 Z-3.454
N10935 G1 X141.226 Z-3.776
N10940 G1 X142.012 Z-4.123
N10945 G1 X142.7 Z-4.489
N10950 G1 X143.3 Z-4.877
N10955 G1 X143.798 Z-5.282
N10960 G1 X144.189 Z-5.699
N10965 G1 X144.471 Z-6.125
N10970 G1 X144.641 Z-6.557
N10975 G1 X144.701 Z-7
N10980 G1 X144.982 Y98.626 Z-6.999
N10985 G1 X145.544 Y98.827 Z-6.998
N10990 G1 X145.825 Y98.927 Z-6.997
N10995 G1 X146.388 Y99.126 Z-6.995
N11000 G1 X146.669 Y99.226 Z-6.994
N11005 G1 X146.951 Y99.325 Z-6.993
N11010 G1 X146.892 Z-6.558
N11015 G1 X146.718 Z-6.124
N11020 G1 X146.431 Z-5.697
N11025 G1 X146.039 Z-5.283
N11030 G1 X145.532 Z-4.877
N11035 G1 X144.928 Z-4.49
N11040 G1 X144.228 Z-4.121
N11045 G1 X143.436 Z-3.775
N11050 G1 X142.561 Z-3.453
N11055 G1 X141.607 Z-3.158
N11060 G1 X140.59 Z-2.894
N11065 G1 X139.499 Z-2.66
N11070 G1 X138.362 Z-2.461
N11075 G1 X137.167 Z-2.295
N11080 G1 X135.936 Z-2.165
N11085 G1 X134.711 Z-2.075
N11090 G1 X133.44 Z-2.019
N11095 G1 X132.015 Z-2
N11100 G1 X109.054
N11105 G1 X108.986 Z-1.992
N11110 G1 X108.922 Z-1.969
N11115 G1 X108.857 Z-1.947
N11120 G1 X108.79 Z-1.939
N11125 G2 Y100.125 I0 J0.4
N11130 G1 X113.005
N11135 G1 X113.072 Z-1.947
N11140 G1 X113.137 Z-1.969
N11145 G1 X113.201 Z-1.992
N11150 G1 X113.269 Z-2
N11155 G1 X134.269
N11160 G1 X135.627 Z-2.018
N11165 G1 X136.948 Z-2.075
N11170 G1 X138.162 Z-2.166
N11175 G1 X139.386 Z-2.295
N11180 G1 X140.577 Z-2.461
N11185 G1 X141.713 Z-2.661
N11190 G1 X142.805 Z-2.895
N11195 G1 X143.829 Z-3.159
N11200 G1 X144.79 Z-3.453
N11205 G1 X145.675 Z-3.775
N11210 G1 X146.474 Z-4.121
N11215 G1 X147.19 Z-4.491
N11220 G1 X147.807 Z-4.879
N11225 G1 X148.319 Z-5.284
N11230 G1 X148.725 Z-5.701
N11235 G1 X149.016 Z-6.127
N11240 G1 X149.194 Z-6.563
N11245 G1 X149.254 Z-7
N11250 G1 X149.55 Y100.227 Z-6.999
N11255 G1 X150.143 Y100.428 Z-6.997
N11260 G1 X150.44 Y100.528 Z-6.996
N11265 G1 X151.034 Y100.728 Z-6.995
N11270 G1 X151.332 Y100.827 Z-6.994
N11275 G1 X151.629 Y100.925 Z-6.993
N11280 G1 X151.567 Z-6.559
N11285 G1 X151.385 Z-6.128
N11290 G1 X151.079 Z-5.697
N11295 G1 X150.663 Z-5.281
N11300 G1 X150.136 Z-4.878
N11305 G1 X149.502 Z-4.489
N11310 G1 X148.772 Z-4.121
N11315 G1 X147.948 Z-3.773
N11320 G1 X147.056 Z-3.455
N11325 G1 X146.081 Z-3.16
N11330 G1 X145.033 Z-2.894
N11335 G1 X143.93 Z-2.66
N11340 G1 X142.786 Z-2.461
N11345 G1 X141.595 Z-2.295
N11350 G1 X140.374 Z-2.166
N11355 G1 X139.163 Z-2.075
N11360 G1 X137.85 Z-2.018
N11365 G1 X136.627 Z-2
N11370 G1 X116.789
N11375 G2 Y101.725 I0 J0.4
N11380 G1 X119.837
N11385 G1 X138.679
N11390 G1 X140.063 Z-2.018
N11395 G1 X141.37 Z-2.075
N11400 G1 X142.582 Z-2.166
N11405 G1 X143.813 Z-2.295
N11410 G1 X145.019 Z-2.46
N11415 G1 X146.196 Z-2.662
N11420 G1 X147.314 Z-2.896
N11425 G1 X148.369 Z-3.159
N11430 G1 X149.366 Z-3.452
N11435 G1 X150.299 Z-3.776
N11440 G1 X151.143 Z-4.121
N11445 G1 X151.898 Z-4.491
N11450 G1 X152.551 Z-4.876
N11455 G1 X153.102 Z-5.281
N11460 G1 X153.54 Z-5.7
N11465 G1 X153.853 Z-6.125
N11470 G1 X154.046 Z-6.559
N11475 G1 X154.112 Z-6.996
N11480 G1 X154.44 Y101.828
N11485 G1 X154.769 Y101.93 Z-6.997
N11490 G1 X155.427 Y102.131 Z-6.998
N11495 G1 X155.756 Y102.231
N11500 G1 X156.415 Y102.428 Z-6.999
N11505 G1 X156.745 Y102.525 Z-7
N11510 G1 X156.677 Z-6.564
N11515 G1 X156.469 Z-6.125
N11520 G1 X156.137 Z-5.699
N11525 G1 X155.678 Z-5.284
N11530 G1 X155.098 Z-4.879
N11535 G1 X154.402 Z-4.489
N11540 G1 X153.615 Z-4.122
N11545 G1 X152.732 Z-3.775
N11550 G1 X151.769 Z-3.453
N11555 G1 X150.74 Z-3.16
N11560 G1 X149.64 Z-2.894
N11565 G1 X148.492 Z-2.661
N11570 G1 X147.308 Z-2.462
N11575 G1 X146.087 Z-2.297
N11580 G1 X144.839 Z-2.167
N11585 G1 X143.547 Z-2.073
N11590 G1 X142.296 Z-2.018
N11595 G1 X140.852 Z-2
N11600 G1 X122.596
N11605 G2 Y103.325 I0 J0.4
N11610 G1 X125.162
N11615 G1 X143.13
N11620 G1 X144.514 Z-2.018
N11625 G1 X145.851 Z-2.075
N11630 G1 X147.098 Z-2.166
N11635 G1 X148.4 Z-2.297
N11640 G1 X149.655 Z-2.463
N11645 G1 X150.876 Z-2.662
N11650 G1 X152.062 Z-2.895
N11655 G1 X153.191 Z-3.157
N11660 G1 X154.277 Z-3.452
N11665 G1 X155.297 Z-3.775
N11670 G1 X156.226 Z-4.12
N11675 G1 X157.07 Z-4.489
N11680 G1 X157.81 Z-4.877
N11685 G1 X158.437 Z-5.283
N11690 G1 X158.935 Z-5.701
N11695 G1 X159.298 Z-6.127
N11700 G1 X159.519 Z-6.559
N11705 G1 X159.593 Z-6.988
N11710 G1 X159.792 Y103.378 Z-6.989
N11715 G1 X159.99 Y103.431 Z-6.99
N11720 G1 X160.784 Y103.637 Z-6.993
N11725 G1 X160.983 Y103.687
N11730 G1 X161.579 Y103.837 Z-6.996
N11735 G1 X161.778 Y103.886
N11740 G1 X162.376 Y104.031 Z-6.999
N11745 G1 X162.576 Y104.078
N11750 G1 X162.776 Y104.125 Z-7
N11755 G1 X162.689 Z-6.559
N11760 G1 X162.439 Z-6.127
N11765 G1 X162.035 Z-5.7
N11770 G1 X161.476 Z-5.282
N11775 G1 X160.789 Z-4.88
N11780 G1 X159.972 Z-4.489
N11785 G1 X159.058 Z-4.122
N11790 G1 X158.044 Z-3.775
N11795 G1 X156.958 Z-3.454
N11800 G1 X155.797 Z-3.157
N11805 G1 X154.594 Z-2.893
N11810 G1 X153.347 Z-2.66
N11815 G1 X152.073 Z-2.461
N11820 G1 X150.779 Z-2.297
N11825 G1 X149.463 Z-2.167
N11830 G1 X148.14 Z-2.074
N11835 G1 X146.787 Z-2.018
N11840 G1 X145.378 Z-2
N11845 G1 X127.592
N11850 G1 X127.525 Z-1.992
N11855 G1 X127.46 Z-1.969
N11860 G1 X127.396 Z-1.947
N11865 G1 X127.328 Z-1.939
N11870 G2 Y104.925 I0 J0.4
N11875 G1 X129.667
N11880 G1 X129.735 Z-1.947
N11885 G1 X129.799 Z-1.969
N11890 G1 X129.863 Z-1.992
N11895 G1 X129.931 Z-2
N11900 G1 X147.67
N11905 G1 X149.152 Z-2.018
N11910 G1 X150.491 Z-2.073
N11915 G1 X151.881 Z-2.166
N11920 G1 X153.256 Z-2.295
N11925 G1 X154.626 Z-2.461
N11930 G1 X155.988 Z-2.662
N11935 G1 X157.312 Z-2.894
N11940 G1 X158.603 Z-3.157
N11945 G1 X159.864 Z-3.452
N11950 G1 X161.066 Z-3.774
N11955 G1 X162.183 Z-4.118
N11960 G1 X163.227 Z-4.489
N11965 G1 X164.164 Z-4.88
N11970 G1 X164.958 Z-5.282
N11975 G1 X165.612 Z-5.7
N11980 G1 X166.091 Z-6.13
N11985 G1 X166.386 Z-6.562
N11990 G1 X166.486 Z-7
N11995 G1 X166.771 Y104.981
N12000 G1 X167.057 Y105.036
N12005 G1 X167.628 Y105.144
N12010 G1 X167.914 Y105.196
N12015 G1 X168.487 Y105.299
N12020 G1 X168.773 Y105.35
N12025 G1 X169.346 Y105.448
N12030 G1 X169.633 Y105.496
N12035 G1 X170.207 Y105.59
N12040 G1 X170.494 Y105.636
N12045 G1 X171.069 Y105.725
N12050 G1 X170.941 Z-6.56
N12055 G1 X170.567 Z-6.128
N12060 G1 X169.969 Z-5.702
N12065 G1 X169.158 Z-5.282
N12070 G1 X168.182 Z-4.879
N12075 G1 X167.061 Z-4.49
N12080 G1 X165.83 Z-4.122
N12085 G1 X164.509 Z-3.773
N12090 G1 X163.14 Z-3.454
N12095 G1 X161.714 Z-3.157
N12100 G1 X160.264 Z-2.892
N12105 G1 X158.821 Z-2.66
N12110 G1 X157.347 Z-2.459
N12115 G1 X155.885 Z-2.294
N12120 G1 X154.433 Z-2.166
N12125 G1 X153.039 Z-2.075
N12130 G1 X151.566 Z-2.018
N12135 G1 X150.005 Z-2
N12140 G1 X132.206
N12145 G2 Y106.525 I0 J0.4
N12150 G1 X134.44
N12155 G1 X152.563
N12160 G1 X154.138 Z-2.018
N12165 G1 X155.681 Z-2.075
N12170 G1 X157.169 Z-2.166
N12175 G1 X158.736 Z-2.294
N12180 G1 X160.335 Z-2.459
N12185 G1 X161.968 Z-2.659
N12190 G1 X163.61 Z-2.89
N12195 G1 X165.278 Z-3.154
N12200 G1 X166.958 Z-3.449
N12205 G1 X168.644 Z-3.775
N12210 G1 X170.262 Z-4.12
N12215 G1 X171.841 Z-4.488
N12220 G1 X173.333 Z-4.876
N12225 G1 X173.528 Z-4.934
N12230 G1 X174.688 Z-5.281
N12235 G1 X175.863 Z-5.702
N12240 G1 X176.774 Z-6.13
N12245 G1 X177.362 Z-6.564
N12250 G1 X177.555 Z-6.992
N12255 G1 X177.565 Z-7
N12260 G18 G2 X178.165 Z-6.4 I0 K0.6 F1000
N12265 G0 Z5
N12270 G0 X136.053 Y107.325
N12275 G0 Z0
N12280 G1 Z-1.4 F1000
N12285 G2 X136.653 Z-2 I0.6 K0
N12290 G1 X155.203 F840
N12295 G1 X156.886 Z-2.019
N12300 G1 X158.468 Z-2.073
N12305 G1 X160.176 Z-2.166
N12310 G1 X161.918 Z-2.295
N12315 G1 X163.734 Z-2.459
N12320 G1 X165.634 Z-2.66
N12325 G1 X167.578 Z-2.89
N12330 G1 X169.634 Z-3.156
N12335 G1 X171.529 Z-3.419
N12340 G1 X171.985 Z-3.482
N12345 G1 X174.013 Z-3.774
N12350 G1 X174.538 Z-3.854
N12355 G1 X176.337 Z-4.115
N12360 G1 X177.167 Z-4.242
N12365 G1 X178.897 Z-4.485
N12370 G1 X180.389 Z-4.701
N12375 G1 X181.969 Z-4.893
N12380 G1 X183.317 Z-5.062
N12385 G1 X184.654 Z-5.192
N12390 G1 X186.531 Z-5.324
N12395 G1 X187.51 Z-5.374
N12400 G1 X188.444 Z-5.398
N12405 G1 X189.285 Z-5.402
N12410 G1 X190.202 Z-5.386
N12415 G1 X191.124 Z-5.348
N12420 G1 X192.148 Z-5.284
N12425 G1 X193.637 Z-5.176
N12430 G1 X194.813 Z-5.061
N12435 G1 X196.17 Z-4.899
N12440 G1 X197.56 Z-4.734
N12445 G1 X199.152 Z-4.515
N12450 G1 X200.061 Z-4.396
N12455 G1 X201.802 Z-4.148
N12460 G1 X202.216 Z-4.091
N12465 G1 X204.178 Z-3.816
N12470 G1 X206.595 Z-3.484
N12475 G1 X208.891 Z-3.185
N12480 G1 X211.075 Z-2.919
N12485 G1 X213.182 Z-2.686
N12490 G1 X215.274 Z-2.479
N12495 G1 X217.255 Z-2.311
N12500 G1 X219.197 Z-2.176
N12505 G1 X221.025 Z-2.08
N12510 G1 X222.782 Z-2.021
N12515 G1 X224.487 Z-2
N12520 G1 X242.003
N12525 G1 X242.07 Z-1.992
N12530 G1 X242.135 Z-1.969
N12535 G1 X242.199 Z-1.947
N12540 G1 X242.267 Z-1.939
N12545 G17 G3 Y108.125 I0 J0.4
N12550 G1 X240.379
N12555 G1 X240.312 Z-1.947
N12560 G1 X240.247 Z-1.969
N12565 G1 X240.183 Z-1.992
N12570 G1 X240.115 Z-2
N12575 G1 X221.217 Z-2.003
N12580 G1 X219.524 Z-2.022
N12585 G1 X217.533 Z-2.081
N12590 G1 X215.427 Z-2.178
N12595 G1 X213.22 Z-2.31
N12600 G1 X210.846 Z-2.481
N12605 G1 X208.3 Z-2.686
N12610 G1 X205.555 Z-2.924
N12615 G1 X202.987 Z-3.151
N12620 G1 X200.255 Z-3.386
N12625 G1 X198.991 Z-3.483
N12630 G1 X196.856 Z-3.642
N12635 G1 X194.676 Z-3.765
N12640 G1 X192.43 Z-3.864
N12645 G1 X190.594 Z-3.91
N12650 G1 X188.71 Z-3.922
N12655 G1 X186.831 Z-3.897
N12660 G1 X184.899 Z-3.834
N12665 G1 X182.186 Z-3.696
N12670 G1 X180.178 Z-3.558
N12675 G1 X178.768 Z-3.444
N12680 G1 X176.557 Z-3.258
N12685 G1 X175.368 Z-3.146
N12690 G1 X172.872 Z-2.913
N12695 G1 X170.08 Z-2.658
N12700 G1 X167.709 Z-2.455
N12705 G1 X165.591 Z-2.294
N12710 G1 X163.571 Z-2.166
N12715 G1 X161.631 Z-2.073
N12720 G1 X159.867 Z-2.019
N12725 G1 X157.919 Z-2
N12730 G1 X138.862
N12735 G1 X138.794 Z-1.992
N12740 G1 X138.73 Z-1.969
N12745 G1 X138.666 Z-1.947
N12750 G1 X138.598 Z-1.939
N12755 G2 Y108.925 I0 J0.4
N12760 G1 X140.821
N12765 G1 X140.889 Z-1.947
N12770 G1 X140.953 Z-1.969
N12775 G1 X141.017 Z-1.992
N12780 G1 X141.085 Z-2
N12785 G1 X161.079
N12790 G1 X163.291 Z-2.019
N12795 G1 X165.346 Z-2.074
N12800 G1 X167.533 Z-2.163
N12805 G1 X170.027 Z-2.292
N12810 G1 X172.828 Z-2.455
N12815 G1 X175.808 Z-2.637
N12820 G1 X178.585 Z-2.798
N12825 G1 X182.567 Z-2.982
N12830 G1 X185.059 Z-3.061
N12835 G1 X187.635 Z-3.103
N12840 G1 X189.984 Z-3.106
N12845 G1 X192.474 Z-3.074
N12850 G1 X194.959 Z-3.005
N12855 G1 X198.228 Z-2.868
N12860 G1 X201.075 Z-2.722
N12865 G1 X205.109 Z-2.49
N12870 G1 X208.299 Z-2.312
N12875 G1 X211.029 Z-2.178
N12880 G1 X213.522 Z-2.081
N12885 G1 X215.811 Z-2.022
N12890 G1 X217.791 Z-2.002
N12895 G1 X238.17 Z-2
N12900 G1 X238.238 Z-1.992
N12905 G1 X238.302 Z-1.969
N12910 G1 X238.367 Z-1.947
N12915 G1 X238.434 Z-1.939
N12920 G3 Y109.725 I0 J0.4
N12925 G1 X236.413
N12930 G1 X236.345 Z-1.947
N12935 G1 X236.281 Z-1.969
N12940 G1 X236.216 Z-1.992
N12945 G1 X236.149 Z-2
N12950 G1 X213.553 Z-2.004
N12955 G1 X211.407 Z-2.023
N12960 G1 X208.637 Z-2.082
N12965 G1 X205.456 Z-2.178
N12970 G1 X201.277 Z-2.325
N12975 G1 X197.709 Z-2.441
N12980 G1 X193.853 Z-2.537
N12985 G1 X190.982 Z-2.576
N12990 G1 X188.17 Z-2.582
N12995 G1 X185.245 Z-2.554
N13000 G1 X182.161 Z-2.487
N13005 G1 X178.116 Z-2.365
N13010 G1 X176.016 Z-2.286
N13015 G1 X172.6 Z-2.162
N13020 G1 X169.751 Z-2.073
N13025 G1 X167.206 Z-2.018
N13030 G1 X164.716 Z-2
N13035 G1 X143.338
N13040 G2 Y110.525 I0 J0.4
N13045 G1 X145.639
N13050 G1 X168.866
N13055 G1 X172.322 Z-2.019
N13060 G1 X175.817 Z-2.073
N13065 G1 X179.18 Z-2.139
N13070 G1 X184.948 Z-2.226
N13075 G1 X188.823 Z-2.246
N13080 G1 X192.847 Z-2.229
N13085 G1 X197.124 Z-2.169
N13090 G1 X202.07 Z-2.082
N13095 G1 X205.957 Z-2.023
N13100 G1 X208.798 Z-2.003
N13105 G1 X234.03 Z-2
N13110 G1 X234.098 Z-1.992
N13115 G1 X234.162 Z-1.969
N13120 G1 X234.226 Z-1.947
N13125 G1 X234.294 Z-1.939
N13130 G3 Y111.325 I0 J0.4
N13135 G1 X232.05
N13140 G1 X231.982 Z-1.947
N13145 G1 X231.918 Z-1.969
N13150 G1 X231.853 Z-1.992
N13155 G1 X231.786 Z-2
N13160 G1 X202.249 Z-2.004
N13165 G1 X197.42 Z-2.023
N13170 G1 X191.25 Z-2.056
N13175 G1 X185.214 Z-2.051
N13180 G1 X179.312 Z-2.016
N13185 G1 X174.136 Z-2
N13190 G1 X148.012
N13195 G2 Y112.125 I0 J0.4
N13200 G1 X150.481
N13205 G1 X229.381
N13210 G1 X229.449 Z-1.992
N13215 G1 X229.513 Z-1.969
N13220 G1 X229.577 Z-1.947
N13225 G1 X229.645 Z-1.939
N13230 G3 Y112.925 I0 J0.4
N13235 G1 X227.024
N13240 G1 X226.957 Z-1.947
N13245 G1 X226.892 Z-1.969
N13250 G1 X226.828 Z-1.992
N13255 G1 X226.76 Z-2
N13260 G1 X153.088
N13265 G1 X153.02 Z-1.992
N13270 G1 X152.956 Z-1.969
N13275 G1 X152.892 Z-1.947
N13280 G1 X152.824 Z-1.939
N13285 G2 Y113.725 I0 J0.4
N13290 G1 X155.615
N13295 G1 X155.683 Z-1.947
N13300 G1 X155.747 Z-1.969
N13305 G1 X155.811 Z-1.992
N13310 G1 X155.879 Z-2
N13315 G1 X223.851
N13320 G1 X223.919 Z-1.992
N13325 G1 X223.983 Z-1.969
N13330 G1 X224.047 Z-1.947
N13335 G1 X224.115 Z-1.939
N13340 G3 Y114.525 I0 J0.4
N13345 G1 X220.824
N13350 G1 X220.756 Z-1.947
N13355 G1 X220.692 Z-1.969
N13360 G1 X220.628 Z-1.992
N13365 G1 X220.56 Z-2
N13370 G1 X158.937
N13375 G1 X158.869 Z-1.992
N13380 G1 X158.805 Z-1.969
N13385 G1 X158.74 Z-1.947
N13390 G1 X158.672 Z-1.939
N13395 G2 Y115.325 I0 J0.4
N13400 G1 X162.137
N13405 G1 X162.205 Z-1.947
N13410 G1 X162.269 Z-1.969
N13415 G1 X162.333 Z-1.992
N13420 G1 X162.401 Z-2
N13425 G1 X216.8
N13430 G1 X216.867 Z-1.992
N13435 G1 X216.932 Z-1.969
N13440 G1 X216.996 Z-1.947
N13445 G1 X217.064 Z-1.939
N13450 G3 Y116.125 I0 J0.4
N13455 G1 X212.662
N13460 G1 X212.595 Z-1.947
N13465 G1 X212.53 Z-1.969
N13470 G1 X212.466 Z-1.992
N13475 G1 X212.398 Z-2
N13480 G1 X166.477
N13485 G1 X166.41 Z-1.992
N13490 G1 X166.345 Z-1.969
N13495 G1 X166.281 Z-1.947
N13500 G1 X166.213 Z-1.939
N13505 G2 Y116.925 I0 J0.4
N13510 G1 X171.341
N13515 G1 X171.409 Z-1.947
N13520 G1 X171.473 Z-1.969
N13525 G1 X171.538 Z-1.992
N13530 G1 X171.605 Z-2
N13535 G1 X206.939
N13540 G1 X207.007 Z-1.992
N13545 G1 X207.071 Z-1.969
N13550 G1 X207.136 Z-1.947
N13555 G1 X207.203 Z-1.939
N13560 G3 Y117.725 I0 J0.4
N13565 G1 X199.097
N13570 G1 X199.029 Z-1.947
N13575 G1 X198.965 Z-1.969
N13580 G1 X198.901 Z-1.992
N13585 G1 X198.833 Z-2
N13590 G1 X179.394
N13595 G18 G3 X178.794 Z-1.4 I0 K0.6 F1000
N13600 G0 Z5
N13605 G0 X74.955 Y97.725
N13610 G0 Z0
N13615 G1 Z-1.4 F1000
N13620 G3 X74.355 Z-2 I-0.6 K0
N13625 G1 X49.543 Z-2.002 F840
N13630 G1 X48.435 Z-2.023
N13635 G1 X47.319 Z-2.08
N13640 G1 X46.223 Z-2.177
N13645 G1 X45.175 Z-2.309
N13650 G1 X44.172 Z-2.478
N13655 G1 X43.226 Z-2.681
N13660 G1 X42.347 Z-2.914
N13665 G1 X41.517 Z-3.182
N13670 G1 X40.761 Z-3.478
N13675 G1 X40.079 Z-3.797
N13680 G1 X39.464 Z-4.143
N13685 G1 X38.929 Z-4.511
N13690 G1 X38.468 Z-4.899
N13695 G1 X38.093 Z-5.299
N13700 G1 X37.798 Z-5.717
N13705 G1 X37.588 Z-6.14
N13710 G1 X37.461 Z-6.571
N13715 G1 X37.418 Z-7
N13720 G1 X37.22 Y97.823
N13725 G1 X37.022 Y97.923
N13730 G1 X36.429 Y98.222
N13735 G1 X36.232 Y98.322
N13740 G1 X35.838 Y98.525
N13745 G1 X35.88 Z-6.563
N13750 G1 X36.001 Z-6.142
N13755 G1 X36.206 Z-5.714
N13760 G1 X36.491 Z-5.299
N13765 G1 X36.857 Z-4.899
N13770 G1 X37.304 Z-4.509
N13775 G1 X37.821 Z-4.146
N13780 G1 X38.425 Z-3.795
N13785 G1 X39.085 Z-3.478
N13790 G1 X39.826 Z-3.18
N13795 G1 X40.625 Z-2.915
N13800 G1 X41.49 Z-2.679
N13805 G1 X42.401 Z-2.478
N13810 G1 X43.377 Z-2.308
N13815 G1 X44.389 Z-2.176
N13820 G1 X45.441 Z-2.08
N13825 G1 X46.535 Z-2.022
N13830 G1 X47.602 Z-2.002
N13835 G1 X68.477 Z-2
N13840 G1 X68.544 Z-1.992
N13845 G1 X68.609 Z-1.969
N13850 G1 X68.673 Z-1.947
N13855 G1 X68.741 Z-1.939
N13860 G17 G3 Y99.325 I0 J0.4
N13865 G1 X64.802
N13870 G1 X64.734 Z-1.947
N13875 G1 X64.67 Z-1.969
N13880 G1 X64.606 Z-1.992
N13885 G1 X64.538 Z-2
N13890 G1 X45.717 Z-2.002
N13895 G1 X44.692 Z-2.022
N13900 G1 X43.66 Z-2.079
N13905 G1 X42.627 Z-2.175
N13910 G1 X41.642 Z-2.308
N13915 G1 X40.694 Z-2.477
N13920 G1 X39.795 Z-2.681
N13925 G1 X38.96 Z-2.916
N13930 G1 X38.181 Z-3.183
N13935 G1 X37.469 Z-3.477
N13940 G1 X36.816 Z-3.8
N13945 G1 X36.241 Z-4.146
N13950 G1 X35.735 Z-4.513
N13955 G1 X35.308 Z-4.897
N13960 G1 X34.952 Z-5.301
N13965 G1 X34.673 Z-5.718
N13970 G1 X34.479 Z-6.138
N13975 G1 X34.36 Z-6.57
N13980 G1 X34.321 Z-7
N13985 G1 X34.139 Y99.424 Z-6.999
N13990 G1 X33.957 Y99.522 Z-6.997
N13995 G1 X33.775 Y99.621 Z-6.996
N14000 G1 X33.594 Y99.721 Z-6.994
N14005 G1 X33.051 Y100.023 Z-6.99
N14010 G1 X32.87 Y100.125 Z-6.989
N14015 G1 X32.907 Z-6.566
N14020 G1 X33.02 Z-6.141
N14025 G1 X33.211 Z-5.719
N14030 G1 X33.481 Z-5.3
N14035 G1 X33.824 Z-4.896
N14040 G1 X34.234 Z-4.515
N14045 G1 X34.728 Z-4.143
N14050 G1 X35.282 Z-3.8
N14055 G1 X35.918 Z-3.473
N14060 G1 X36.605 Z-3.181
N14065 G1 X37.36 Z-2.915
N14070 G1 X38.174 Z-2.679
N14075 G1 X39.037 Z-2.478
N14080 G1 X39.96 Z-2.308
N14085 G1 X40.918 Z-2.176
N14090 G1 X41.923 Z-2.079
N14095 G1 X42.92 Z-2.022
N14100 G1 X43.894 Z-2.002
N14105 G1 X61.368 Z-2
N14110 G1 X61.436 Z-1.992
N14115 G1 X61.5 Z-1.969
N14120 G1 X61.565 Z-1.947
N14125 G1 X61.632 Z-1.939
N14130 G3 Y100.925 I0 J0.4
N14135 G1 X58.903
N14140 G1 X58.835 Z-1.947
N14145 G1 X58.771 Z-1.969
N14150 G1 X58.707 Z-1.992
N14155 G1 X58.639 Z-2
N14160 G1 X42.134 Z-2.003
N14165 G1 X41.207 Z-2.023
N14170 G1 X40.244 Z-2.079
N14175 G1 X39.265 Z-2.176
N14180 G1 X38.335 Z-2.309
N14185 G1 X37.442 Z-2.478
N14190 G1 X36.601 Z-2.681
N14195 G1 X35.818 Z-2.916
N14200 G1 X35.086 Z-3.183
N14205 G1 X34.42 Z-3.476
N14210 G1 X33.815 Z-3.799
N14215 G1 X33.28 Z-4.141
N14220 G1 X32.803 Z-4.514
N14225 G1 X32.409 Z-4.893
N14230 G1 X32.075 Z-5.302
N14235 G1 X31.819 Z-5.714
N14240 G1 X31.635 Z-6.135
N14245 G1 X31.525 Z-6.569
N14250 G1 X31.489 Z-6.993
N14255 G1 X31.16 Y101.122 Z-6.995
N14260 G1 X30.995 Y101.221 Z-6.996
N14265 G1 X30.832 Y101.321
N14270 G1 X30.505 Y101.522 Z-6.998
N14275 G1 X30.342 Y101.623 Z-6.999
N14280 G1 X30.179 Y101.725 Z-7
N14285 G1 X30.214 Z-6.574
N14290 G1 X30.32 Z-6.139
N14295 G1 X30.496 Z-5.714
N14300 G1 X30.743 Z-5.302
N14305 G1 X31.06 Z-4.897
N14310 G1 X31.441 Z-4.515
N14315 G1 X31.902 Z-4.14
N14320 G1 X32.412 Z-3.801
N14325 G1 X32.999 Z-3.476
N14330 G1 X33.646 Z-3.18
N14335 G1 X34.346 Z-2.916
N14340 G1 X35.105 Z-2.68
N14345 G1 X35.916 Z-2.477
N14350 G1 X36.784 Z-2.307
N14355 G1 X37.672 Z-2.177
N14360 G1 X38.61 Z-2.081
N14365 G1 X39.591 Z-2.021
N14370 G1 X40.603 Z-2
N14375 G1 X56.192
N14380 G1 X56.26 Z-1.992
N14385 G1 X56.324 Z-1.969
N14390 G1 X56.389 Z-1.947
N14395 G1 X56.456 Z-1.939
N14400 G3 Y102.525 I0 J0.4
N14405 G1 X54.215
N14410 G1 X54.147 Z-1.947
N14415 G1 X54.083 Z-1.969
N14420 G1 X54.018 Z-1.992
N14425 G1 X53.951 Z-2
N14430 G1 X38.85 Z-2.003
N14435 G1 X38.006 Z-2.021
N14440 G1 X37.056 Z-2.081
N14445 G1 X36.152 Z-2.177
N14450 G1 X35.28 Z-2.31
N14455 G1 X34.454 Z-2.478
N14460 G1 X33.676 Z-2.68
N14465 G1 X32.943 Z-2.916
N14470 G1 X32.266 Z-3.182
N14475 G1 X31.649 Z-3.476
N14480 G1 X31.089 Z-3.798
N14485 G1 X30.591 Z-4.145
N14490 G1 X30.154 Z-4.514
N14495 G1 X29.789 Z-4.897
N14500 G1 X29.483 Z-5.302
N14505 G1 X29.249 Z-5.713
N14510 G1 X29.078 Z-6.145
N14515 G1 X28.979 Z-6.564
N14520 G1 X28.945 Z-7
N14525 G1 X28.798 Y102.623
N14530 G1 X28.652 Y102.721
N14535 G1 X28.217 Y103.02 Z-6.999
N14540 G1 X28.073 Y103.122
N14545 G1 X27.786 Y103.325
N14550 G1 X27.82 Z-6.558
N14555 G1 X27.916 Z-6.136
N14560 G1 X28.077 Z-5.716
N14565 G1 X28.304 Z-5.297
N14570 G1 X28.59 Z-4.901
N14575 G1 X28.948 Z-4.509
N14580 G1 X29.359 Z-4.146
N14585 G1 X29.839 Z-3.797
N14590 G1 X30.376 Z-3.475
N14595 G1 X30.965 Z-3.182
N14600 G1 X31.609 Z-2.918
N14605 G1 X32.313 Z-2.681
N14610 G1 X33.067 Z-2.477
N14615 G1 X33.858 Z-2.31
N14620 G1 X34.697 Z-2.177
N14625 G1 X35.575 Z-2.08
N14630 G1 X36.492 Z-2.021
N14635 G1 X37.35 Z-2.002
N14640 G1 X51.861 Z-2
N14645 G1 X51.929 Z-1.992
N14650 G1 X51.993 Z-1.969
N14655 G1 X52.058 Z-1.947
N14660 G1 X52.125 Z-1.939
N14665 G3 Y104.125 I0 J0.4
N14670 G1 X50.158
N14675 G1 X50.09 Z-1.947
N14680 G1 X50.026 Z-1.969
N14685 G1 X49.962 Z-1.992
N14690 G1 X49.894 Z-2
N14695 G1 X35.806 Z-2.003
N14700 G1 X35.031 Z-2.021
N14705 G1 X34.175 Z-2.079
N14710 G1 X33.326 Z-2.176
N14715 G1 X32.52 Z-2.308
N14720 G1 X31.753 Z-2.478
N14725 G1 X31.033 Z-2.68
N14730 G1 X30.363 Z-2.915
N14735 G1 X29.738 Z-3.183
N14740 G1 X29.173 Z-3.478
N14745 G1 X28.666 Z-3.797
N14750 G1 X28.209 Z-4.143
N14755 G1 X27.813 Z-4.512
N14760 G1 X27.476 Z-4.896
N14765 G1 X27.198 Z-5.302
N14770 G1 X26.983 Z-5.716
N14775 G1 X26.827 Z-6.145
N14780 G1 X26.738 Z-6.561
N14785 G1 X26.707 Z-6.989
N14790 G1 X26.454 Y104.321 Z-6.991
N14795 G1 X26.203 Y104.52 Z-6.994
N14800 G1 X25.954 Y104.721 Z-6.996
N14805 G1 X25.708 Y104.925 Z-6.998
N14810 G1 X25.739 Z-6.556
N14815 G1 X25.823 Z-6.147
N14820 G1 X25.968 Z-5.72
N14825 G1 X26.174 Z-5.303
N14830 G1 X26.438 Z-4.901
N14835 G1 X26.755 Z-4.516
N14840 G1 X27.135 Z-4.147
N14845 G1 X27.57 Z-3.799
N14850 G1 X28.06 Z-3.475
N14855 G1 X28.606 Z-3.178
N14860 G1 X29.194 Z-2.914
N14865 G1 X29.828 Z-2.681
N14870 G1 X30.517 Z-2.478
N14875 G1 X31.253 Z-2.308
N14880 G1 X32.01 Z-2.178
N14885 G1 X32.818 Z-2.081
N14890 G1 X33.649 Z-2.022
N14895 G1 X34.416 Z-2.003
N14900 G1 X48.023 Z-2
N14905 G1 X48.091 Z-1.992
N14910 G1 X48.155 Z-1.969
N14915 G1 X48.22 Z-1.947
N14920 G1 X48.287 Z-1.939
N14925 G3 Y105.725 I0 J0.4
N14930 G1 X46.495
N14935 G1 X46.428 Z-1.947
N14940 G1 X46.363 Z-1.969
N14945 G1 X46.299 Z-1.992
N14950 G1 X46.231 Z-2
N14955 G1 X33.136 Z-2.002
N14960 G1 X32.354 Z-2.022
N14965 G1 X31.568 Z-2.079
N14970 G1 X30.788 Z-2.177
N14975 G1 X30.054 Z-2.31
N14980 G1 X29.359 Z-2.479
N14985 G1 X28.704 Z-2.682
N14990 G1 X28.096 Z-2.917
N14995 G1 X27.535 Z-3.183
N15000 G1 X27.024 Z-3.477
N15005 G1 X26.56 Z-3.798
N15010 G1 X26.145 Z-4.149
N15015 G1 X25.792 Z-4.51
N15020 G1 X25.485 Z-4.899
N15025 G1 X25.235 Z-5.302
N15030 G1 X25.04 Z-5.718
N15035 G1 X24.901 Z-6.143
N15040 G1 X24.818 Z-6.578
N15045 G1 X24.79 Z-7
N15050 G1 X24.579 Y105.921 Z-6.999
N15055 G1 X24.368 Y106.119 Z-6.997
N15060 G1 X24.162 Y106.321 Z-6.996
N15065 G1 X23.957 Y106.525 Z-6.995
N15070 G1 X23.985 Z-6.557
N15075 G1 X24.059 Z-6.154
N15080 G1 X24.193 Z-5.718
N15085 G1 X24.38 Z-5.301
N15090 G1 X24.615 Z-4.901
N15095 G1 X24.905 Z-4.513
N15100 G1 X25.249 Z-4.14
N15105 G1 X25.633 Z-3.801
N15110 G1 X26.069 Z-3.48
N15115 G1 X26.564 Z-3.18
N15120 G1 X27.101 Z-2.913
N15125 G1 X27.675 Z-2.68
N15130 G1 X28.293 Z-2.478
N15135 G1 X28.961 Z-2.308
N15140 G1 X29.648 Z-2.177
N15145 G1 X30.388 Z-2.08
N15150 G1 X31.136 Z-2.022
N15155 G1 X31.867 Z-2.002
N15160 G1 X44.507 Z-2
N15165 G1 X44.575 Z-1.992
N15170 G1 X44.639 Z-1.969
N15175 G1 X44.703 Z-1.947
N15180 G1 X44.771 Z-1.939
N15185 G3 Y107.325 I0 J0.4
N15190 G1 X43.108
N15195 G1 X43.04 Z-1.947
N15200 G1 X42.976 Z-1.969
N15205 G1 X42.911 Z-1.992
N15210 G1 X42.844 Z-2
N15215 G1 X30.664 Z-2.003
N15220 G1 X30.01 Z-2.022
N15225 G1 X29.285 Z-2.081
N15230 G1 X28.602 Z-2.176
N15235 G1 X27.936 Z-2.309
N15240 G1 X27.31 Z-2.478
N15245 G1 X26.721 Z-2.682
N15250 G1 X26.175 Z-2.917
N15255 G1 X25.674 Z-3.182
N15260 G1 X25.211 Z-3.479
N15265 G1 X24.799 Z-3.797
N15270 G1 X24.426 Z-4.148
N15275 G1 X24.106 Z-4.513
N15280 G1 X23.829 Z-4.905
N15285 G1 X23.605 Z-5.306
N15290 G1 X23.433 Z-5.716
N15295 G1 X23.308 Z-6.143
N15300 G1 X23.233 Z-6.564
N15305 G1 X23.208 Z-6.991
N15310 G1 X23.038 Y107.521 Z-6.993
N15315 G1 X22.869 Y107.719 Z-6.995
N15320 G1 X22.705 Y107.921 Z-6.998
N15325 G1 X22.544 Y108.125 Z-7
N15330 G1 X22.569 Z-6.557
N15335 G1 X22.637 Z-6.147
N15340 G1 X22.75 Z-5.739
N15345 G1 X22.923 Z-5.303
N15350 G1 X23.135 Z-4.901
N15355 G1 X23.389 Z-4.52
N15360 G1 X23.697 Z-4.149
N15365 G1 X24.047 Z-3.801
N15370 G1 X24.441 Z-3.478
N15375 G1 X24.88 Z-3.18
N15380 G1 X25.35 Z-2.918
N15385 G1 X25.869 Z-2.68
N15390 G1 X26.422 Z-2.478
N15395 G1 X27.011 Z-2.31
N15400 G1 X27.635 Z-2.177
N15405 G1 X28.289 Z-2.081
N15410 G1 X28.957 Z-2.023
N15415 G1 X29.608 Z-2.003
N15420 G1 X41.244 Z-2
N15425 G1 X41.312 Z-1.992
N15430 G1 X41.376 Z-1.969
N15435 G1 X41.441 Z-1.947
N15440 G1 X41.508 Z-1.939
N15445 G3 Y108.925 I0 J0.4
N15450 G1 X39.979
N15455 G1 X39.911 Z-1.947
N15460 G1 X39.847 Z-1.969
N15465 G1 X39.783 Z-1.992
N15470 G1 X39.715 Z-2
N15475 G1 X28.639 Z-2.002
N15480 G1 X28.024 Z-2.022
N15485 G1 X27.389 Z-2.08
N15490 G1 X26.77 Z-2.177
N15495 G1 X26.183 Z-2.31
N15500 G1 X25.63 Z-2.478
N15505 G1 X25.107 Z-2.681
N15510 G1 X24.62 Z-2.917
N15515 G1 X24.173 Z-3.182
N15520 G1 X23.756 Z-3.482
N15525 G1 X23.388 Z-3.803
N15530 G1 X23.061 Z-4.145
N15535 G1 X22.77 Z-4.517
N15540 G1 X22.525 Z-4.903
N15545 G1 X22.325 Z-5.303
N15550 G1 X22.167 Z-5.717
N15555 G1 X22.052 Z-6.152
N15560 G1 X21.985 Z-6.587
N15565 G1 X21.964 Z-6.989
N15570 G1 X21.835 Y109.122 Z-6.991
N15575 G1 X21.71 Y109.32 Z-6.992
N15580 G1 X21.587 Y109.521 Z-6.994
N15585 G1 X21.47 Y109.725 Z-6.995
N15590 G1 X21.492 Z-6.57
N15595 G1 X21.556 Z-6.139
N15600 G1 X21.662 Z-5.722
N15605 G1 X21.812 Z-5.305
N15610 G1 X22.001 Z-4.908
N15615 G1 X22.237 Z-4.517
N15620 G1 X22.504 Z-4.156
N15625 G1 X22.822 Z-3.803
N15630 G1 X23.17 Z-3.483
N15635 G1 X23.564 Z-3.183
N15640 G1 X23.989 Z-2.916
N15645 G1 X24.442 Z-2.682
N15650 G1 X24.934 Z-2.478
N15655 G1 X25.456 Z-2.31
N15660 G1 X26.005 Z-2.177
N15665 G1 X26.583 Z-2.08
N15670 G1 X27.172 Z-2.023
N15675 G1 X27.717 Z-2.004
N15680 G1 X38.26 Z-2
N15685 G1 X38.328 Z-1.992
N15690 G1 X38.392 Z-1.969
N15695 G1 X38.456 Z-1.947
N15700 G1 X38.524 Z-1.939
N15705 G3 Y110.525 I0 J0.4
N15710 G1 X37.151
N15715 G1 X37.083 Z-1.947
N15720 G1 X37.019 Z-1.969
N15725 G1 X36.955 Z-1.992
N15730 G1 X36.887 Z-2
N15735 G1 X26.96 Z-2.003
N15740 G1 X26.45 Z-2.021
N15745 G1 X25.891 Z-2.08
N15750 G1 X25.344 Z-2.178
N15755 G1 X24.826 Z-2.312
N15760 G1 X24.339 Z-2.48
N15765 G1 X23.881 Z-2.683
N15770 G1 X23.449 Z-2.919
N15775 G1 X23.051 Z-3.185
N15780 G1 X22.678 Z-3.485
N15785 G1 X22.351 Z-3.802
N15790 G1 X22.048 Z-4.156
N15795 G1 X21.792 Z-4.519
N15800 G1 X21.568 Z-4.908
N15805 G1 X21.381 Z-5.322
N15810 G1 X21.237 Z-5.746
N15815 G1 X21.141 Z-6.145
N15820 G1 X21.082 Z-6.554
N15825 G1 X21.059 Z-7
N15830 G1 X20.97 Y110.722 Z-6.998
N15835 G1 X20.887 Y110.921 Z-6.995
N15840 G1 X20.807 Y111.122 Z-6.993
N15845 G1 X20.732 Y111.325 Z-6.991
N15850 G1 X20.75 Z-6.586
N15855 G1 X20.806 Z-6.17
N15860 G1 X20.903 Z-5.746
N15865 G1 X21.045 Z-5.311
N15870 G1 X21.222 Z-4.908
N15875 G1 X21.436 Z-4.519
N15880 G1 X21.675 Z-4.166
N15885 G1 X21.97 Z-3.805
N15890 G1 X22.275 Z-3.495
N15895 G1 X22.638 Z-3.186
N15900 G1 X23.014 Z-2.921
N15905 G1 X23.429 Z-2.681
N15910 G1 X23.864 Z-2.478
N15915 G1 X24.324 Z-2.309
N15920 G1 X24.811 Z-2.175
N15925 G1 X25.308 Z-2.08
N15930 G1 X25.801 Z-2.025
N15935 G1 X26.289 Z-2.004
N15940 G1 X35.601 Z-2
N15945 G1 X35.669 Z-1.992
N15950 G1 X35.733 Z-1.969
N15955 G1 X35.797 Z-1.947
N15960 G1 X35.865 Z-1.939
N15965 G3 Y112.125 I0 J0.4
N15970 G1 X34.673
N15975 G1 X34.606 Z-1.947
N15980 G1 X34.541 Z-1.969
N15985 G1 X34.477 Z-1.992
N15990 G1 X34.41 Z-2
N15995 G1 X25.722 Z-2.005
N16000 G1 X25.325 Z-2.023
N16005 G1 X24.857 Z-2.079
N16010 G1 X24.382 Z-2.176
N16015 G1 X23.924 Z-2.311
N16020 G1 X23.492 Z-2.479
N16025 G1 X23.07 Z-2.688
N16030 G1 X22.692 Z-2.918
N16035 G1 X22.324 Z-3.187
N16040 G1 X22.057 Z-3.419
N16045 G1 X21.801 Z-3.675
N16050 G1 X21.596 Z-3.911
N16055 G1 X21.443 Z-4.108
N16060 G1 X21.331 Z-4.265
N16065 G1 X21.191 Z-4.483
N16070 G1 X21.044 Z-4.744
N16075 G1 X20.915 Z-5.009
N16080 G1 X20.776 Z-5.351
N16085 G1 X20.699 Z-5.583
N16090 G1 X20.633 Z-5.824
N16095 G1 X20.579 Z-6.067
N16100 G1 X20.537 Z-6.312
N16105 G1 X20.51 Z-6.529
N16110 G1 X20.493 Z-6.761
N16115 G1 X20.487 Z-6.986
N16120 G1 X20.468 Y112.199 Z-6.978
N16125 G1 X20.462 Y112.224 Z-6.976
N16130 G1 X20.456 Y112.248 Z-6.973
N16135 G1 X20.45 Y112.273 Z-6.97
N16140 G1 X20.444 Y112.298 Z-6.968
N16145 G1 X20.439 Y112.323 Z-6.965
N16150 G1 X20.433 Y112.348 Z-6.963
N16155 G1 X20.401 Y112.498 Z-6.948
N16160 G1 X20.396 Y112.523 Z-6.945
N16165 G1 X20.391 Y112.548 Z-6.942
N16170 G1 X20.386 Y112.573 Z-6.94
N16175 G1 X20.376 Y112.623 Z-6.935
N16180 G1 X20.371 Y112.648 Z-6.932
N16185 G1 X20.367 Y112.673 Z-6.93
N16190 G1 X20.362 Y112.698 Z-6.927
N16195 G1 X20.345 Y112.799 Z-6.917
N16200 G1 X20.337 Y112.849 Z-6.912
N16205 G1 X20.333 Y112.874 Z-6.909
N16210 G1 X20.329 Y112.899 Z-6.907
N16215 G1 X20.325 Y112.925 Z-6.904
N16220 G1 X20.329 Z-6.771
N16225 G1 X20.347 Z-6.53
N16230 G1 X20.373 Z-6.309
N16235 G1 X20.415 Z-6.062
N16240 G1 X20.469 Z-5.817
N16245 G1 X20.532 Z-5.584
N16250 G1 X20.613 Z-5.339
N16255 G1 X20.729 Z-5.044
N16260 G1 X20.864 Z-4.757
N16265 G1 X21.011 Z-4.49
N16270 G1 X21.221 Z-4.162
N16275 G1 X21.405 Z-3.918
N16280 G1 X21.606 Z-3.681
N16285 G1 X21.777 Z-3.501
N16290 G1 X21.956 Z-3.331
N16295 G1 X22.144 Z-3.167
N16300 G1 X22.34 Z-3.015
N16305 G1 X22.526 Z-2.883
N16310 G1 X22.859 Z-2.676
N16315 G1 X23.126 Z-2.535
N16320 G1 X23.414 Z-2.405
N16325 G1 X23.727 Z-2.285
N16330 G1 X24.097 Z-2.175
N16335 G1 X24.509 Z-2.084
N16340 G1 X24.892 Z-2.031
N16345 G1 X25.276 Z-2.004
N16350 G1 X33.324 Z-2
N16355 G1 X33.392 Z-1.992
N16360 G1 X33.456 Z-1.969
N16365 G1 X33.52 Z-1.947
N16370 G1 X33.588 Z-1.939
N16375 G3 Y113.725 I0 J0.4
N16380 G1 X32.845
N16385 G1 X32.777 Z-1.947
N16390 G1 X32.713 Z-1.969
N16395 G1 X32.648 Z-1.992
N16400 G1 X32.581 Z-2
N16405 G1 X25.068 Z-2.004
N16410 G1 X24.692 Z-2.034
N16415 G1 X24.393 Z-2.078
N16420 G1 X24.042 Z-2.151
N16425 G1 X23.707 Z-2.249
N16430 G1 X23.422 Z-2.352
N16435 G1 X23.238 Z-2.429
N16440 G1 X23.071 Z-2.507
N16445 G1 X22.855 Z-2.618
N16450 G1 X22.633 Z-2.747
N16455 G1 X22.396 Z-2.901
N16460 G1 X22.16 Z-3.075
N16465 G1 X21.884 Z-3.307
N16470 G1 X21.642 Z-3.543
N16475 G1 X21.435 Z-3.771
N16480 G1 X21.192 Z-4.079
N16485 G1 X21.022 Z-4.331
N16490 G1 X20.929 Z-4.482
N16495 G1 X20.815 Z-4.687
N16500 G1 X20.707 Z-4.905
N16505 G1 X20.608 Z-5.133
N16510 G1 X20.523 Z-5.357
N16515 G1 X20.449 Z-5.584
N16520 G1 X20.385 Z-5.819
N16525 G1 X20.331 Z-6.066
N16530 G1 X20.29 Z-6.317
N16535 G1 X20.263 Z-6.545
N16540 G1 X20.249 Z-6.737
N16545 G1 X20.242 Z-6.957
N16550 G1 X20.238 Y113.825 Z-6.951
N16555 G1 X20.236 Y113.875 Z-6.947
N16560 G1 X20.234 Y113.925 Z-6.944
N16565 G1 X20.233 Y113.975 Z-6.941
N16570 G1 X20.232 Y114.025 Z-6.937
N16575 G1 X20.233 Y114.075 Z-6.934
N16580 G1 Y114.175 Z-6.927
N16585 G1 Y114.225 Z-6.924
N16590 G1 X20.234 Y114.275 Z-6.92
N16595 G1 X20.235 Y114.325 Z-6.917
N16600 G1 X20.237 Y114.375 Z-6.914
N16605 G1 X20.239 Y114.425 Z-6.91
N16610 G1 X20.244 Y114.525 Z-6.903
N16615 G1 X20.246 Z-6.798
N16620 G1 X20.263 Z-6.551
N16625 G1 X20.292 Z-6.303
N16630 G1 X20.331 Z-6.074
N16635 G1 X20.384 Z-5.827
N16640 G1 X20.451 Z-5.582
N16645 G1 X20.524 Z-5.357
N16650 G1 X20.612 Z-5.127
N16655 G1 X20.708 Z-4.908
N16660 G1 X20.818 Z-4.686
N16665 G1 X20.939 Z-4.47
N16670 G1 X21.07 Z-4.261
N16675 G1 X21.209 Z-4.061
N16680 G1 X21.36 Z-3.865
N16685 G1 X21.518 Z-3.68
N16690 G1 X21.687 Z-3.501
N16695 G1 X21.864 Z-3.331
N16700 G1 X22.051 Z-3.168
N16705 G1 X22.245 Z-3.015
N16710 G1 X22.446 Z-2.871
N16715 G1 X22.651 Z-2.739
N16720 G1 X22.863 Z-2.617
N16725 G1 X23.098 Z-2.496
N16730 G1 X23.432 Z-2.351
N16735 G1 X23.717 Z-2.249
N16740 G1 X24.047 Z-2.153
N16745 G1 X24.397 Z-2.079
N16750 G1 X24.703 Z-2.034
N16755 G1 X25.096 Z-2.004
N16760 G1 X34.2 Z-2
N16765 G1 X34.268 Z-1.992
N16770 G1 X34.332 Z-1.969
N16775 G1 X34.397 Z-1.947
N16780 G1 X34.464 Z-1.939
N16785 G1 X36.418
N16790 G3 Y115.325 I0 J0.4
N16795 G1 X36.35 Z-1.947
N16800 G1 X36.286 Z-1.969
N16805 G1 X36.222 Z-1.992
N16810 G1 X36.154 Z-2
N16815 G1 X25.28 Z-2.005
N16820 G1 X24.911 Z-2.032
N16825 G1 X24.646 Z-2.067
N16830 G1 X24.335 Z-2.125
N16835 G1 X24.011 Z-2.205
N16840 G1 X23.689 Z-2.308
N16845 G1 X23.411 Z-2.416
N16850 G1 X23.136 Z-2.542
N16855 G1 X22.975 Z-2.624
N16860 G1 X22.772 Z-2.739
N16865 G1 X22.561 Z-2.871
N16870 G1 X22.304 Z-3.055
N16875 G1 X22.066 Z-3.247
N16880 G1 X21.785 Z-3.506
N16885 G1 X21.619 Z-3.681
N16890 G1 X21.459 Z-3.865
N16895 G1 X21.307 Z-4.06
N16900 G1 X21.163 Z-4.263
N16905 G1 X21.031 Z-4.471
N16910 G1 X20.91 Z-4.685
N16915 G1 X20.798 Z-4.907
N16920 G1 X20.699 Z-5.132
N16925 G1 X20.611 Z-5.359
N16930 G1 X20.537 Z-5.584
N16935 G1 X20.47 Z-5.827
N16940 G1 X20.404 Z-6.137
N16945 G1 X20.36 Z-6.431
N16950 G1 X20.331 Z-6.78
N16955 G1 X20.327 Z-6.934
N16960 G1 X20.363 Y115.526
N16965 G1 X20.402 Y115.727
N16970 G1 X20.448 Y115.926
N16975 G1 X20.499 Y116.125
N16980 G1 X20.502 Z-6.799
N16985 G1 X20.526 Z-6.478
N16990 G1 X20.573 Z-6.16
N16995 G1 X20.631 Z-5.883
N17000 G1 X20.712 Z-5.583
N17005 G1 X20.79 Z-5.355
N17010 G1 X20.878 Z-5.131
N17015 G1 X20.981 Z-4.904
N17020 G1 X21.093 Z-4.686
N17025 G1 X21.219 Z-4.47
N17030 G1 X21.355 Z-4.26
N17035 G1 X21.529 Z-4.02
N17040 G1 X21.753 Z-3.754
N17045 G1 X21.952 Z-3.545
N17050 G1 X22.184 Z-3.33
N17055 G1 X22.378 Z-3.169
N17060 G1 X22.553 Z-3.037
N17065 G1 X22.747 Z-2.903
N17070 G1 X23.015 Z-2.738
N17075 G1 X23.237 Z-2.619
N17080 G1 X23.418 Z-2.532
N17085 G1 X23.703 Z-2.409
N17090 G1 X23.974 Z-2.311
N17095 G1 X24.241 Z-2.229
N17100 G1 X24.552 Z-2.151
N17105 G1 X24.954 Z-2.076
N17110 G1 X25.41 Z-2.024
N17115 G1 X25.8 Z-2.004
N17120 G1 X38.439 Z-2
N17125 G1 X38.507 Z-1.992
N17130 G1 X38.571 Z-1.969
N17135 G1 X38.636 Z-1.947
N17140 G1 X38.703 Z-1.939
N17145 G1 X41.352
N17150 G3 Y116.925 I0 J0.4
N17155 G1 X41.284 Z-1.947
N17160 G1 X41.22 Z-1.969
N17165 G1 X41.156 Z-1.992
N17170 G1 X41.088 Z-2
N17175 G1 X26.644 Z-2.003
N17180 G1 X26.083 Z-2.022
N17185 G1 X25.514 Z-2.079
N17190 G1 X24.956 Z-2.178
N17195 G1 X24.439 Z-2.312
N17200 G1 X23.957 Z-2.481
N17205 G1 X23.517 Z-2.677
N17210 G1 X23.188 Z-2.857
N17215 G1 X22.937 Z-3.015
N17220 G1 X22.708 Z-3.177
N17225 G1 X22.475 Z-3.363
N17230 G1 X22.317 Z-3.503
N17235 G1 X22.136 Z-3.679
N17240 G1 X21.961 Z-3.866
N17245 G1 X21.765 Z-4.102
N17250 G1 X21.603 Z-4.323
N17255 G1 X21.501 Z-4.477
N17260 G1 X21.378 Z-4.682
N17265 G1 X21.261 Z-4.9
N17270 G1 X21.154 Z-5.128
N17275 G1 X21.062 Z-5.353
N17280 G1 X20.982 Z-5.584
N17285 G1 X20.9 Z-5.873
N17290 G1 X20.84 Z-6.145
N17295 G1 X20.796 Z-6.427
N17300 G1 X20.765 Z-6.757
N17305 G1 X20.761 Z-6.934
N17310 G1 X20.844 Y117.128 Z-6.936
N17315 G1 X20.93 Y117.329 Z-6.937
N17320 G1 X21.023 Y117.528 Z-6.939
N17325 G1 X21.121 Y117.725 Z-6.94
N17330 G1 X21.124 Z-6.813
N17335 G1 X21.137 Z-6.611
N17340 G1 X21.169 Z-6.342
N17345 G1 X21.22 Z-6.06
N17350 G1 X21.28 Z-5.816
N17355 G1 X21.35 Z-5.589
N17360 G1 X21.434 Z-5.357
N17365 G1 X21.544 Z-5.101
N17370 G1 X21.664 Z-4.863
N17375 G1 X21.773 Z-4.671
N17380 G1 X21.926 Z-4.431
N17385 G1 X22.154 Z-4.127
N17390 G1 X22.448 Z-3.8
N17395 G1 X22.789 Z-3.482
N17400 G1 X23.183 Z-3.179
N17405 G1 X23.603 Z-2.915
N17410 G1 X24.056 Z-2.682
N17415 G1 X24.56 Z-2.477
N17420 G1 X25.095 Z-2.309
N17425 G1 X25.666 Z-2.177
N17430 G1 X26.294 Z-2.08
N17435 G1 X26.939 Z-2.023
N17440 G1 X27.572 Z-2.003
N17445 G1 X44.128 Z-2
N17450 G1 X44.196 Z-1.992
N17455 G1 X44.26 Z-1.969
N17460 G1 X44.325 Z-1.947
N17465 G1 X44.392 Z-1.939
N17470 G1 X47.859
N17475 G3 Y118.524 I0 J0.4
N17480 G1 X47.791 Z-1.947
N17485 G1 X47.727 Z-1.969
N17490 G1 X47.663 Z-1.992
N17495 G1 X47.595 Z-2
N17500 G1 X28.69 Z-2.004
N17505 G1 X28.028 Z-2.022
N17510 G1 X27.274 Z-2.081
N17515 G1 X26.572 Z-2.177
N17520 G1 X25.924 Z-2.309
N17525 G1 X25.324 Z-2.478
N17530 G1 X24.771 Z-2.679
N17535 G1 X24.26 Z-2.916
N17540 G1 X23.802 Z-3.18
N17545 G1 X23.38 Z-3.477
N17550 G1 X23.001 Z-3.803
N17555 G1 X22.674 Z-4.146
N17560 G1 X22.383 Z-4.517
N17565 G1 X22.129 Z-4.921
N17570 G1 X21.938 Z-5.309
N17575 G1 X21.784 Z-5.717
N17580 G1 X21.672 Z-6.142
N17585 G1 X21.607 Z-6.553
N17590 G1 X21.582 Z-6.996
N17595 G1 X21.72 Y118.729 Z-6.997
N17600 G1 X21.862 Y118.931 Z-6.998
N17605 G1 X22.008 Y119.13 Z-6.999
N17610 G1 X22.16 Y119.324 Z-7
N17615 G1 X22.185 Z-6.56
N17620 G1 X22.256 Z-6.137
N17625 G1 X22.375 Z-5.716
N17630 G1 X22.539 Z-5.31
N17635 G1 X22.759 Z-4.902
N17640 G1 X23.021 Z-4.517
N17645 G1 X23.339 Z-4.144
N17650 G1 X23.701 Z-3.798
N17655 G1 X24.109 Z-3.479
N17660 G1 X24.582 Z-3.177
N17665 G1 X25.097 Z-2.91
N17670 G1 X25.655 Z-2.679
N17675 G1 X26.281 Z-2.475
N17680 G1 X26.967 Z-2.306
N17685 G1 X27.688 Z-2.177
N17690 G1 X28.498 Z-2.079
N17695 G1 X29.337 Z-2.022
N17700 G1 X30.308 Z-2
N17705 G1 X51.552
N17710 G1 X51.62 Z-1.992
N17715 G1 X51.684 Z-1.969
N17720 G1 X51.748 Z-1.947
N17725 G1 X51.816 Z-1.939
N17730 G1 X56.314
N17735 G3 Y120.124 I0 J0.4
N17740 G1 X56.246 Z-1.947
N17745 G1 X56.182 Z-1.969
N17750 G1 X56.117 Z-1.992
N17755 G1 X56.05 Z-2
N17760 G1 X32.003
N17765 G1 X30.897 Z-2.022
N17770 G1 X29.938 Z-2.079
N17775 G1 X29.026 Z-2.176
N17780 G1 X28.197 Z-2.307
N17785 G1 X27.423 Z-2.477
N17790 G1 X26.719 Z-2.681
N17795 G1 X26.082 Z-2.918
N17800 G1 X25.522 Z-3.178
N17805 G1 X25.004 Z-3.475
N17810 G1 X24.543 Z-3.802
N17815 G1 X24.146 Z-4.148
N17820 G1 X23.811 Z-4.505
N17825 G1 X23.514 Z-4.902
N17830 G1 X23.278 Z-5.3
N17835 G1 X23.092 Z-5.723
N17840 G1 X22.961 Z-6.155
N17845 G1 X22.887 Z-6.561
N17850 G1 X22.86 Z-7
N17855 G1 X23.063 Y120.331
N17860 G1 X23.272 Y120.533
N17865 G1 X23.483 Y120.732
N17870 G1 X23.7 Y120.924
N17875 G1 X23.729 Z-6.56
N17880 G1 X23.809 Z-6.158
N17885 G1 X23.955 Z-5.719
N17890 G1 X24.158 Z-5.302
N17895 G1 X24.415 Z-4.902
N17900 G1 X24.735 Z-4.514
N17905 G1 X25.115 Z-4.146
N17910 G1 X25.557 Z-3.801
N17915 G1 X26.078 Z-3.47
N17920 G1 X26.66 Z-3.172
N17925 G1 X27.301 Z-2.907
N17930 G1 X28.007 Z-2.676
N17935 G1 X28.796 Z-2.474
N17940 G1 X29.655 Z-2.308
N17945 G1 X30.594 Z-2.176
N17950 G1 X31.619 Z-2.08
N17955 G1 X32.71 Z-2.022
N17960 G1 X33.854 Z-2.002
N17965 G1 X61.17 Z-2
N17970 G1 X61.238 Z-1.992
N17975 G1 X61.302 Z-1.969
N17980 G1 X61.367 Z-1.947
N17985 G1 X61.434 Z-1.939
N17990 G1 X66.501
N17995 G3 Y121.724 I0 J0.4
N18000 G1 X66.433 Z-1.947
N18005 G1 X66.368 Z-1.969
N18010 G1 X66.304 Z-1.992
N18015 G1 X66.236 Z-2
N18020 G1 X36.012 Z-2.003
N18025 G1 X34.83 Z-2.021
N18030 G1 X33.586 Z-2.08
N18035 G1 X32.41 Z-2.177
N18040 G1 X31.355 Z-2.308
N18045 G1 X30.372 Z-2.477
N18050 G1 X29.501 Z-2.676
N18055 G1 X28.696 Z-2.91
N18060 G1 X27.988 Z-3.17
N18065 G1 X27.368 Z-3.453
N18070 G1 X26.852 Z-3.741
N18075 G1 X26.744 Z-3.806
N18080 G1 X26.266 Z-4.139
N18085 G1 X25.838 Z-4.514
N18090 G1 X25.492 Z-4.888
N18095 G1 X25.198 Z-5.301
N18100 G1 X24.974 Z-5.714
N18105 G1 X24.815 Z-6.139
N18110 G1 X24.723 Z-6.556
N18115 G1 X24.69 Z-6.998
N18120 G1 X24.831 Y121.829 Z-6.997
N18125 G1 X24.975 Y121.931 Z-6.996
N18130 G1 X25.262 Y122.134 Z-6.994
N18135 G1 X25.407 Y122.233 Z-6.992
N18140 G1 X25.701 Y122.428 Z-6.99
N18145 G1 X25.848 Y122.524 Z-6.989
N18150 G1 X25.882 Z-6.576
N18155 G1 X25.989 Z-6.137
N18160 G1 X26.164 Z-5.716
N18165 G1 X26.412 Z-5.295
N18170 G1 X26.731 Z-4.899
N18175 G1 X27.123 Z-4.513
N18180 G1 X27.612 Z-4.133
N18185 G1 X28.168 Z-3.787
N18190 G1 X28.8 Z-3.468
N18195 G1 X29.519 Z-3.174
N18200 G1 X30.336 Z-2.908
N18205 G1 X31.24 Z-2.673
N18210 G1 X32.232 Z-2.474
N18215 G1 X33.334 Z-2.306
N18220 G1 X34.539 Z-2.174
N18225 G1 X35.809 Z-2.081
N18230 G1 X37.212 Z-2.022
N18235 G1 X38.644 Z-2.002
N18240 G1 X69.803 Z-2
N18245 G1 X69.871 Z-1.992
N18250 G1 X69.935 Z-1.969
N18255 G1 X70 Z-1.947
N18260 G1 X70.067 Z-1.939
N18265 G1 X73.038
N18270 G3 Y123.324 I0 J0.4
N18275 G1 X72.971 Z-1.947
N18280 G1 X72.906 Z-1.969
N18285 G1 X72.842 Z-1.992
N18290 G1 X72.774 Z-2
N18295 G1 X41.481 Z-2.003
N18300 G1 X39.882 Z-2.025
N18305 G1 X38.388 Z-2.08
N18310 G1 X36.916 Z-2.176
N18315 G1 X35.564 Z-2.309
N18320 G1 X34.349 Z-2.473
N18325 G1 X33.246 Z-2.671
N18330 G1 X32.338 Z-2.879
N18335 G1 X32.149 Z-2.927
N18340 G1 X31.314 Z-3.169
N18345 G1 X30.492 Z-3.467
N18350 G1 X29.781 Z-3.787
N18355 G1 X29.148 Z-4.14
N18360 G1 X28.614 Z-4.512
N18365 G1 X28.175 Z-4.898
N18370 G1 X27.823 Z-5.291
N18375 G1 X27.542 Z-5.716
N18380 G1 X27.344 Z-6.142
N18385 G1 X27.23 Z-6.565
N18390 G1 X27.191 Z-6.997
N18395 G1 X27.382 Y123.429
N18400 G1 X27.573 Y123.532 Z-6.998
N18405 G1 X27.765 Y123.635
N18410 G1 X27.959 Y123.735 Z-6.999
N18415 G1 X28.152 Y123.834
N18420 G1 X28.346 Y123.932
N18425 G1 X28.541 Y124.028 Z-7
N18430 G1 X28.737 Y124.124
N18435 G1 X28.78 Z-6.572
N18440 G1 X28.91 Z-6.142
N18445 G1 X29.131 Z-5.709
N18450 G1 X29.438 Z-5.298
N18455 G1 X29.834 Z-4.898
N18460 G1 X30.327 Z-4.512
N18465 G1 X30.91 Z-4.149
N18470 G1 X31.05 Z-4.076
N18475 G1 X31.615 Z-3.797
N18480 G1 X32.406 Z-3.477
N18485 G1 X33.307 Z-3.183
N18490 G1 X34.367 Z-2.907
N18495 G1 X35.52 Z-2.671
N18500 G1 X36.751 Z-2.475
N18505 G1 X38.137 Z-2.308
N18510 G1 X39.658 Z-2.175
N18515 G1 X41.289 Z-2.081
N18520 G1 X43.08 Z-2.022
N18525 G1 X44.814 Z-2.003
N18530 G1 X75.355 Z-2
N18535 G1 X75.423 Z-1.992
N18540 G1 X75.487 Z-1.969
N18545 G1 X75.552 Z-1.947
N18550 G1 X75.619 Z-1.939
N18555 G1 X77.913
N18560 G3 Y124.924 I0 J0.4
N18565 G1 X77.845 Z-1.947
N18570 G1 X77.781 Z-1.969
N18575 G1 X77.717 Z-1.992
N18580 G1 X77.649 Z-2
N18585 G1 X48.595 Z-2.002
