%
(SecondDepthPockets)
(SecondDepthPockets)
(T1 D=6 CR=0 - ZMIN=-30 - flat end mill)
N10 G90 G94
N15 G17
N20 G21
N25 G28 G91 Z0
N30 G90

(SecondDepthPockets)
N35 T1 M6
N40 S14000 M3
N45 G54
N50 G0 X224.356 Y239.563
N55 G0 G43 Z15 H1
N60 G0 Z-17
N65 G1 Z-18.9 F1000
N70 G1 X224.393 Y239.557 Z-19.107 F333.3
N75 G1 X224.498 Y239.542 Z-19.289
N80 G1 X224.659 Y239.526 Z-19.423
N85 G1 X224.857 Y239.519 Z-19.493
N90 G1 X224.933 Y239.52 Z-19.5
N95 G3 X224.782 Y245.218 Z-19.813 I-0.075 J2.849
N100 G3 X224.933 Y239.52 Z-20.125 I0.075 J-2.849
N105 G3 X224.782 Y245.218 Z-20.438 I-0.075 J2.849
N110 G3 X224.933 Y239.52 Z-20.751 I0.075 J-2.849
N115 G3 X224.782 Y245.218 Z-21.063 I-0.075 J2.849
N120 G3 X224.933 Y239.52 Z-21.376 I0.075 J-2.849
N125 G3 X224.782 Y245.218 Z-21.689 I-0.075 J2.849
N130 G3 X224.933 Y239.52 Z-22.001 I0.075 J-2.849
N135 G3 X224.782 Y245.218 Z-22.314 I-0.075 J2.849
N140 G3 X224.933 Y239.52 Z-22.627 I0.075 J-2.849
N145 G3 X224.782 Y245.218 Z-22.939 I-0.075 J2.849
N150 G3 X224.933 Y239.52 Z-23.252 I0.075 J-2.849
N155 G3 X224.782 Y245.218 Z-23.565 I-0.075 J2.849
N160 G3 X224.933 Y239.52 Z-23.877 I0.075 J-2.849
N165 G3 X224.782 Y245.218 Z-24.19 I-0.075 J2.849
N170 G3 X224.857 Y239.519 Z-24.5 I0.075 J-2.849
N175 G3 Y243.579 I0 J2.03
N180 G1 X214.868 F420
N185 G3 X214.102 Y242.812 I0 J-0.767
N190 G1 Y242.394
N195 G3 X214.868 Y241.627 I0.767 J0
N200 G1 X225.066
N205 G3 X225.833 Y242.394 I0 J0.767
N210 G1 Y242.812
N215 G3 X225.066 Y243.579 I-0.767 J0
N220 G1 X224.857
N225 G2 X223.258 Y244.646 I0 J1.733
N230 G3 X221.658 Y245.712 I-1.6 J-0.667
N235 G1 X214.868
N240 G3 X211.969 Y242.812 I0 J-2.9
N245 G1 Y242.394
N250 G3 X214.868 Y239.494 I2.9 J0
N255 G1 X225.066
N260 G3 X227.966 Y242.394 I0 J2.9
N265 G1 Y242.812
N270 G3 X225.066 Y245.712 I-2.9 J0
N275 G1 X221.658
N280 G1 X221.622 Y245.706
N285 G1 X221.591 Y245.688
N290 G1 X221.568 Y245.66
N295 G1 X221.556 Y245.626
N300 G1 Y245.59
N305 G1 X221.568 Y245.556
N310 G1 X221.814 Y245.132
N315 G1 X224.736 Y240.095
N320 G1 X224.791 Y239.612
N325 G1 X224.802 Y239.576
N330 G1 X224.825 Y239.545
N335 G1 X224.858 Y239.526
N340 G1 X224.895 Y239.519
N345 G3 X224.82 Y245.219 Z-24.813 I-0.038 J2.85 F333.3
N350 G3 X224.895 Y239.519 Z-25.125 I0.038 J-2.85
N355 G3 X224.82 Y245.219 Z-25.438 I-0.038 J2.85
N360 G3 X224.895 Y239.519 Z-25.751 I0.038 J-2.85
N365 G3 X224.82 Y245.219 Z-26.063 I-0.038 J2.85
N370 G3 X224.895 Y239.519 Z-26.376 I0.038 J-2.85
N375 G3 X224.82 Y245.219 Z-26.689 I-0.038 J2.85
N380 G3 X224.857 Y239.519 Z-27 I0.038 J-2.85
N385 G3 Y243.579 I0 J2.03
N390 G1 X214.868 F420
N395 G3 X214.102 Y242.812 I0 J-0.767
N400 G1 Y242.394
N405 G3 X214.868 Y241.627 I0.767 J0
N410 G1 X225.066
N415 G3 X225.833 Y242.394 I0 J0.767
N420 G1 Y242.812
N425 G3 X225.066 Y243.579 I-0.767 J0
N430 G1 X224.857
N435 G2 X223.258 Y244.646 I0 J1.733
N440 G3 X221.658 Y245.712 I-1.6 J-0.667
N445 G1 X214.868
N450 G3 X211.969 Y242.812 I0 J-2.9
N455 G1 Y242.394
N460 G3 X214.868 Y239.494 I2.9 J0
N465 G1 X225.066
N470 G3 X227.966 Y242.394 I0 J2.9
N475 G1 Y242.812
N480 G3 X225.066 Y245.712 I-2.9 J0
N485 G1 X221.658
N490 G3 X221.358 Y245.402 I0 J-0.3
N495 G3 X221.679 Y245.113 I0.3 J0.01
N500 G1 X222.965 Y245.202
N505 G2 X223.164 Y244.661 I0.021 J-0.299
N510 G3 X226.551 Y240.076 Z-27.313 I1.693 J-2.292 F333.3
N515 G3 X223.164 Y244.661 Z-27.625 I-1.693 J2.292
N520 G3 X226.551 Y240.076 Z-27.938 I1.693 J-2.292
N525 G3 X223.164 Y244.661 Z-28.251 I-1.693 J2.292
N530 G3 X224.857 Y239.519 Z-28.5 I1.693 J-2.292
N535 G3 Y243.579 I0 J2.03
N540 G1 X214.868 F420
N545 G3 X214.102 Y242.812 I0 J-0.767
N550 G1 Y242.394
N555 G3 X214.868 Y241.627 I0.767 J0
N560 G1 X225.066
N565 G3 X225.833 Y242.394 I0 J0.767
N570 G1 Y242.812
N575 G3 X225.066 Y243.579 I-0.767 J0
N580 G1 X224.857
N585 G2 X223.258 Y244.646 I0 J1.733
N590 G3 X221.658 Y245.712 I-1.6 J-0.667
N595 G1 X214.868
N600 G3 X211.969 Y242.812 I0 J-2.9
N605 G1 Y242.394
N610 G3 X214.868 Y239.494 I2.9 J0
N615 G1 X225.066
N620 G3 X227.966 Y242.394 I0 J2.9
N625 G1 Y242.812
N630 G3 X225.066 Y245.712 I-2.9 J0
N635 G1 X221.658
N640 G3 X221.358 Y245.402 I0 J-0.3
N645 G3 X221.679 Y245.113 I0.3 J0.01
N650 G1 X222.965 Y245.202
N655 G2 X223.164 Y244.661 I0.021 J-0.299
N660 G3 X226.551 Y240.076 Z-28.813 I1.693 J-2.292 F333.3
N665 G3 X223.164 Y244.661 Z-29.125 I-1.693 J2.292
N670 G3 X226.551 Y240.076 Z-29.438 I1.693 J-2.292
N675 G3 X223.164 Y244.661 Z-29.751 I-1.693 J2.292
N680 G3 X224.857 Y239.519 Z-30 I1.693 J-2.292
N685 G3 Y243.579 I0 J2.03
N690 G1 X214.868 F420
N695 G3 X214.102 Y242.812 I0 J-0.767
N700 G1 Y242.394
N705 G3 X214.868 Y241.627 I0.767 J0
N710 G1 X225.066
N715 G3 X225.833 Y242.394 I0 J0.767
N720 G1 Y242.812
N725 G3 X225.066 Y243.579 I-0.767 J0
N730 G1 X224.857
N735 G2 X223.258 Y244.646 I0 J1.733
N740 G3 X221.658 Y245.712 I-1.6 J-0.667
N745 G1 X214.868
N750 G3 X211.969 Y242.812 I0 J-2.9
N755 G1 Y242.394
N760 G3 X214.868 Y239.494 I2.9 J0
N765 G1 X225.066
N770 G3 X227.966 Y242.394 I0 J2.9
N775 G1 Y242.812
N780 G3 X225.066 Y245.712 I-2.9 J0
N785 G1 X221.658
N790 G1 X221.565 Y245.705 Z-29.985 F1000
N795 G1 X221.475 Y245.684 Z-29.971
N800 G1 X221.398 Y245.653 Z-29.928
N805 G1 X221.325 Y245.611 Z-29.885
N810 G1 X221.272 Y245.572 Z-29.819
N815 G1 X221.224 Y245.526 Z-29.753
N820 G1 X221.169 Y245.461 Z-29.585
N825 G1 X221.153 Y245.436 Z-29.4
N830 G0 Z5
N835 G0 X173.909 Y242.102
N840 G0 Z-17
N845 G1 Z-18.9 F1000
N850 G1 X173.915 Y242.138 Z-19.107 F333.3
N855 G1 X173.931 Y242.243 Z-19.289
N860 G1 X173.947 Y242.405 Z-19.423
N865 G1 X173.954 Y242.603 Z-19.493
N870 G1 X173.953 Y242.678 Z-19.5
N875 G3 X168.255 Y242.528 Z-19.813 I-2.849 J-0.075
N880 G3 X173.953 Y242.678 Z-20.125 I2.849 J0.075
N885 G3 X168.255 Y242.528 Z-20.438 I-2.849 J-0.075
N890 G3 X173.953 Y242.678 Z-20.751 I2.849 J0.075
N895 G3 X168.255 Y242.528 Z-21.063 I-2.849 J-0.075
N900 G3 X173.953 Y242.678 Z-21.376 I2.849 J0.075
N905 G3 X168.255 Y242.528 Z-21.689 I-2.849 J-0.075
N910 G3 X173.953 Y242.678 Z-22.001 I2.849 J0.075
N915 G3 X168.255 Y242.528 Z-22.314 I-2.849 J-0.075
N920 G3 X173.953 Y242.678 Z-22.627 I2.849 J0.075
N925 G3 X168.255 Y242.528 Z-22.939 I-2.849 J-0.075
N930 G3 X173.953 Y242.678 Z-23.252 I2.849 J0.075
N935 G3 X168.255 Y242.528 Z-23.565 I-2.849 J-0.075
N940 G3 X173.953 Y242.678 Z-23.877 I2.849 J0.075
N945 G3 X168.255 Y242.528 Z-24.19 I-2.849 J-0.075
N950 G3 X173.954 Y242.603 Z-24.5 I2.849 J0.075
N955 G1 Y242.812 F420
N960 G3 X173.187 Y243.579 I-0.767 J0
N965 G1 X163.242
N970 G3 X162.475 Y242.812 I0 J-0.767
N975 G1 Y242.394
N980 G3 X163.242 Y241.627 I0.767 J0
N985 G1 X173.187
N990 G3 X173.954 Y242.394 I0 J0.767
N995 G1 Y242.603
N1000 G2 X174.671 Y243.856 I1.454 J0
N1005 G3 X174.677 Y245.3 I-0.425 J0.724
N1010 G3 X173.187 Y245.712 I-1.49 J-2.488
N1015 G1 X163.242
N1020 G3 X160.342 Y242.812 I0 J-2.9
N1025 G1 Y242.394
N1030 G3 X163.242 Y239.494 I2.9 J0
N1035 G1 X173.187
N1040 G3 X176.087 Y242.394 I0 J2.9
N1045 G1 Y242.812
N1050 G3 X174.677 Y245.3 I-2.9 J0
N1055 G3 X174.248 Y245.165 I-0.154 J-0.257
N1060 G1 X173.531 Y243.554
N1065 G1 X173.502 Y243.502
N1070 G1 X173.477 Y243.461
N1075 G1 X173.459 Y243.416
N1080 G1 X173.449 Y243.368
N1085 G1 X173.356 Y242.677
N1090 G3 X173.635 Y242.337 I0.297 J-0.04
N1095 G3 X173.953 Y242.641 I0.018 J0.299
N1100 G3 X168.254 Y242.565 Z-24.813 I-2.85 J-0.038 F333.3
N1105 G3 X173.953 Y242.641 Z-25.125 I2.85 J0.038
N1110 G3 X168.254 Y242.565 Z-25.438 I-2.85 J-0.038
N1115 G3 X173.953 Y242.641 Z-25.751 I2.85 J0.038
N1120 G3 X168.254 Y242.565 Z-26.063 I-2.85 J-0.038
N1125 G3 X173.953 Y242.641 Z-26.376 I2.85 J0.038
N1130 G3 X168.254 Y242.565 Z-26.689 I-2.85 J-0.038
N1135 G3 X173.954 Y242.603 Z-27 I2.85 J0.038
N1140 G1 Y242.812 F420
N1145 G3 X173.187 Y243.579 I-0.767 J0
N1150 G1 X163.242
N1155 G3 X162.475 Y242.812 I0 J-0.767
N1160 G1 Y242.394
N1165 G3 X163.242 Y241.627 I0.767 J0
N1170 G1 X173.187
N1175 G3 X173.954 Y242.394 I0 J0.767
N1180 G1 Y242.603
N1185 G2 X174.671 Y243.856 I1.454 J0
N1190 G3 X174.677 Y245.3 I-0.425 J0.724
N1195 G3 X173.187 Y245.712 I-1.49 J-2.488
N1200 G1 X163.242
N1205 G3 X160.342 Y242.812 I0 J-2.9
N1210 G1 Y242.394
N1215 G3 X163.242 Y239.494 I2.9 J0
N1220 G1 X173.187
N1225 G3 X176.087 Y242.394 I0 J2.9
N1230 G1 Y242.812
N1235 G3 X174.677 Y245.3 I-2.9 J0
N1240 G1 X174.64 Y245.315
N1245 G1 X174.6 Y245.318
N1250 G1 X174.562 Y245.309
N1255 G1 X174.528 Y245.288
N1260 G1 X174.501 Y245.259
N1265 G1 X174.163 Y244.743
N1270 G1 X169.427 Y241.357
N1275 G1 X168.861 Y241.101
N1280 G1 X168.83 Y241.08
N1285 G1 X168.805 Y241.052
N1290 G1 X168.791 Y241.017
N1295 G1 X168.787 Y240.98
N1300 G1 X168.794 Y240.943
N1305 G1 X168.811 Y240.91
N1310 G3 X173.396 Y244.296 Z-27.313 I2.292 J1.693 F333.3
N1315 G3 X168.811 Y240.91 Z-27.625 I-2.292 J-1.693
N1320 G3 X173.396 Y244.296 Z-27.938 I2.292 J1.693
N1325 G3 X168.811 Y240.91 Z-28.251 I-2.292 J-1.693
N1330 G3 X173.954 Y242.603 Z-28.5 I2.292 J1.693
N1335 G1 Y242.812 F420
N1340 G3 X173.187 Y243.579 I-0.767 J0
N1345 G1 X163.242
N1350 G3 X162.475 Y242.812 I0 J-0.767
N1355 G1 Y242.394
N1360 G3 X163.242 Y241.627 I0.767 J0
N1365 G1 X173.187
N1370 G3 X173.954 Y242.394 I0 J0.767
N1375 G1 Y242.603
N1380 G2 X174.671 Y243.856 I1.454 J0
N1385 G3 X174.677 Y245.3 I-0.425 J0.724
N1390 G3 X173.187 Y245.712 I-1.49 J-2.488
N1395 G1 X163.242
N1400 G3 X160.342 Y242.812 I0 J-2.9
N1405 G1 Y242.394
N1410 G3 X163.242 Y239.494 I2.9 J0
N1415 G1 X173.187
N1420 G3 X176.087 Y242.394 I0 J2.9
N1425 G1 Y242.812
N1430 G3 X174.677 Y245.3 I-2.9 J0
N1435 G1 X174.64 Y245.315
N1440 G1 X174.6 Y245.318
N1445 G1 X174.562 Y245.309
N1450 G1 X174.528 Y245.288
N1455 G1 X174.501 Y245.259
N1460 G1 X174.163 Y244.743
N1465 G1 X169.427 Y241.357
N1470 G1 X168.861 Y241.101
N1475 G1 X168.83 Y241.08
N1480 G1 X168.805 Y241.052
N1485 G1 X168.791 Y241.017
N1490 G1 X168.787 Y240.98
N1495 G1 X168.794 Y240.943
N1500 G1 X168.811 Y240.91
N1505 G3 X173.396 Y244.296 Z-28.813 I2.292 J1.693 F333.3
N1510 G3 X168.811 Y240.91 Z-29.125 I-2.292 J-1.693
N1515 G3 X173.396 Y244.296 Z-29.438 I2.292 J1.693
N1520 G3 X168.811 Y240.91 Z-29.751 I-2.292 J-1.693
N1525 G3 X173.954 Y242.603 Z-30 I2.292 J1.693
N1530 G1 Y242.812 F420
N1535 G3 X173.187 Y243.579 I-0.767 J0
N1540 G1 X163.242
N1545 G3 X162.475 Y242.812 I0 J-0.767
N1550 G1 Y242.394
N1555 G3 X163.242 Y241.627 I0.767 J0
N1560 G1 X173.187
N1565 G3 X173.954 Y242.394 I0 J0.767
N1570 G1 Y242.603
N1575 G2 X174.671 Y243.856 I1.454 J0
N1580 G3 X174.677 Y245.3 I-0.425 J0.724
N1585 G3 X173.187 Y245.712 I-1.49 J-2.488
N1590 G1 X163.242
N1595 G3 X160.342 Y242.812 I0 J-2.9
N1600 G1 Y242.394
N1605 G3 X163.242 Y239.494 I2.9 J0
N1610 G1 X173.187
N1615 G3 X176.087 Y242.394 I0 J2.9
N1620 G1 Y242.812
N1625 G3 X174.677 Y245.3 I-2.9 J0
N1630 G1 X174.594 Y245.341 Z-29.985 F1000
N1635 G1 X174.505 Y245.369 Z-29.971
N1640 G1 X174.423 Y245.383 Z-29.928
N1645 G1 X174.339 Y245.385 Z-29.885
N1650 G1 X174.273 Y245.378 Z-29.819
N1655 G1 X174.209 Y245.364 Z-29.753
N1660 G1 X174.128 Y245.335 Z-29.585
N1665 G1 X174.102 Y245.323 Z-29.4
N1670 G0 Z5
N1675 G0 X163.21 Y173.836
N1680 G0 Z-17
N1685 G1 Z-18.9 F1000
N1690 G1 X163.247 Y173.83 Z-19.107 F333.3
N1695 G1 X163.352 Y173.814 Z-19.289
N1700 G1 X163.513 Y173.798 Z-19.423
N1705 G1 X163.712 Y173.792 Z-19.493
N1710 G1 X163.787 Y173.793 Z-19.5
N1715 G3 X163.636 Y179.491 Z-19.813 I-0.075 J2.849
N1720 G3 X163.787 Y173.793 Z-20.125 I0.075 J-2.849
N1725 G3 X163.636 Y179.491 Z-20.438 I-0.075 J2.849
N1730 G3 X163.787 Y173.793 Z-20.751 I0.075 J-2.849
N1735 G3 X163.636 Y179.491 Z-21.063 I-0.075 J2.849
N1740 G3 X163.787 Y173.793 Z-21.376 I0.075 J-2.849
N1745 G3 X163.636 Y179.491 Z-21.689 I-0.075 J2.849
N1750 G3 X163.787 Y173.793 Z-22.001 I0.075 J-2.849
N1755 G3 X163.636 Y179.491 Z-22.314 I-0.075 J2.849
N1760 G3 X163.787 Y173.793 Z-22.627 I0.075 J-2.849
N1765 G3 X163.636 Y179.491 Z-22.939 I-0.075 J2.849
N1770 G3 X163.787 Y173.793 Z-23.252 I0.075 J-2.849
N1775 G3 X163.636 Y179.491 Z-23.565 I-0.075 J2.849
N1780 G3 X163.787 Y173.793 Z-23.877 I0.075 J-2.849
N1785 G3 X163.636 Y179.491 Z-24.19 I-0.075 J2.849
N1790 G3 X163.712 Y173.792 Z-24.5 I0.075 J-2.849
N1795 G3 Y178.206 I0 J2.207
N1800 G1 X163.242 F420
N1805 G3 X162.629 Y177.564 I0 J-0.614
N1810 G2 X162.65 Y176.675 I-19.029 J-0.888
N1815 G3 X163.242 Y176.083 I0.593 J0
N1820 G1 X173.187
N1825 G3 X173.8 Y176.725 I0 J0.614
N1830 G2 X173.779 Y177.614 I19.029 J0.888
N1835 G3 X173.187 Y178.206 I-0.593 J0
N1840 G1 X163.712
N1845 G2 X162.351 Y179.044 I0 J1.524
N1850 G3 X160.754 Y179.102 I-0.814 J-0.41
N1855 G3 X160.342 Y177.614 I2.489 J-1.489
N1860 G1 Y176.675
N1865 G3 X163.242 Y173.775 I2.9 J0
N1870 G1 X173.187
N1875 G3 X176.087 Y176.675 I0 J2.9
N1880 G1 Y177.614
N1885 G3 X173.187 Y180.514 I-2.9 J0
N1890 G1 X163.242
N1895 G3 X160.754 Y179.102 I0 J-2.9
N1900 G3 X160.75 Y178.801 I0.257 J-0.154
N1905 G1 X163.484 Y173.945
N1910 G3 X163.749 Y173.792 I0.261 J0.147
N1915 G3 X163.674 Y179.491 Z-24.813 I-0.038 J2.85 F333.3
N1920 G3 X163.749 Y173.792 Z-25.125 I0.038 J-2.85
N1925 G3 X163.674 Y179.491 Z-25.438 I-0.038 J2.85
N1930 G3 X163.749 Y173.792 Z-25.751 I0.038 J-2.85
N1935 G3 X163.674 Y179.491 Z-26.063 I-0.038 J2.85
N1940 G3 X163.749 Y173.792 Z-26.376 I0.038 J-2.85
N1945 G3 X163.674 Y179.491 Z-26.689 I-0.038 J2.85
N1950 G3 X163.712 Y173.792 Z-27 I0.038 J-2.85
N1955 G3 Y178.206 I0 J2.207
N1960 G1 X163.242 F420
N1965 G3 X162.629 Y177.564 I0 J-0.614
N1970 G2 X162.65 Y176.675 I-19.029 J-0.888
N1975 G3 X163.242 Y176.083 I0.593 J0
N1980 G1 X173.187
N1985 G3 X173.8 Y176.725 I0 J0.614
N1990 G2 X173.779 Y177.614 I19.029 J0.888
N1995 G3 X173.187 Y178.206 I-0.593 J0
N2000 G1 X163.712
N2005 G2 X162.351 Y179.044 I0 J1.524
N2010 G3 X160.754 Y179.102 I-0.814 J-0.41
N2015 G3 X160.342 Y177.614 I2.489 J-1.489
N2020 G1 Y176.675
N2025 G3 X163.242 Y173.775 I2.9 J0
N2030 G1 X173.187
N2035 G3 X176.087 Y176.675 I0 J2.9
N2040 G1 Y177.614
N2045 G3 X173.187 Y180.514 I-2.9 J0
N2050 G1 X163.242
N2055 G3 X160.754 Y179.102 I0 J-2.9
N2060 G3 X160.858 Y178.69 I0.257 J-0.154
N2065 G3 X161.27 Y178.797 I0.153 J0.258
N2070 G1 X161.581 Y179.327
N2075 G2 X162.099 Y179.023 I0.259 J-0.152
N2080 G2 X162.018 Y178.934 I-0.259 J0.152
N2085 G3 X165.405 Y174.349 Z-27.313 I1.693 J-2.292 F333.3
N2090 G3 X162.018 Y178.934 Z-27.625 I-1.693 J2.292
N2095 G3 X165.405 Y174.349 Z-27.938 I1.693 J-2.292
N2100 G3 X162.018 Y178.934 Z-28.251 I-1.693 J2.292
N2105 G3 X163.712 Y173.792 Z-28.5 I1.693 J-2.292
N2110 G3 Y178.206 I0 J2.207
N2115 G1 X163.242 F420
N2120 G3 X162.629 Y177.564 I0 J-0.614
N2125 G2 X162.65 Y176.675 I-19.029 J-0.888
N2130 G3 X163.242 Y176.083 I0.593 J0
N2135 G1 X173.187
N2140 G3 X173.8 Y176.725 I0 J0.614
N2145 G2 X173.779 Y177.614 I19.029 J0.888
N2150 G3 X173.187 Y178.206 I-0.593 J0
N2155 G1 X163.712
N2160 G2 X162.351 Y179.044 I0 J1.524
N2165 G3 X160.754 Y179.102 I-0.814 J-0.41
N2170 G3 X160.342 Y177.614 I2.489 J-1.489
N2175 G1 Y176.675
N2180 G3 X163.242 Y173.775 I2.9 J0
N2185 G1 X173.187
N2190 G3 X176.087 Y176.675 I0 J2.9
N2195 G1 Y177.614
N2200 G3 X173.187 Y180.514 I-2.9 J0
N2205 G1 X163.242
N2210 G3 X160.754 Y179.102 I0 J-2.9
N2215 G3 X160.858 Y178.69 I0.257 J-0.154
N2220 G3 X161.27 Y178.797 I0.153 J0.258
N2225 G1 X161.581 Y179.327
N2230 G2 X162.099 Y179.023 I0.259 J-0.152
N2235 G2 X162.018 Y178.934 I-0.259 J0.152
N2240 G3 X165.405 Y174.349 Z-28.813 I1.693 J-2.292 F333.3
N2245 G3 X162.018 Y178.934 Z-29.125 I-1.693 J2.292
N2250 G3 X165.405 Y174.349 Z-29.438 I1.693 J-2.292
N2255 G3 X162.018 Y178.934 Z-29.751 I-1.693 J2.292
N2260 G3 X163.712 Y173.792 Z-30 I1.693 J-2.292
N2265 G3 Y178.206 I0 J2.207
N2270 G1 X163.242 F420
N2275 G3 X162.629 Y177.564 I0 J-0.614
N2280 G2 X162.65 Y176.675 I-19.029 J-0.888
N2285 G3 X163.242 Y176.083 I0.593 J0
N2290 G1 X173.187
N2295 G3 X173.8 Y176.725 I0 J0.614
N2300 G2 X173.779 Y177.614 I19.029 J0.888
N2305 G3 X173.187 Y178.206 I-0.593 J0
N2310 G1 X163.712
N2315 G2 X162.351 Y179.044 I0 J1.524
N2320 G3 X160.754 Y179.102 I-0.814 J-0.41
N2325 G3 X160.342 Y177.614 I2.489 J-1.489
N2330 G1 Y176.675
N2335 G3 X163.242 Y173.775 I2.9 J0
N2340 G1 X173.187
N2345 G3 X176.087 Y176.675 I0 J2.9
N2350 G1 Y177.614
N2355 G3 X173.187 Y180.514 I-2.9 J0
N2360 G1 X163.242
N2365 G3 X160.754 Y179.102 I0 J-2.9
N2370 G1 X160.712 Y179.019 Z-29.985 F1000
N2375 G1 X160.684 Y178.931 Z-29.971
N2380 G1 X160.671 Y178.849 Z-29.928
N2385 G1 X160.669 Y178.765 Z-29.885
N2390 G1 X160.676 Y178.699 Z-29.819
N2395 G1 X160.69 Y178.634 Z-29.753
N2400 G1 X160.719 Y178.554 Z-29.585
N2405 G1 X160.731 Y178.528 Z-29.4
N2410 G0 Z5
N2415 G0 X224.096 Y173.836
N2420 G0 Z-17
N2425 G1 Z-18.9 F1000
N2430 G1 X224.133 Y173.83 Z-19.107 F333.3
N2435 G1 X224.238 Y173.814 Z-19.289
N2440 G1 X224.399 Y173.798 Z-19.423
N2445 G1 X224.597 Y173.792 Z-19.493
N2450 G1 X224.673 Y173.793 Z-19.5
N2455 G3 X224.522 Y179.491 Z-19.813 I-0.075 J2.849
N2460 G3 X224.673 Y173.793 Z-20.125 I0.075 J-2.849
N2465 G3 X224.522 Y179.491 Z-20.438 I-0.075 J2.849
N2470 G3 X224.673 Y173.793 Z-20.751 I0.075 J-2.849
N2475 G3 X224.522 Y179.491 Z-21.063 I-0.075 J2.849
N2480 G3 X224.673 Y173.793 Z-21.376 I0.075 J-2.849
N2485 G3 X224.522 Y179.491 Z-21.689 I-0.075 J2.849
N2490 G3 X224.673 Y173.793 Z-22.001 I0.075 J-2.849
N2495 G3 X224.522 Y179.491 Z-22.314 I-0.075 J2.849
N2500 G3 X224.673 Y173.793 Z-22.627 I0.075 J-2.849
N2505 G3 X224.522 Y179.491 Z-22.939 I-0.075 J2.849
N2510 G3 X224.673 Y173.793 Z-23.252 I0.075 J-2.849
N2515 G3 X224.522 Y179.491 Z-23.565 I-0.075 J2.849
N2520 G3 X224.673 Y173.793 Z-23.877 I0.075 J-2.849
N2525 G3 X224.522 Y179.491 Z-24.19 I-0.075 J2.849
N2530 G3 X224.597 Y173.792 Z-24.5 I0.075 J-2.849
N2535 G3 Y178.206 I0 J2.207
N2540 G1 X214.868 F420
N2545 G3 X214.255 Y177.564 I0 J-0.614
N2550 G2 X214.276 Y176.675 I-19.029 J-0.888
N2555 G3 X214.868 Y176.083 I0.593 J0
N2560 G1 X225.066
N2565 G3 X225.68 Y176.725 I0 J0.614
N2570 G2 X225.659 Y177.614 I19.029 J0.888
N2575 G3 X225.066 Y178.206 I-0.593 J0
N2580 G1 X224.597
N2585 G2 X222.867 Y179.36 I0 J1.875
N2590 G3 X221.136 Y180.514 I-1.73 J-0.721
N2595 G1 X214.868
N2600 G3 X211.969 Y177.614 I0 J-2.9
N2605 G1 Y176.675
N2610 G3 X214.868 Y173.775 I2.9 J0
N2615 G1 X225.066
N2620 G3 X227.966 Y176.675 I0 J2.9
N2625 G1 Y177.614
N2630 G3 X225.066 Y180.514 I-2.9 J0
N2635 G1 X221.136
N2640 G1 X221.098 Y180.507
N2645 G1 X221.064 Y180.487
N2650 G1 X221.039 Y180.457
N2655 G1 X221.026 Y180.421
N2660 G1 Y180.382
N2665 G1 X221.039 Y180.345
N2670 G1 X221.305 Y179.884
N2675 G1 X224.463 Y174.418
N2680 G1 X224.522 Y173.893
N2685 G1 X224.534 Y173.853
N2690 G1 X224.559 Y173.82
N2695 G1 X224.594 Y173.799
N2700 G1 X224.635 Y173.792
N2705 G3 X224.56 Y179.491 Z-24.813 I-0.038 J2.85 F333.3
N2710 G3 X224.635 Y173.792 Z-25.125 I0.038 J-2.85
N2715 G3 X224.56 Y179.491 Z-25.438 I-0.038 J2.85
N2720 G3 X224.635 Y173.792 Z-25.751 I0.038 J-2.85
N2725 G3 X224.56 Y179.491 Z-26.063 I-0.038 J2.85
N2730 G3 X224.635 Y173.792 Z-26.376 I0.038 J-2.85
N2735 G3 X224.56 Y179.491 Z-26.689 I-0.038 J2.85
N2740 G3 X224.597 Y173.792 Z-27 I0.038 J-2.85
N2745 G3 Y178.206 I0 J2.207
N2750 G1 X214.868 F420
N2755 G3 X214.255 Y177.564 I0 J-0.614
N2760 G2 X214.276 Y176.675 I-19.029 J-0.888
N2765 G3 X214.868 Y176.083 I0.593 J0
N2770 G1 X225.066
N2775 G3 X225.68 Y176.725 I0 J0.614
N2780 G2 X225.659 Y177.614 I19.029 J0.888
N2785 G3 X225.066 Y178.206 I-0.593 J0
N2790 G1 X224.597
N2795 G2 X222.867 Y179.36 I0 J1.875
N2800 G3 X221.136 Y180.514 I-1.73 J-0.721
N2805 G1 X214.868
N2810 G3 X211.969 Y177.614 I0 J-2.9
N2815 G1 Y176.675
N2820 G3 X214.868 Y173.775 I2.9 J0
N2825 G1 X225.066
N2830 G3 X227.966 Y176.675 I0 J2.9
N2835 G1 Y177.614
N2840 G3 X225.066 Y180.514 I-2.9 J0
N2845 G1 X221.136
N2850 G3 X221.06 Y179.923 I0 J-0.3
N2855 G1 X222.802 Y179.465
N2860 G2 X222.904 Y178.934 I-0.076 J-0.29
N2865 G3 X226.291 Y174.349 Z-27.313 I1.693 J-2.292 F333.3
N2870 G3 X222.904 Y178.934 Z-27.625 I-1.693 J2.292
N2875 G3 X226.291 Y174.349 Z-27.938 I1.693 J-2.292
N2880 G3 X222.904 Y178.934 Z-28.251 I-1.693 J2.292
N2885 G3 X224.597 Y173.792 Z-28.5 I1.693 J-2.292
N2890 G3 Y178.206 I0 J2.207
N2895 G1 X214.868 F420
N2900 G3 X214.255 Y177.564 I0 J-0.614
N2905 G2 X214.276 Y176.675 I-19.029 J-0.888
N2910 G3 X214.868 Y176.083 I0.593 J0
N2915 G1 X225.066
N2920 G3 X225.68 Y176.725 I0 J0.614
N2925 G2 X225.659 Y177.614 I19.029 J0.888
N2930 G3 X225.066 Y178.206 I-0.593 J0
N2935 G1 X224.597
N2940 G2 X222.867 Y179.36 I0 J1.875
N2945 G3 X221.136 Y180.514 I-1.73 J-0.721
N2950 G1 X214.868
N2955 G3 X211.969 Y177.614 I0 J-2.9
N2960 G1 Y176.675
N2965 G3 X214.868 Y173.775 I2.9 J0
N2970 G1 X225.066
N2975 G3 X227.966 Y176.675 I0 J2.9
N2980 G1 Y177.614
N2985 G3 X225.066 Y180.514 I-2.9 J0
N2990 G1 X221.136
N2995 G3 X221.06 Y179.923 I0 J-0.3
N3000 G1 X222.802 Y179.465
N3005 G2 X222.904 Y178.934 I-0.076 J-0.29
N3010 G3 X226.291 Y174.349 Z-28.813 I1.693 J-2.292 F333.3
N3015 G3 X222.904 Y178.934 Z-29.125 I-1.693 J2.292
N3020 G3 X226.291 Y174.349 Z-29.438 I1.693 J-2.292
N3025 G3 X222.904 Y178.934 Z-29.751 I-1.693 J2.292
N3030 G3 X224.597 Y173.792 Z-30 I1.693 J-2.292
N3035 G3 Y178.206 I0 J2.207
N3040 G1 X214.868 F420
N3045 G3 X214.255 Y177.564 I0 J-0.614
N3050 G2 X214.276 Y176.675 I-19.029 J-0.888
N3055 G3 X214.868 Y176.083 I0.593 J0
N3060 G1 X225.066
N3065 G3 X225.68 Y176.725 I0 J0.614
N3070 G2 X225.659 Y177.614 I19.029 J0.888
N3075 G3 X225.066 Y178.206 I-0.593 J0
N3080 G1 X224.597
N3085 G2 X222.867 Y179.36 I0 J1.875
N3090 G3 X221.136 Y180.514 I-1.73 J-0.721
N3095 G1 X214.868
N3100 G3 X211.969 Y177.614 I0 J-2.9
N3105 G1 Y176.675
N3110 G3 X214.868 Y173.775 I2.9 J0
N3115 G1 X225.066
N3120 G3 X227.966 Y176.675 I0 J2.9
N3125 G1 Y177.614
N3130 G3 X225.066 Y180.514 I-2.9 J0
N3135 G1 X221.136
N3140 G1 X221.044 Y180.506 Z-29.985 F1000
N3145 G1 X220.954 Y180.485 Z-29.971
N3150 G1 X220.876 Y180.454 Z-29.928
N3155 G1 X220.804 Y180.413 Z-29.885
N3160 G1 X220.751 Y180.373 Z-29.819
N3165 G1 X220.702 Y180.328 Z-29.753
N3170 G1 X220.648 Y180.262 Z-29.585
N3175 G1 X220.631 Y180.238 Z-29.4
N3180 G0 Z5
N3185 G0 X273.304 Y180.453
N3190 G0 Z-17
N3195 G1 Z-18.9 F1000
N3200 G1 X273.268 Y180.459 Z-19.107 F333.3
N3205 G1 X273.163 Y180.475 Z-19.289
N3210 G1 X273.001 Y180.49 Z-19.423
N3215 G1 X272.803 Y180.497 Z-19.493
N3220 G1 X272.728 Y180.496 Z-19.5
N3225 G3 X272.878 Y174.798 Z-19.813 I0.075 J-2.849
N3230 G3 X272.728 Y180.496 Z-20.125 I-0.075 J2.849
N3235 G3 X272.878 Y174.798 Z-20.438 I0.075 J-2.849
N3240 G3 X272.728 Y180.496 Z-20.751 I-0.075 J2.849
N3245 G3 X272.878 Y174.798 Z-21.063 I0.075 J-2.849
N3250 G3 X272.728 Y180.496 Z-21.376 I-0.075 J2.849
N3255 G3 X272.878 Y174.798 Z-21.689 I0.075 J-2.849
N3260 G3 X272.728 Y180.496 Z-22.001 I-0.075 J2.849
N3265 G3 X272.878 Y174.798 Z-22.314 I0.075 J-2.849
N3270 G3 X272.728 Y180.496 Z-22.627 I-0.075 J2.849
N3275 G3 X272.878 Y174.798 Z-22.939 I0.075 J-2.849
N3280 G3 X272.728 Y180.496 Z-23.252 I-0.075 J2.849
N3285 G3 X272.878 Y174.798 Z-23.565 I0.075 J-2.849
N3290 G3 X272.728 Y180.496 Z-23.877 I-0.075 J2.849
N3295 G3 X272.878 Y174.798 Z-24.19 I0.075 J-2.849
N3300 G3 X272.803 Y180.497 Z-24.5 I-0.075 J2.849
N3305 G3 Y176.083 I0 J-2.207
N3310 G1 X273.272 F420
N3315 G3 X273.865 Y176.675 I0 J0.593
N3320 G2 X273.886 Y177.564 I19.05 J0
N3325 G3 X273.272 Y178.206 I-0.613 J0.029
N3330 G1 X257.352
N3335 G3 X256.739 Y177.564 I0 J-0.614
N3340 G2 X256.759 Y176.675 I-19.029 J-0.888
N3345 G3 X257.352 Y176.083 I0.593 J0
N3350 G1 X272.803
N3355 G2 X274.164 Y175.244 I0 J-1.524
N3360 G3 X275.761 Y175.187 I0.814 J0.41
N3365 G3 X276.172 Y176.675 I-2.489 J1.489
N3370 G1 Y177.614
N3375 G3 X273.272 Y180.514 I-2.9 J0
N3380 G1 X257.352
N3385 G3 X254.452 Y177.614 I0 J-2.9
N3390 G1 Y176.675
N3395 G3 X257.352 Y173.775 I2.9 J0
N3400 G1 X273.272
N3405 G3 X275.761 Y175.187 I0 J2.9
N3410 G3 X275.765 Y175.488 I-0.257 J0.154
N3415 G1 X273.031 Y180.344
N3420 G3 X272.765 Y180.497 I-0.261 J-0.147
N3425 G3 X272.841 Y174.798 Z-24.813 I0.038 J-2.85 F333.3
N3430 G3 X272.765 Y180.497 Z-25.125 I-0.038 J2.85
N3435 G3 X272.841 Y174.798 Z-25.438 I0.038 J-2.85
N3440 G3 X272.765 Y180.497 Z-25.751 I-0.038 J2.85
N3445 G3 X272.841 Y174.798 Z-26.063 I0.038 J-2.85
N3450 G3 X272.765 Y180.497 Z-26.376 I-0.038 J2.85
N3455 G3 X272.841 Y174.798 Z-26.689 I0.038 J-2.85
N3460 G3 X272.803 Y180.497 Z-27 I-0.038 J2.85
N3465 G3 Y176.083 I0 J-2.207
N3470 G1 X273.272 F420
N3475 G3 X273.865 Y176.675 I0 J0.593
N3480 G2 X273.886 Y177.564 I19.05 J0
N3485 G3 X273.272 Y178.206 I-0.613 J0.029
N3490 G1 X257.352
N3495 G3 X256.739 Y177.564 I0 J-0.614
N3500 G2 X256.759 Y176.675 I-19.029 J-0.888
N3505 G3 X257.352 Y176.083 I0.593 J0
N3510 G1 X272.803
N3515 G2 X274.164 Y175.244 I0 J-1.524
N3520 G3 X275.761 Y175.187 I0.814 J0.41
N3525 G3 X276.172 Y176.675 I-2.489 J1.489
N3530 G1 Y177.614
N3535 G3 X273.272 Y180.514 I-2.9 J0
N3540 G1 X257.352
N3545 G3 X254.452 Y177.614 I0 J-2.9
N3550 G1 Y176.675
N3555 G3 X257.352 Y173.775 I2.9 J0
N3560 G1 X273.272
N3565 G3 X275.761 Y175.187 I0 J2.9
N3570 G3 X275.656 Y175.599 I-0.257 J0.154
N3575 G3 X275.245 Y175.492 I-0.153 J-0.258
N3580 G1 X274.933 Y174.962
N3585 G2 X274.416 Y175.266 I-0.259 J0.152
N3590 G2 X274.496 Y175.355 I0.259 J-0.152
N3595 G3 X271.11 Y179.94 Z-27.313 I-1.693 J2.292 F333.3
N3600 G3 X274.496 Y175.355 Z-27.625 I1.693 J-2.292
N3605 G3 X271.11 Y179.94 Z-27.938 I-1.693 J2.292
N3610 G3 X274.496 Y175.355 Z-28.251 I1.693 J-2.292
N3615 G3 X272.803 Y180.497 Z-28.5 I-1.693 J2.292
N3620 G3 Y176.083 I0 J-2.207
N3625 G1 X273.272 F420
N3630 G3 X273.865 Y176.675 I0 J0.593
N3635 G2 X273.886 Y177.564 I19.05 J0
N3640 G3 X273.272 Y178.206 I-0.613 J0.029
N3645 G1 X257.352
N3650 G3 X256.739 Y177.564 I0 J-0.614
N3655 G2 X256.759 Y176.675 I-19.029 J-0.888
N3660 G3 X257.352 Y176.083 I0.593 J0
N3665 G1 X272.803
N3670 G2 X274.164 Y175.244 I0 J-1.524
N3675 G3 X275.761 Y175.187 I0.814 J0.41
N3680 G3 X276.172 Y176.675 I-2.489 J1.489
N3685 G1 Y177.614
N3690 G3 X273.272 Y180.514 I-2.9 J0
N3695 G1 X257.352
N3700 G3 X254.452 Y177.614 I0 J-2.9
N3705 G1 Y176.675
N3710 G3 X257.352 Y173.775 I2.9 J0
N3715 G1 X273.272
N3720 G3 X275.761 Y175.187 I0 J2.9
N3725 G3 X275.656 Y175.599 I-0.257 J0.154
N3730 G3 X275.245 Y175.492 I-0.153 J-0.258
N3735 G1 X274.933 Y174.962
N3740 G2 X274.416 Y175.266 I-0.259 J0.152
N3745 G2 X274.496 Y175.355 I0.259 J-0.152
N3750 G3 X271.11 Y179.94 Z-28.813 I-1.693 J2.292 F333.3
N3755 G3 X274.496 Y175.355 Z-29.125 I1.693 J-2.292
N3760 G3 X271.11 Y179.94 Z-29.438 I-1.693 J2.292
N3765 G3 X274.496 Y175.355 Z-29.751 I1.693 J-2.292
N3770 G3 X272.803 Y180.497 Z-30 I-1.693 J2.292
N3775 G3 Y176.083 I0 J-2.207
N3780 G1 X273.272 F420
N3785 G3 X273.865 Y176.675 I0 J0.593
N3790 G2 X273.886 Y177.564 I19.05 J0
N3795 G3 X273.272 Y178.206 I-0.613 J0.029
N3800 G1 X257.352
N3805 G3 X256.739 Y177.564 I0 J-0.614
N3810 G2 X256.759 Y176.675 I-19.029 J-0.888
N3815 G3 X257.352 Y176.083 I0.593 J0
N3820 G1 X272.803
N3825 G2 X274.164 Y175.244 I0 J-1.524
N3830 G3 X275.761 Y175.187 I0.814 J0.41
N3835 G3 X276.172 Y176.675 I-2.489 J1.489
N3840 G1 Y177.614
N3845 G3 X273.272 Y180.514 I-2.9 J0
N3850 G1 X257.352
N3855 G3 X254.452 Y177.614 I0 J-2.9
N3860 G1 Y176.675
N3865 G3 X257.352 Y173.775 I2.9 J0
N3870 G1 X273.272
N3875 G3 X275.761 Y175.187 I0 J2.9
N3880 G1 X275.802 Y175.269 Z-29.985 F1000
N3885 G1 X275.83 Y175.358 Z-29.971
N3890 G1 X275.843 Y175.44 Z-29.928
N3895 G1 X275.845 Y175.524 Z-29.885
N3900 G1 X275.838 Y175.59 Z-29.819
N3905 G1 X275.824 Y175.655 Z-29.753
N3910 G1 X275.796 Y175.735 Z-29.585
N3915 G1 X275.783 Y175.761 Z-29.4
N3920 G0 Z5
N3925 G0 X269.267 Y255.629
N3930 G0 Z-17
N3935 G1 Z-18.9 F1000
N3940 G1 X269.236 Y255.608 Z-19.107 F333.3
N3945 G1 X269.149 Y255.548 Z-19.289
N3950 G1 X269.021 Y255.449 Z-19.423
N3955 G1 X268.871 Y255.318 Z-19.493
N3960 G1 X268.817 Y255.265 Z-19.5
N3965 G3 X272.829 Y251.216 Z-19.813 I2.006 J-2.025
N3970 G3 X268.817 Y255.265 Z-20.125 I-2.006 J2.025
N3975 G3 X272.829 Y251.216 Z-20.438 I2.006 J-2.025
N3980 G3 X268.817 Y255.265 Z-20.751 I-2.006 J2.025
N3985 G3 X272.829 Y251.216 Z-21.063 I2.006 J-2.025
N3990 G3 X268.817 Y255.265 Z-21.376 I-2.006 J2.025
N3995 G3 X272.829 Y251.216 Z-21.689 I2.006 J-2.025
N4000 G3 X268.817 Y255.265 Z-22.001 I-2.006 J2.025
N4005 G3 X272.829 Y251.216 Z-22.314 I2.006 J-2.025
N4010 G3 X268.817 Y255.265 Z-22.627 I-2.006 J2.025
N4015 G3 X272.829 Y251.216 Z-22.939 I2.006 J-2.025
N4020 G3 X268.817 Y255.265 Z-23.252 I-2.006 J2.025
N4025 G3 X272.829 Y251.216 Z-23.565 I2.006 J-2.025
N4030 G3 X268.817 Y255.265 Z-23.877 I-2.006 J2.025
N4035 G3 X272.829 Y251.216 Z-24.19 I2.006 J-2.025
N4040 G3 X268.871 Y255.318 Z-24.5 I-2.006 J2.025
N4045 G1 X268.804 Y255.255 F420
N4050 G3 X268.567 Y254.705 I0.517 J-0.55
N4055 G1 Y253.928
N4060 G3 X268.886 Y253.609 I0.319 J0
N4065 G1 X269.758
N4070 G3 X270.296 Y253.955 I0 J0.59
N4075 G1 X272.19 Y258.138
N4080 G1 X272.2 Y258.176
N4085 G1 X272.196 Y258.214
N4090 G1 X272.18 Y258.249
N4095 G1 X272.153 Y258.277
N4100 G1 X272.118 Y258.293
N4105 G1 X272.08 Y258.297
N4110 G1 X272.042 Y258.288
N4115 G1 X272.01 Y258.267
N4120 G1 X268.871 Y255.318
N4125 G2 X267.611 Y254.965 I-0.967 J1.029
N4130 G3 X266.595 Y254.142 I-0.175 J-0.824
N4135 G1 Y251.956
N4140 G3 X266.914 Y251.637 I0.319 J0
N4145 G1 X271.03
N4150 G3 X271.567 Y251.983 I0 J0.59
N4155 G3 X273.045 Y255.377 I-115.682 J52.395
N4160 G2 X274.592 Y258.74 I48.768 J-20.397
N4165 G3 X276.585 Y262.758 I-350.33 J176.274
N4170 G2 X278.661 Y266.734 I76.4 J-37.353
N4175 G2 X278.798 Y266.963 I3.734 J-2.077
N4180 G3 X278.935 Y267.192 I-3.597 J2.306
N4185 G1 X278.947 Y267.228
N4190 G1 X278.946 Y267.266
N4195 G1 X278.932 Y267.301
N4200 G1 X278.907 Y267.329
N4205 G1 X278.874 Y267.347
N4210 G1 X278.836 Y267.352
N4215 G1 X278.799 Y267.343
N4220 G1 X278.768 Y267.323
N4225 G1 X266.957 Y256.226
N4230 G3 X266.595 Y255.387 I0.788 J-0.839
N4235 G1 Y254.142
N4240 G1 X266.602 Y254.049 Z-24.485 F1000
N4245 G1 X266.623 Y253.959 Z-24.471
N4250 G1 X266.654 Y253.881 Z-24.428
N4255 G1 X266.695 Y253.809 Z-24.385
N4260 G1 X266.735 Y253.756 Z-24.319
N4265 G1 X266.78 Y253.707 Z-24.253
N4270 G1 X266.846 Y253.653 Z-24.085
N4275 G1 X266.87 Y253.637 Z-23.9
N4280 G0 Z5
N4285 G0 X302.137 Y302.008
N4290 G0 Z-17
N4295 G1 Z-18.9 F1000
N4300 G1 X302.164 Y302.034 Z-19.107 F333.3
N4305 G1 X302.239 Y302.108 Z-19.289
N4310 G1 X302.349 Y302.228 Z-19.423
N4315 G1 X302.474 Y302.382 Z-19.493
N4320 G1 X302.518 Y302.443 Z-19.5
N4325 G3 X297.876 Y305.75 Z-19.813 I-2.321 J1.654
N4330 G3 X302.518 Y302.443 Z-20.125 I2.321 J-1.654
N4335 G3 X297.876 Y305.75 Z-20.438 I-2.321 J1.654
N4340 G3 X302.518 Y302.443 Z-20.751 I2.321 J-1.654
N4345 G3 X297.876 Y305.75 Z-21.063 I-2.321 J1.654
N4350 G3 X302.518 Y302.443 Z-21.376 I2.321 J-1.654
N4355 G3 X297.876 Y305.75 Z-21.689 I-2.321 J1.654
N4360 G3 X302.518 Y302.443 Z-22.001 I2.321 J-1.654
N4365 G3 X297.876 Y305.75 Z-22.314 I-2.321 J1.654
N4370 G3 X302.518 Y302.443 Z-22.627 I2.321 J-1.654
N4375 G3 X297.876 Y305.75 Z-22.939 I-2.321 J1.654
N4380 G3 X302.518 Y302.443 Z-23.252 I2.321 J-1.654
N4385 G3 X297.876 Y305.75 Z-23.565 I-2.321 J1.654
N4390 G3 X302.518 Y302.443 Z-23.877 I2.321 J-1.654
N4395 G3 X297.876 Y305.75 Z-24.19 I-2.321 J1.654
N4400 G3 X302.474 Y302.382 Z-24.5 I2.321 J-1.654
N4405 G2 X302.879 Y302.885 I8.065 J-6.074 F420
N4410 G2 X304.248 Y304.445 I72.675 J-62.402
N4415 G3 X305.618 Y306.006 I-71.306 J63.963
N4420 G1 X305.637 Y306.038
N4425 G1 X305.643 Y306.075
N4430 G1 X305.636 Y306.112
N4435 G1 X305.617 Y306.144
N4440 G1 X305.587 Y306.167
N4445 G1 X305.552 Y306.179
N4450 G1 X305.514 Y306.177
N4455 G1 X305.48 Y306.162
N4460 G3 X303.33 Y304.678 I35.695 J-53.998
N4465 G1 X301.434 Y303.311
N4470 G3 X301.213 Y302.731 I0.33 J-0.457
N4475 G2 X301.457 Y301.453 I-19.746 J-4.43
N4480 G3 X301.729 Y301.382 I0.151 J0.024
N4485 G3 X302.296 Y302.139 I-13.529 J10.73
N4490 G2 X302.474 Y302.382 I8.242 J-5.831
N4495 G2 X305.307 Y303.313 I2.086 J-1.571
N4500 G3 X308.174 Y304.132 I0.793 J2.653
N4505 G3 X310.45 Y306.745 I-180.477 J159.533
N4510 G2 X313.263 Y309.842 I56.946 J-48.896
N4515 G3 X316.135 Y312.884 I-175.866 J168.916
N4520 G2 X317.907 Y314.662 I25.815 J-23.957
N4525 G3 X319.712 Y316.405 I-51.676 J55.311
N4530 G3 X319.914 Y316.778 I-0.522 J0.523
N4535 G3 X320.014 Y317.277 I-37.024 J7.692
N4540 G3 X320.09 Y317.781 I-6.131 J1.188
N4545 G3 X319.792 Y318.156 I-0.338 J0.037
N4550 G1 X319.38 Y318.205
N4555 G3 X319.052 Y318.142 I-0.065 J-0.549
N4560 G3 X308.827 Y312.193 I88.43 J-163.76
N4565 G3 X302.58 Y308.063 I89.069 J-141.529
N4570 G3 X301.388 Y307.233 I95.069 J-137.691
N4575 G3 X300.213 Y306.38 I28.453 J-40.454
N4580 G2 X299.03 Y305.539 I-17.981 J24.034
N4585 G3 X297.846 Y304.697 I16.798 J-24.875
N4590 G1 X297.752 Y304.629
N4595 G1 X297.657 Y304.56
N4600 G3 X297.496 Y304.017 I0.298 J-0.384
N4605 G2 X292.857 Y284.996 I-17.047 J-5.919
N4610 G1 X263.665 Y257.626
N4615 G3 X263.319 Y256.827 I0.75 J-0.799
N4620 G1 Y248.674
N4625 G3 X263.632 Y248.361 I0.313 J0
N4630 G1 X273.186
N4635 G3 X273.687 Y248.699 I0 J0.541
N4640 G2 X275.456 Y252.78 I85.539 J-34.656
N4645 G3 X277.307 Y256.825 I-514.232 J237.791
N4650 G2 X277.519 Y257.268 I10.941 J-4.956
N4655 G1 X281.267 Y264.717
N4660 G2 X281.5 Y265.156 I10.73 J-5.399
N4665 G1 X285.535 Y272.414
N4670 G2 X285.787 Y272.845 I10.498 J-5.837
N4675 G1 X290.11 Y279.911
N4680 G2 X290.381 Y280.333 I10.246 J-6.269
N4685 G3 X292.77 Y283.954 I-238.47 J159.946
N4690 G2 X295.219 Y287.535 I75.205 J-48.81
N4695 G1 X299.88 Y293.911
N4700 G2 X302.424 Y297.19 I59.221 J-43.3
N4705 G3 X305.031 Y300.42 I-184.516 J151.642
N4710 G2 X307.71 Y303.609 I58.021 J-46.018
N4715 G3 X308.174 Y304.132 I-180.013 J160.056
N4720 G2 X311.619 Y305.07 I2.436 J-2.153
N4725 G3 X315.072 Y305.974 I1.024 J3.136
N4730 G2 X316.223 Y307.199 I53.62 J-49.238
N4735 G3 X319.044 Y310.185 I-165.964 J159.621
N4740 G2 X320.979 Y312.127 I28.125 J-26.101
N4745 G3 X322.952 Y314.031 I-56.122 J60.091
N4750 G3 X323.675 Y315.369 I-1.874 J1.877
N4755 G3 X324.025 Y317.381 I-30.832 J6.406
N4760 G3 X324.092 Y319.423 I-9.439 J1.33
N4765 G3 X324.006 Y320.175 I-9.681 J-0.725
N4770 G3 X323.666 Y320.85 I-1.21 J-0.186
N4775 G3 X322.866 Y321.382 I-1.689 J-1.673
N4780 G3 X321.959 Y321.699 I-3.836 J-9.511
N4785 G3 X320.574 Y322.023 I-3.386 J-11.358
N4790 G3 X319.167 Y322.227 I-4.662 J-27.215
N4795 G3 X317.77 Y321.96 I-0.278 J-2.34
N4800 G3 X313.312 Y319.502 I136.844 J-253.415
N4805 G3 X306.713 Y315.552 I86.071 J-151.298
N4810 G3 X300.325 Y311.329 I91.079 J-144.722
N4815 G3 X292.674 Y305.715 I93.842 J-135.914
N4820 G3 X292.582 Y305.232 I0.228 J-0.294
N4825 G2 X290.14 Y287.887 I-12.057 J-7.147
N4830 G1 X260.986 Y260.493
N4835 G2 X260.341 Y259.953 I-4.999 J5.32
N4840 G1 X259.697 Y259.475
N4845 G3 X259.35 Y258.787 I0.511 J-0.688
N4850 G1 Y244.712
N4855 G3 X259.67 Y244.392 I0.319 J0
N4860 G1 X275.853
N4865 G3 X276.364 Y244.737 I0 J0.552
N4870 G3 X276.898 Y246.147 I-30.598 J12.397
N4875 G2 X277.461 Y247.546 I16.534 J-5.835
N4880 G1 X280.922 Y255.187
N4885 G2 X281.064 Y255.484 I7.327 J-3.318
N4890 G1 X284.812 Y262.934
N4895 G2 X284.967 Y263.227 I7.185 J-3.615
N4900 G1 X289.003 Y270.485
N4905 G2 X289.172 Y270.774 I7.03 J-3.909
N4910 G1 X293.495 Y277.84
N4915 G2 X293.676 Y278.122 I6.861 J-4.198
N4920 G3 X296.028 Y281.689 I-227.453 J152.556
N4925 G2 X298.439 Y285.216 I73.34 J-47.549
N4930 G1 X303.084 Y291.569
N4935 G2 X305.581 Y294.786 I57.395 J-41.965
N4940 G3 X308.14 Y297.954 I-173.887 J143.113
N4945 G2 X310.77 Y301.083 I56.249 J-44.613
N4950 G3 X313.461 Y304.16 I-169.738 J151.132
N4955 G2 X315.072 Y305.974 I55.231 J-47.424
N4960 G2 X319.468 Y307.056 I3.011 J-2.765
N4965 G3 X323.886 Y308.042 I1.431 J3.977
N4970 G1 X327.818 Y311.968
N4975 G1 X328.353 Y313.806
N4980 G1 X328.822 Y316.065
N4985 G1 X329.042 Y318.063
N4990 G1 X329.033 Y319.793
N4995 G1 X328.821 Y321.256
N5000 G1 X328.436 Y322.471
N5005 G1 X327.896 Y323.483
N5010 G1 X327.194 Y324.345
N5015 G1 X326.223 Y325.152
N5020 G1 X324.966 Y325.857
N5025 G1 X323.374 Y326.446
N5030 G1 X321.429 Y326.891
N5035 G1 X319.13 Y327.164
N5040 G1 X317.209 Y327.224
N5045 G1 X310.867 Y323.799
N5050 G1 X304.08 Y319.737
N5055 G1 X297.515 Y315.398
N5060 G1 X292.529 Y311.804
N5065 G1 X287.678 Y308.038
N5070 G1 X285.446 Y306.173
N5075 G1 X287.156 Y304.353
N5080 G2 X286.755 Y291.49 I-6.632 J-6.231
N5085 G1 X257.601 Y264.096
N5090 G2 X254.087 Y262.043 I-6.232 J6.631
N5095 G1 X254.115 Y261.946
N5100 G2 X254.201 Y261.556 I-2.978 J-0.86
N5105 G1 X254.416 Y260.155
N5110 G2 X254.452 Y259.685 I-3.064 J-0.471
N5115 G1 Y239.494
N5120 G1 X279.525
N5125 G1 X281.915 Y245.391
N5130 G1 X281.964 Y245.506
N5135 G1 X285.425 Y253.148
N5140 G1 X285.479 Y253.262
N5145 G1 X289.228 Y260.712
N5150 G1 X289.288 Y260.825
N5155 G1 X293.323 Y268.083
N5160 G1 X293.388 Y268.194
N5165 G1 X297.712 Y275.26
N5170 G1 X297.781 Y275.369
N5175 G1 X302.392 Y282.243
N5180 G1 X302.464 Y282.346
N5185 G1 X307.074 Y288.651
N5190 G1 X307.148 Y288.748
N5195 G1 X312.013 Y294.882
N5200 G1 X312.09 Y294.975
N5205 G1 X317.211 Y300.94
N5210 G1 X317.291 Y301.029
N5215 G1 X322.667 Y306.822
N5220 G1 X322.749 Y306.907
N5225 G1 X323.886 Y308.042
N5230 G3 X323.703 Y308.553 I-0.212 J0.212
N5235 G1 X314.917 Y309.424
N5240 G1 X314.858
N5245 G1 X314.8 Y309.412
N5250 G1 X314.745 Y309.389
N5255 G1 X302.524 Y302.815
N5260 G1 X302.3 Y302.57
N5265 G3 X302.316 Y302.388 I0.095 J-0.083
N5270 G3 X302.496 Y302.412 I0.079 J0.098
N5275 G3 X297.898 Y305.781 Z-24.813 I-2.299 J1.684 F333.3
N5280 G3 X302.496 Y302.412 Z-25.125 I2.299 J-1.684
N5285 G3 X297.898 Y305.781 Z-25.438 I-2.299 J1.684
N5290 G3 X302.496 Y302.412 Z-25.751 I2.299 J-1.684
N5295 G3 X297.898 Y305.781 Z-26.063 I-2.299 J1.684
N5300 G3 X302.496 Y302.412 Z-26.376 I2.299 J-1.684
N5305 G3 X297.898 Y305.781 Z-26.689 I-2.299 J1.684
N5310 G3 X302.474 Y302.382 Z-27 I2.299 J-1.684
N5315 G2 X302.879 Y302.885 I8.065 J-6.074 F420
N5320 G2 X304.248 Y304.445 I72.675 J-62.402
N5325 G3 X305.618 Y306.006 I-71.306 J63.963
N5330 G1 X305.637 Y306.038
N5335 G1 X305.643 Y306.075
N5340 G1 X305.636 Y306.112
N5345 G1 X305.617 Y306.144
N5350 G1 X305.587 Y306.167
N5355 G1 X305.552 Y306.179
N5360 G1 X305.514 Y306.177
N5365 G1 X305.48 Y306.162
N5370 G3 X303.33 Y304.678 I35.695 J-53.998
N5375 G1 X301.434 Y303.311
N5380 G3 X301.213 Y302.731 I0.33 J-0.457
N5385 G2 X301.457 Y301.453 I-19.746 J-4.43
N5390 G3 X301.729 Y301.382 I0.151 J0.024
N5395 G3 X302.296 Y302.139 I-13.529 J10.73
N5400 G2 X302.474 Y302.382 I8.242 J-5.831
N5405 G1 X302.587 Y302.529 Z-26.971 F1000
N5410 G1 X302.691 Y302.66 Z-26.885
N5415 G1 X302.775 Y302.763 Z-26.753
N5420 G1 X302.83 Y302.828 Z-26.585
N5425 G1 X302.849 Y302.85 Z-26.4
N5430 G0 Z5
N5435 G0 X269.267 Y255.629
N5440 G0 Z-17
N5445 G1 Z-21.4 F1000
N5450 G1 X269.236 Y255.608 Z-21.607 F333.3
N5455 G1 X269.149 Y255.548 Z-21.789
N5460 G1 X269.021 Y255.449 Z-21.923
N5465 G1 X268.871 Y255.318 Z-21.993
N5470 G1 X268.817 Y255.265 Z-22
N5475 G3 X272.829 Y251.216 Z-22.313 I2.006 J-2.025
N5480 G3 X268.817 Y255.265 Z-22.625 I-2.006 J2.025
N5485 G3 X272.829 Y251.216 Z-22.938 I2.006 J-2.025
N5490 G3 X268.817 Y255.265 Z-23.251 I-2.006 J2.025
N5495 G3 X272.829 Y251.216 Z-23.563 I2.006 J-2.025
N5500 G3 X268.817 Y255.265 Z-23.876 I-2.006 J2.025
N5505 G3 X272.829 Y251.216 Z-24.189 I2.006 J-2.025
N5510 G3 X268.817 Y255.265 Z-24.501 I-2.006 J2.025
N5515 G3 X272.829 Y251.216 Z-24.814 I2.006 J-2.025
N5520 G3 X268.817 Y255.265 Z-25.127 I-2.006 J2.025
N5525 G3 X272.829 Y251.216 Z-25.439 I2.006 J-2.025
N5530 G3 X268.817 Y255.265 Z-25.752 I-2.006 J2.025
N5535 G3 X272.829 Y251.216 Z-26.065 I2.006 J-2.025
N5540 G3 X268.817 Y255.265 Z-26.377 I-2.006 J2.025
N5545 G3 X272.829 Y251.216 Z-26.69 I2.006 J-2.025
N5550 G3 X268.871 Y255.318 Z-27 I-2.006 J2.025
N5555 G1 X268.804 Y255.255 F420
N5560 G3 X268.567 Y254.705 I0.517 J-0.55
N5565 G1 Y253.928
N5570 G3 X268.886 Y253.609 I0.319 J0
N5575 G1 X269.758
N5580 G3 X270.296 Y253.955 I0 J0.59
N5585 G1 X272.19 Y258.138
N5590 G1 X272.2 Y258.176
N5595 G1 X272.196 Y258.214
N5600 G1 X272.18 Y258.249
N5605 G1 X272.153 Y258.277
N5610 G1 X272.118 Y258.293
N5615 G1 X272.08 Y258.297
N5620 G1 X272.042 Y258.288
N5625 G1 X272.01 Y258.267
N5630 G1 X268.871 Y255.318
N5635 G2 X267.611 Y254.965 I-0.967 J1.029
N5640 G3 X266.595 Y254.142 I-0.175 J-0.824
N5645 G1 Y251.956
N5650 G3 X266.914 Y251.637 I0.319 J0
N5655 G1 X271.03
N5660 G3 X271.567 Y251.983 I0 J0.59
N5665 G3 X273.045 Y255.377 I-115.682 J52.395
N5670 G2 X274.592 Y258.74 I48.768 J-20.397
N5675 G3 X276.585 Y262.758 I-350.33 J176.274
N5680 G2 X278.661 Y266.734 I76.4 J-37.353
N5685 G2 X278.798 Y266.963 I3.734 J-2.077
N5690 G3 X278.935 Y267.192 I-3.597 J2.306
N5695 G1 X278.947 Y267.228
N5700 G1 X278.946 Y267.266
N5705 G1 X278.932 Y267.301
N5710 G1 X278.907 Y267.329
N5715 G1 X278.874 Y267.347
N5720 G1 X278.836 Y267.352
N5725 G1 X278.799 Y267.343
N5730 G1 X278.768 Y267.323
N5735 G1 X266.957 Y256.226
N5740 G3 X266.595 Y255.387 I0.788 J-0.839
N5745 G1 Y254.142
N5750 G2 X264.957 Y251.685 I-2.661 J0
N5755 G3 X263.319 Y249.229 I1.024 J-2.456
N5760 G1 Y248.674
N5765 G3 X263.632 Y248.361 I0.313 J0
N5770 G1 X273.186
N5775 G3 X273.687 Y248.699 I0 J0.541
N5780 G2 X275.456 Y252.78 I85.539 J-34.656
N5785 G3 X277.307 Y256.825 I-514.232 J237.791
N5790 G2 X277.519 Y257.268 I10.941 J-4.956
N5795 G1 X281.267 Y264.717
N5800 G2 X281.5 Y265.156 I10.73 J-5.399
N5805 G1 X285.535 Y272.414
N5810 G2 X285.787 Y272.845 I10.498 J-5.837
N5815 G1 X290.11 Y279.911
N5820 G2 X290.381 Y280.333 I10.246 J-6.269
N5825 G3 X292.77 Y283.954 I-238.47 J159.946
N5830 G2 X295.219 Y287.535 I75.205 J-48.81
N5835 G1 X299.88 Y293.911
N5840 G2 X302.424 Y297.19 I59.221 J-43.3
N5845 G3 X305.031 Y300.42 I-184.516 J151.642
N5850 G2 X307.71 Y303.609 I58.021 J-46.018
N5855 G3 X310.45 Y306.745 I-180.013 J160.056
N5860 G2 X313.263 Y309.842 I56.946 J-48.896
N5865 G3 X316.135 Y312.884 I-175.866 J168.916
N5870 G2 X317.907 Y314.662 I25.815 J-23.957
N5875 G3 X319.712 Y316.405 I-51.676 J55.311
N5880 G3 X319.914 Y316.778 I-0.522 J0.523
N5885 G3 X320.014 Y317.277 I-37.024 J7.692
N5890 G3 X320.09 Y317.781 I-6.131 J1.188
N5895 G3 X319.792 Y318.156 I-0.338 J0.037
N5900 G1 X319.38 Y318.205
N5905 G3 X319.052 Y318.142 I-0.065 J-0.549
N5910 G3 X308.827 Y312.193 I88.43 J-163.76
N5915 G3 X302.58 Y308.063 I89.069 J-141.529
N5920 G3 X301.388 Y307.233 I95.069 J-137.691
N5925 G3 X300.213 Y306.38 I28.453 J-40.454
N5930 G2 X299.03 Y305.539 I-17.981 J24.034
N5935 G3 X297.846 Y304.697 I16.798 J-24.875
N5940 G1 X297.752 Y304.629
N5945 G1 X297.657 Y304.56
N5950 G3 X297.496 Y304.017 I0.298 J-0.384
N5955 G2 X292.857 Y284.996 I-17.047 J-5.919
N5960 G1 X263.665 Y257.626
N5965 G3 X263.319 Y256.827 I0.75 J-0.799
N5970 G1 Y249.229
N5975 G2 X261.952 Y246.962 I-2.563 J0
N5980 G3 X262.589 Y244.392 I0.636 J-1.206
N5985 G1 X275.853
N5990 G3 X276.364 Y244.737 I0 J0.552
N5995 G3 X276.898 Y246.147 I-30.598 J12.397
N6000 G2 X277.461 Y247.546 I16.534 J-5.835
N6005 G1 X280.922 Y255.187
N6010 G2 X281.064 Y255.484 I7.327 J-3.318
N6015 G1 X284.812 Y262.934
N6020 G2 X284.967 Y263.227 I7.185 J-3.615
N6025 G1 X289.003 Y270.485
N6030 G2 X289.172 Y270.774 I7.03 J-3.909
N6035 G1 X293.495 Y277.84
N6040 G2 X293.676 Y278.122 I6.861 J-4.198
N6045 G3 X296.028 Y281.689 I-227.453 J152.556
N6050 G2 X298.439 Y285.216 I73.34 J-47.549
N6055 G1 X303.084 Y291.569
N6060 G2 X305.581 Y294.786 I57.395 J-41.965
N6065 G3 X308.14 Y297.954 I-173.887 J143.113
N6070 G2 X310.77 Y301.083 I56.249 J-44.613
N6075 G3 X313.461 Y304.16 I-169.738 J151.132
N6080 G2 X316.223 Y307.199 I55.231 J-47.424
N6085 G3 X319.044 Y310.185 I-165.964 J159.621
N6090 G2 X320.979 Y312.127 I28.125 J-26.101
N6095 G3 X322.952 Y314.031 I-56.122 J60.091
N6100 G3 X323.675 Y315.369 I-1.874 J1.877
N6105 G3 X324.025 Y317.381 I-30.832 J6.406
N6110 G3 X324.092 Y319.423 I-9.439 J1.33
N6115 G3 X324.006 Y320.175 I-9.681 J-0.725
N6120 G3 X323.666 Y320.85 I-1.21 J-0.186
N6125 G3 X322.866 Y321.382 I-1.689 J-1.673
N6130 G3 X321.959 Y321.699 I-3.836 J-9.511
N6135 G3 X320.574 Y322.023 I-3.386 J-11.358
N6140 G3 X319.167 Y322.227 I-4.662 J-27.215
N6145 G3 X317.77 Y321.96 I-0.278 J-2.34
N6150 G3 X313.312 Y319.502 I136.844 J-253.415
N6155 G3 X306.713 Y315.552 I86.071 J-151.298
N6160 G3 X300.325 Y311.329 I91.079 J-144.722
N6165 G3 X292.674 Y305.715 I93.842 J-135.914
N6170 G3 X292.582 Y305.232 I0.228 J-0.294
N6175 G2 X290.14 Y287.887 I-12.057 J-7.147
N6180 G1 X260.986 Y260.493
N6185 G2 X260.341 Y259.953 I-4.999 J5.32
N6190 G1 X259.697 Y259.475
N6195 G3 X259.35 Y258.787 I0.511 J-0.688
N6200 G1 Y244.712
N6205 G3 X259.67 Y244.392 I0.319 J0
N6210 G1 X262.589
N6215 G2 X266.263 Y241.943 I0 J-3.98
N6220 G3 X269.936 Y239.494 I3.674 J1.531
N6225 G1 X279.525
N6230 G1 X281.915 Y245.391
N6235 G1 X281.964 Y245.506
N6240 G1 X285.425 Y253.148
N6245 G1 X285.479 Y253.262
N6250 G1 X289.228 Y260.712
N6255 G1 X289.288 Y260.825
N6260 G1 X293.323 Y268.083
N6265 G1 X293.388 Y268.194
N6270 G1 X297.712 Y275.26
N6275 G1 X297.781 Y275.369
N6280 G1 X302.392 Y282.243
N6285 G1 X302.464 Y282.346
N6290 G1 X307.074 Y288.651
N6295 G1 X307.148 Y288.748
N6300 G1 X312.013 Y294.882
N6305 G1 X312.09 Y294.975
N6310 G1 X317.211 Y300.94
N6315 G1 X317.291 Y301.029
N6320 G1 X322.667 Y306.822
N6325 G1 X322.749 Y306.907
N6330 G1 X327.818 Y311.968
N6335 G1 X328.353 Y313.806
N6340 G1 X328.822 Y316.065
N6345 G1 X329.042 Y318.063
N6350 G1 X329.033 Y319.793
N6355 G1 X328.821 Y321.256
N6360 G1 X328.436 Y322.471
N6365 G1 X327.896 Y323.483
N6370 G1 X327.194 Y324.345
N6375 G1 X326.223 Y325.152
N6380 G1 X324.966 Y325.857
N6385 G1 X323.374 Y326.446
N6390 G1 X321.429 Y326.891
N6395 G1 X319.13 Y327.164
N6400 G1 X317.209 Y327.224
N6405 G1 X310.867 Y323.799
N6410 G1 X304.08 Y319.737
N6415 G1 X297.515 Y315.398
N6420 G1 X292.529 Y311.804
N6425 G1 X287.678 Y308.038
N6430 G1 X285.446 Y306.173
N6435 G1 X287.156 Y304.353
N6440 G2 X286.755 Y291.49 I-6.632 J-6.231
N6445 G1 X257.601 Y264.096
N6450 G2 X254.087 Y262.043 I-6.232 J6.631
N6455 G1 X254.115 Y261.946
N6460 G2 X254.201 Y261.556 I-2.978 J-0.86
N6465 G1 X254.416 Y260.155
N6470 G2 X254.452 Y259.685 I-3.064 J-0.471
N6475 G1 Y239.494
N6480 G1 X269.936
N6485 G3 X270.227 Y239.718 I0 J0.3
N6490 G1 X273.627 Y252.73
N6495 G3 X268.019 Y253.752 Z-27.313 I-2.804 J0.511 F333.3
N6500 G3 X273.627 Y252.73 Z-27.625 I2.804 J-0.511
N6505 G3 X268.019 Y253.752 Z-27.938 I-2.804 J0.511
N6510 G3 X273.627 Y252.73 Z-28.251 I2.804 J-0.511
N6515 G3 X268.871 Y255.318 Z-28.5 I-2.804 J0.511
N6520 G1 X268.804 Y255.255 F420
N6525 G3 X268.567 Y254.705 I0.517 J-0.55
N6530 G1 Y253.928
N6535 G3 X268.886 Y253.609 I0.319 J0
N6540 G1 X269.758
N6545 G3 X270.296 Y253.955 I0 J0.59
N6550 G1 X272.19 Y258.138
N6555 G1 X272.2 Y258.176
N6560 G1 X272.196 Y258.214
N6565 G1 X272.18 Y258.249
N6570 G1 X272.153 Y258.277
N6575 G1 X272.118 Y258.293
N6580 G1 X272.08 Y258.297
N6585 G1 X272.042 Y258.288
N6590 G1 X272.01 Y258.267
N6595 G1 X268.871 Y255.318
N6600 G2 X267.611 Y254.965 I-0.967 J1.029
N6605 G3 X266.595 Y254.142 I-0.175 J-0.824
N6610 G1 Y251.956
N6615 G3 X266.914 Y251.637 I0.319 J0
N6620 G1 X271.03
N6625 G3 X271.567 Y251.983 I0 J0.59
N6630 G3 X273.045 Y255.377 I-115.682 J52.395
N6635 G2 X274.592 Y258.74 I48.768 J-20.397
N6640 G3 X276.585 Y262.758 I-350.33 J176.274
N6645 G2 X278.661 Y266.734 I76.4 J-37.353
N6650 G2 X278.798 Y266.963 I3.734 J-2.077
N6655 G3 X278.935 Y267.192 I-3.597 J2.306
N6660 G1 X278.947 Y267.228
N6665 G1 X278.946 Y267.266
N6670 G1 X278.932 Y267.301
N6675 G1 X278.907 Y267.329
N6680 G1 X278.874 Y267.347
N6685 G1 X278.836 Y267.352
N6690 G1 X278.799 Y267.343
N6695 G1 X278.768 Y267.323
N6700 G1 X266.957 Y256.226
N6705 G3 X266.595 Y255.387 I0.788 J-0.839
N6710 G1 Y254.142
N6715 G1 X266.602 Y254.049 Z-28.485 F1000
N6720 G1 X266.623 Y253.959 Z-28.471
N6725 G1 X266.654 Y253.881 Z-28.428
N6730 G1 X266.695 Y253.809 Z-28.385
N6735 G1 X266.735 Y253.756 Z-28.319
N6740 G1 X266.78 Y253.707 Z-28.253
N6745 G1 X266.846 Y253.653 Z-28.085
N6750 G1 X266.87 Y253.637 Z-27.9
N6755 G0 Z5
N6760 G0 X297.404 Y304.661
N6765 G0 Z-17
N6770 G1 Z-23.9 F1000
N6775 G1 X297.398 Y304.633 Z-24.082 F333.3
N6780 G1 X297.384 Y304.553 Z-24.246
N6785 G1 X297.366 Y304.426 Z-24.378
N6790 G1 X297.352 Y304.266 Z-24.466
N6795 G1 X297.347 Y304.085 Z-24.5
N6800 G3 X297.46 Y303.304 Z-24.528 I2.85 J0.011
N6805 G3 X302.935 Y304.889 Z-24.84 I2.738 J0.792
N6810 G3 X297.46 Y303.304 Z-25.153 I-2.738 J-0.792
N6815 G3 X302.935 Y304.889 Z-25.466 I2.738 J0.792
N6820 G3 X297.46 Y303.304 Z-25.778 I-2.738 J-0.792
N6825 G3 X302.935 Y304.889 Z-26.091 I2.738 J0.792
N6830 G3 X297.46 Y303.304 Z-26.404 I-2.738 J-0.792
N6835 G3 X302.935 Y304.889 Z-26.716 I2.738 J0.792
N6840 G3 X297.46 Y303.304 Z-27.029 I-2.738 J-0.792
N6845 G3 X302.935 Y304.889 Z-27.342 I2.738 J0.792
N6850 G3 X297.46 Y303.304 Z-27.654 I-2.738 J-0.792
N6855 G3 X302.935 Y304.889 Z-27.967 I2.738 J0.792
N6860 G3 X297.46 Y303.304 Z-28.28 I-2.738 J-0.792
N6865 G3 X302.474 Y302.382 Z-28.5 I2.738 J0.792
N6870 G2 X302.879 Y302.885 I8.065 J-6.074 F420
N6875 G2 X304.248 Y304.445 I72.675 J-62.402
N6880 G3 X305.618 Y306.006 I-71.306 J63.963
N6885 G1 X305.637 Y306.038
N6890 G1 X305.643 Y306.075
N6895 G1 X305.636 Y306.112
N6900 G1 X305.617 Y306.144
N6905 G1 X305.587 Y306.167
N6910 G1 X305.552 Y306.179
N6915 G1 X305.514 Y306.177
N6920 G1 X305.48 Y306.162
N6925 G3 X303.33 Y304.678 I35.695 J-53.998
N6930 G1 X301.434 Y303.311
N6935 G3 X301.213 Y302.731 I0.33 J-0.457
N6940 G2 X301.457 Y301.453 I-19.746 J-4.43
N6945 G3 X301.729 Y301.382 I0.151 J0.024
N6950 G3 X302.296 Y302.139 I-13.529 J10.73
N6955 G2 X302.474 Y302.382 I8.242 J-5.831
N6960 G2 X305.307 Y303.313 I2.086 J-1.571
N6965 G3 X308.174 Y304.132 I0.793 J2.653
N6970 G3 X310.45 Y306.745 I-180.477 J159.533
N6975 G2 X313.263 Y309.842 I56.946 J-48.896
N6980 G3 X316.135 Y312.884 I-175.866 J168.916
N6985 G2 X317.907 Y314.662 I25.815 J-23.957
N6990 G3 X319.712 Y316.405 I-51.676 J55.311
N6995 G3 X319.914 Y316.778 I-0.522 J0.523
N7000 G3 X320.014 Y317.277 I-37.024 J7.692
N7005 G3 X320.09 Y317.781 I-6.131 J1.188
N7010 G3 X319.792 Y318.156 I-0.338 J0.037
N7015 G1 X319.38 Y318.205
N7020 G3 X319.052 Y318.142 I-0.065 J-0.549
N7025 G3 X308.827 Y312.193 I88.43 J-163.76
N7030 G3 X302.58 Y308.063 I89.069 J-141.529
N7035 G3 X301.388 Y307.233 I95.069 J-137.691
N7040 G3 X300.213 Y306.38 I28.453 J-40.454
N7045 G2 X299.03 Y305.539 I-17.981 J24.034
N7050 G3 X297.846 Y304.697 I16.798 J-24.875
N7055 G1 X297.752 Y304.629
N7060 G1 X297.657 Y304.56
N7065 G3 X297.496 Y304.017 I0.298 J-0.384
N7070 G2 X292.857 Y284.996 I-17.047 J-5.919
N7075 G1 X263.665 Y257.626
N7080 G3 X263.319 Y256.827 I0.75 J-0.799
N7085 G1 Y248.674
N7090 G3 X263.632 Y248.361 I0.313 J0
N7095 G1 X273.186
N7100 G3 X273.687 Y248.699 I0 J0.541
N7105 G2 X275.456 Y252.78 I85.539 J-34.656
N7110 G3 X277.307 Y256.825 I-514.232 J237.791
N7115 G2 X277.519 Y257.268 I10.941 J-4.956
N7120 G1 X281.267 Y264.717
N7125 G2 X281.5 Y265.156 I10.73 J-5.399
N7130 G1 X285.535 Y272.414
N7135 G2 X285.787 Y272.845 I10.498 J-5.837
N7140 G1 X290.11 Y279.911
N7145 G2 X290.381 Y280.333 I10.246 J-6.269
N7150 G3 X292.77 Y283.954 I-238.47 J159.946
N7155 G2 X295.219 Y287.535 I75.205 J-48.81
N7160 G1 X299.88 Y293.911
N7165 G2 X302.424 Y297.19 I59.221 J-43.3
N7170 G3 X305.031 Y300.42 I-184.516 J151.642
N7175 G2 X307.71 Y303.609 I58.021 J-46.018
N7180 G3 X308.174 Y304.132 I-180.013 J160.056
N7185 G2 X311.619 Y305.07 I2.436 J-2.153
N7190 G3 X315.072 Y305.974 I1.024 J3.136
N7195 G2 X316.223 Y307.199 I53.62 J-49.238
N7200 G3 X319.044 Y310.185 I-165.964 J159.621
N7205 G2 X320.979 Y312.127 I28.125 J-26.101
N7210 G3 X322.952 Y314.031 I-56.122 J60.091
N7215 G3 X323.675 Y315.369 I-1.874 J1.877
N7220 G3 X324.025 Y317.381 I-30.832 J6.406
N7225 G3 X324.092 Y319.423 I-9.439 J1.33
N7230 G3 X324.006 Y320.175 I-9.681 J-0.725
N7235 G3 X323.666 Y320.85 I-1.21 J-0.186
N7240 G3 X322.866 Y321.382 I-1.689 J-1.673
N7245 G3 X321.959 Y321.699 I-3.836 J-9.511
N7250 G3 X320.574 Y322.023 I-3.386 J-11.358
N7255 G3 X319.167 Y322.227 I-4.662 J-27.215
N7260 G3 X317.77 Y321.96 I-0.278 J-2.34
N7265 G3 X313.312 Y319.502 I136.844 J-253.415
N7270 G3 X306.713 Y315.552 I86.071 J-151.298
N7275 G3 X300.325 Y311.329 I91.079 J-144.722
N7280 G3 X292.674 Y305.715 I93.842 J-135.914
N7285 G3 X292.582 Y305.232 I0.228 J-0.294
N7290 G2 X290.14 Y287.887 I-12.057 J-7.147
N7295 G1 X260.986 Y260.493
N7300 G2 X260.341 Y259.953 I-4.999 J5.32
N7305 G1 X259.697 Y259.475
N7310 G3 X259.35 Y258.787 I0.511 J-0.688
N7315 G1 Y244.712
N7320 G3 X259.67 Y244.392 I0.319 J0
N7325 G1 X275.853
N7330 G3 X276.364 Y244.737 I0 J0.552
N7335 G3 X276.898 Y246.147 I-30.598 J12.397
N7340 G2 X277.461 Y247.546 I16.534 J-5.835
N7345 G1 X280.922 Y255.187
N7350 G2 X281.064 Y255.484 I7.327 J-3.318
N7355 G1 X284.812 Y262.934
N7360 G2 X284.967 Y263.227 I7.185 J-3.615
N7365 G1 X289.003 Y270.485
N7370 G2 X289.172 Y270.774 I7.03 J-3.909
N7375 G1 X293.495 Y277.84
N7380 G2 X293.676 Y278.122 I6.861 J-4.198
N7385 G3 X296.028 Y281.689 I-227.453 J152.556
N7390 G2 X298.439 Y285.216 I73.34 J-47.549
N7395 G1 X303.084 Y291.569
N7400 G2 X305.581 Y294.786 I57.395 J-41.965
N7405 G3 X308.14 Y297.954 I-173.887 J143.113
N7410 G2 X310.77 Y301.083 I56.249 J-44.613
N7415 G3 X313.461 Y304.16 I-169.738 J151.132
N7420 G2 X315.072 Y305.974 I55.231 J-47.424
N7425 G2 X319.468 Y307.056 I3.011 J-2.765
N7430 G3 X323.886 Y308.042 I1.431 J3.977
N7435 G1 X327.818 Y311.968
N7440 G1 X328.353 Y313.806
N7445 G1 X328.822 Y316.065
N7450 G1 X329.042 Y318.063
N7455 G1 X329.033 Y319.793
N7460 G1 X328.821 Y321.256
N7465 G1 X328.436 Y322.471
N7470 G1 X327.896 Y323.483
N7475 G1 X327.194 Y324.345
N7480 G1 X326.223 Y325.152
N7485 G1 X324.966 Y325.857
N7490 G1 X323.374 Y326.446
N7495 G1 X321.429 Y326.891
N7500 G1 X319.13 Y327.164
N7505 G1 X317.209 Y327.224
N7510 G1 X310.867 Y323.799
N7515 G1 X304.08 Y319.737
N7520 G1 X297.515 Y315.398
N7525 G1 X292.529 Y311.804
N7530 G1 X287.678 Y308.038
N7535 G1 X285.446 Y306.173
N7540 G1 X287.156 Y304.353
N7545 G2 X286.755 Y291.49 I-6.632 J-6.231
N7550 G1 X257.601 Y264.096
N7555 G2 X254.087 Y262.043 I-6.232 J6.631
N7560 G1 X254.115 Y261.946
N7565 G2 X254.201 Y261.556 I-2.978 J-0.86
N7570 G1 X254.416 Y260.155
N7575 G2 X254.452 Y259.685 I-3.064 J-0.471
N7580 G1 Y239.494
N7585 G1 X279.525
N7590 G1 X281.915 Y245.391
N7595 G1 X281.964 Y245.506
N7600 G1 X285.425 Y253.148
N7605 G1 X285.479 Y253.262
N7610 G1 X289.228 Y260.712
N7615 G1 X289.288 Y260.825
N7620 G1 X293.323 Y268.083
N7625 G1 X293.388 Y268.194
N7630 G1 X297.712 Y275.26
N7635 G1 X297.781 Y275.369
N7640 G1 X302.392 Y282.243
N7645 G1 X302.464 Y282.346
N7650 G1 X307.074 Y288.651
N7655 G1 X307.148 Y288.748
N7660 G1 X312.013 Y294.882
N7665 G1 X312.09 Y294.975
N7670 G1 X317.211 Y300.94
N7675 G1 X317.291 Y301.029
N7680 G1 X322.667 Y306.822
N7685 G1 X322.749 Y306.907
N7690 G1 X323.886 Y308.042
N7695 G3 X323.73 Y308.549 I-0.212 J0.212
N7700 G1 X316.841 Y309.859
N7705 G1 X316.794 Y309.864
N7710 G1 X316.746 Y309.862
N7715 G1 X316.699 Y309.852
N7720 G1 X298.018 Y304.219
N7725 G1 X297.467 Y304.236
N7730 G1 X297.43 Y304.232
N7735 G1 X297.397 Y304.216
N7740 G1 X297.371 Y304.191
N7745 G1 X297.354 Y304.159
N7750 G1 X297.347 Y304.123
N7755 G3 X303.047 Y304.07 Z-28.813 I2.85 J-0.026 F333.3
N7760 G3 X297.347 Y304.123 Z-29.125 I-2.85 J0.026
N7765 G3 X303.047 Y304.07 Z-29.438 I2.85 J-0.026
N7770 G3 X297.347 Y304.123 Z-29.751 I-2.85 J0.026
N7775 G3 X302.474 Y302.382 Z-30 I2.85 J-0.026
N7780 G2 X302.879 Y302.885 I8.065 J-6.074 F420
N7785 G2 X304.248 Y304.445 I72.675 J-62.402
N7790 G3 X305.618 Y306.006 I-71.306 J63.963
N7795 G1 X305.637 Y306.038
N7800 G1 X305.643 Y306.075
N7805 G1 X305.636 Y306.112
N7810 G1 X305.617 Y306.144
N7815 G1 X305.587 Y306.167
N7820 G1 X305.552 Y306.179
N7825 G1 X305.514 Y306.177
N7830 G1 X305.48 Y306.162
N7835 G3 X303.33 Y304.678 I35.695 J-53.998
N7840 G1 X301.434 Y303.311
N7845 G3 X301.213 Y302.731 I0.33 J-0.457
N7850 G2 X301.457 Y301.453 I-19.746 J-4.43
N7855 G3 X301.729 Y301.382 I0.151 J0.024
N7860 G3 X302.296 Y302.139 I-13.529 J10.73
N7865 G2 X302.474 Y302.382 I8.242 J-5.831
N7870 G1 X302.587 Y302.529 Z-29.971 F1000
N7875 G1 X302.691 Y302.66 Z-29.885
N7880 G1 X302.775 Y302.763 Z-29.753
N7885 G1 X302.83 Y302.828 Z-29.585
N7890 G1 X302.849 Y302.85 Z-29.4
N7895 G0 Z5
N7900 G0 X273.48 Y252.21
N7905 G0 Z-17
N7910 G1 Z-25.4 F1000
N7915 G1 X273.49 Y252.236 Z-25.582 F333.3
N7920 G1 X273.517 Y252.313 Z-25.746
N7925 G1 X273.556 Y252.434 Z-25.878
N7930 G1 X273.598 Y252.59 Z-25.966
N7935 G1 X273.633 Y252.767 Z-26
N7940 G3 X268.013 Y253.715 Z-26.313 I-2.81 J0.474
N7945 G3 X273.633 Y252.767 Z-26.625 I2.81 J-0.474
N7950 G3 X268.013 Y253.715 Z-26.938 I-2.81 J0.474
N7955 G3 X273.633 Y252.767 Z-27.251 I2.81 J-0.474
N7960 G3 X268.013 Y253.715 Z-27.563 I-2.81 J0.474
N7965 G3 X273.633 Y252.767 Z-27.876 I2.81 J-0.474
N7970 G3 X268.013 Y253.715 Z-28.189 I-2.81 J0.474
N7975 G3 X273.633 Y252.767 Z-28.501 I2.81 J-0.474
N7980 G3 X268.013 Y253.715 Z-28.814 I-2.81 J0.474
N7985 G3 X273.633 Y252.767 Z-29.127 I2.81 J-0.474
N7990 G3 X268.013 Y253.715 Z-29.439 I-2.81 J0.474
N7995 G3 X273.633 Y252.767 Z-29.752 I2.81 J-0.474
N8000 G3 X268.871 Y255.318 Z-30 I-2.81 J0.474
N8005 G1 X268.804 Y255.255 F420
N8010 G3 X268.567 Y254.705 I0.517 J-0.55
N8015 G1 Y253.928
N8020 G3 X268.886 Y253.609 I0.319 J0
N8025 G1 X269.758
N8030 G3 X270.296 Y253.955 I0 J0.59
N8035 G1 X272.19 Y258.138
N8040 G1 X272.2 Y258.176
N8045 G1 X272.196 Y258.214
N8050 G1 X272.18 Y258.249
N8055 G1 X272.153 Y258.277
N8060 G1 X272.118 Y258.293
N8065 G1 X272.08 Y258.297
N8070 G1 X272.042 Y258.288
N8075 G1 X272.01 Y258.267
N8080 G1 X268.871 Y255.318
N8085 G2 X267.611 Y254.965 I-0.967 J1.029
N8090 G3 X266.595 Y254.142 I-0.175 J-0.824
N8095 G1 Y251.956
N8100 G3 X266.914 Y251.637 I0.319 J0
N8105 G1 X271.03
N8110 G3 X271.567 Y251.983 I0 J0.59
N8115 G3 X273.045 Y255.377 I-115.682 J52.395
N8120 G2 X274.592 Y258.74 I48.768 J-20.397
N8125 G3 X276.585 Y262.758 I-350.33 J176.274
N8130 G2 X278.661 Y266.734 I76.4 J-37.353
N8135 G2 X278.798 Y266.963 I3.734 J-2.077
N8140 G3 X278.935 Y267.192 I-3.597 J2.306
N8145 G1 X278.947 Y267.228
N8150 G1 X278.946 Y267.266
N8155 G1 X278.932 Y267.301
N8160 G1 X278.907 Y267.329
N8165 G1 X278.874 Y267.347
N8170 G1 X278.836 Y267.352
N8175 G1 X278.799 Y267.343
N8180 G1 X278.768 Y267.323
N8185 G1 X266.957 Y256.226
N8190 G3 X266.595 Y255.387 I0.788 J-0.839
N8195 G1 Y254.142
N8200 G2 X264.957 Y251.685 I-2.661 J0
N8205 G3 X263.319 Y249.229 I1.024 J-2.456
N8210 G1 Y248.674
N8215 G3 X263.632 Y248.361 I0.313 J0
N8220 G1 X273.186
N8225 G3 X273.687 Y248.699 I0 J0.541
N8230 G2 X275.456 Y252.78 I85.539 J-34.656
N8235 G3 X277.307 Y256.825 I-514.232 J237.791
N8240 G2 X277.519 Y257.268 I10.941 J-4.956
N8245 G1 X281.267 Y264.717
N8250 G2 X281.5 Y265.156 I10.73 J-5.399
N8255 G1 X285.535 Y272.414
N8260 G2 X285.787 Y272.845 I10.498 J-5.837
N8265 G1 X290.11 Y279.911
N8270 G2 X290.381 Y280.333 I10.246 J-6.269
N8275 G3 X292.77 Y283.954 I-238.47 J159.946
N8280 G2 X295.219 Y287.535 I75.205 J-48.81
N8285 G1 X299.88 Y293.911
N8290 G2 X302.424 Y297.19 I59.221 J-43.3
N8295 G3 X305.031 Y300.42 I-184.516 J151.642
N8300 G2 X307.71 Y303.609 I58.021 J-46.018
N8305 G3 X310.45 Y306.745 I-180.013 J160.056
N8310 G2 X313.263 Y309.842 I56.946 J-48.896
N8315 G3 X316.135 Y312.884 I-175.866 J168.916
N8320 G2 X317.907 Y314.662 I25.815 J-23.957
N8325 G3 X319.712 Y316.405 I-51.676 J55.311
N8330 G3 X319.914 Y316.778 I-0.522 J0.523
N8335 G3 X320.014 Y317.277 I-37.024 J7.692
N8340 G3 X320.09 Y317.781 I-6.131 J1.188
N8345 G3 X319.792 Y318.156 I-0.338 J0.037
N8350 G1 X319.38 Y318.205
N8355 G3 X319.052 Y318.142 I-0.065 J-0.549
N8360 G3 X308.827 Y312.193 I88.43 J-163.76
N8365 G3 X302.58 Y308.063 I89.069 J-141.529
N8370 G3 X301.388 Y307.233 I95.069 J-137.691
N8375 G3 X300.213 Y306.38 I28.453 J-40.454
N8380 G2 X299.03 Y305.539 I-17.981 J24.034
N8385 G3 X297.846 Y304.697 I16.798 J-24.875
N8390 G1 X297.752 Y304.629
N8395 G1 X297.657 Y304.56
N8400 G3 X297.496 Y304.017 I0.298 J-0.384
N8405 G2 X292.857 Y284.996 I-17.047 J-5.919
N8410 G1 X263.665 Y257.626
N8415 G3 X263.319 Y256.827 I0.75 J-0.799
N8420 G1 Y249.229
N8425 G2 X261.952 Y246.962 I-2.563 J0
N8430 G3 X262.589 Y244.392 I0.636 J-1.206
N8435 G1 X275.853
N8440 G3 X276.364 Y244.737 I0 J0.552
N8445 G3 X276.898 Y246.147 I-30.598 J12.397
N8450 G2 X277.461 Y247.546 I16.534 J-5.835
N8455 G1 X280.922 Y255.187
N8460 G2 X281.064 Y255.484 I7.327 J-3.318
N8465 G1 X284.812 Y262.934
N8470 G2 X284.967 Y263.227 I7.185 J-3.615
N8475 G1 X289.003 Y270.485
N8480 G2 X289.172 Y270.774 I7.03 J-3.909
N8485 G1 X293.495 Y277.84
N8490 G2 X293.676 Y278.122 I6.861 J-4.198
N8495 G3 X296.028 Y281.689 I-227.453 J152.556
N8500 G2 X298.439 Y285.216 I73.34 J-47.549
N8505 G1 X303.084 Y291.569
N8510 G2 X305.581 Y294.786 I57.395 J-41.965
N8515 G3 X308.14 Y297.954 I-173.887 J143.113
N8520 G2 X310.77 Y301.083 I56.249 J-44.613
N8525 G3 X313.461 Y304.16 I-169.738 J151.132
N8530 G2 X316.223 Y307.199 I55.231 J-47.424
N8535 G3 X319.044 Y310.185 I-165.964 J159.621
N8540 G2 X320.979 Y312.127 I28.125 J-26.101
N8545 G3 X322.952 Y314.031 I-56.122 J60.091
N8550 G3 X323.675 Y315.369 I-1.874 J1.877
N8555 G3 X324.025 Y317.381 I-30.832 J6.406
N8560 G3 X324.092 Y319.423 I-9.439 J1.33
N8565 G3 X324.006 Y320.175 I-9.681 J-0.725
N8570 G3 X323.666 Y320.85 I-1.21 J-0.186
N8575 G3 X322.866 Y321.382 I-1.689 J-1.673
N8580 G3 X321.959 Y321.699 I-3.836 J-9.511
N8585 G3 X320.574 Y322.023 I-3.386 J-11.358
N8590 G3 X319.167 Y322.227 I-4.662 J-27.215
N8595 G3 X317.77 Y321.96 I-0.278 J-2.34
N8600 G3 X313.312 Y319.502 I136.844 J-253.415
N8605 G3 X306.713 Y315.552 I86.071 J-151.298
N8610 G3 X300.325 Y311.329 I91.079 J-144.722
N8615 G3 X292.674 Y305.715 I93.842 J-135.914
N8620 G3 X292.582 Y305.232 I0.228 J-0.294
N8625 G2 X290.14 Y287.887 I-12.057 J-7.147
N8630 G1 X260.986 Y260.493
N8635 G2 X260.341 Y259.953 I-4.999 J5.32
N8640 G1 X259.697 Y259.475
N8645 G3 X259.35 Y258.787 I0.511 J-0.688
N8650 G1 Y244.712
N8655 G3 X259.67 Y244.392 I0.319 J0
N8660 G1 X262.589
N8665 G2 X266.263 Y241.943 I0 J-3.98
N8670 G3 X269.936 Y239.494 I3.674 J1.531
N8675 G1 X279.525
N8680 G1 X281.915 Y245.391
N8685 G1 X281.964 Y245.506
N8690 G1 X285.425 Y253.148
N8695 G1 X285.479 Y253.262
N8700 G1 X289.228 Y260.712
N8705 G1 X289.288 Y260.825
N8710 G1 X293.323 Y268.083
N8715 G1 X293.388 Y268.194
N8720 G1 X297.712 Y275.26
N8725 G1 X297.781 Y275.369
N8730 G1 X302.392 Y282.243
N8735 G1 X302.464 Y282.346
N8740 G1 X307.074 Y288.651
N8745 G1 X307.148 Y288.748
N8750 G1 X312.013 Y294.882
N8755 G1 X312.09 Y294.975
N8760 G1 X317.211 Y300.94
N8765 G1 X317.291 Y301.029
N8770 G1 X322.667 Y306.822
N8775 G1 X322.749 Y306.907
N8780 G1 X327.818 Y311.968
N8785 G1 X328.353 Y313.806
N8790 G1 X328.822 Y316.065
N8795 G1 X329.042 Y318.063
N8800 G1 X329.033 Y319.793
N8805 G1 X328.821 Y321.256
N8810 G1 X328.436 Y322.471
N8815 G1 X327.896 Y323.483
N8820 G1 X327.194 Y324.345
N8825 G1 X326.223 Y325.152
N8830 G1 X324.966 Y325.857
N8835 G1 X323.374 Y326.446
N8840 G1 X321.429 Y326.891
N8845 G1 X319.13 Y327.164
N8850 G1 X317.209 Y327.224
N8855 G1 X310.867 Y323.799
N8860 G1 X304.08 Y319.737
N8865 G1 X297.515 Y315.398
N8870 G1 X292.529 Y311.804
N8875 G1 X287.678 Y308.038
N8880 G1 X285.446 Y306.173
N8885 G1 X287.156 Y304.353
N8890 G2 X286.755 Y291.49 I-6.632 J-6.231
N8895 G1 X257.601 Y264.096
N8900 G2 X254.087 Y262.043 I-6.232 J6.631
N8905 G1 X254.115 Y261.946
N8910 G2 X254.201 Y261.556 I-2.978 J-0.86
N8915 G1 X254.416 Y260.155
N8920 G2 X254.452 Y259.685 I-3.064 J-0.471
N8925 G1 Y239.494
N8930 G1 X269.936
N8935 G1 X270.029 Y239.501 Z-29.985 F1000
N8940 G1 X270.119 Y239.522 Z-29.971
N8945 G1 X270.196 Y239.553 Z-29.928
N8950 G1 X270.269 Y239.595 Z-29.885
N8955 G1 X270.322 Y239.635 Z-29.819
N8960 G1 X270.371 Y239.68 Z-29.753
N8965 G1 X270.425 Y239.746 Z-29.585
N8970 G1 X270.441 Y239.77 Z-29.4
N8975 G0 Z15
N8980 G28 G91 Z0
N8985 G90
N8990 G28 G91 X0 Y0
N8995 G90
N9000 M30
%
