%
(SlopePocket)
(SlopePocket)
(T1 D=6 CR=0 - ZMIN=-15.9 - flat end mill)
N10 G90 G94
N15 G17
N20 G21
N25 G28 G91 Z0
N30 G90

(Pocket2)
N35 T1 M6
N40 S14000 M3
N45 G54
N50 G0 X366.683 Y117.132
N55 G0 G43 Z15 H1
N60 G0 Z0.7
N65 G1 X366.675 Y117.115 Z0.548 F333.3
N70 G1 X366.651 Y117.063 Z0.406
N75 G1 X366.615 Y116.978 Z0.283
N80 G1 X366.571 Y116.867 Z0.187
N85 G1 X366.527 Y116.734 Z0.125
N90 G1 X366.487 Y116.589 Z0.1
N95 G3 X372.016 Y115.206 Z-0.213 I2.765 J-0.691
N100 G3 X366.487 Y116.589 Z-0.525 I-2.765 J0.691
N105 G3 X372.016 Y115.206 Z-0.838 I2.765 J-0.691
N110 G3 X366.487 Y116.589 Z-1.151 I-2.765 J0.691
N115 G3 X372.016 Y115.206 Z-1.463 I2.765 J-0.691
N120 G3 X366.487 Y116.589 Z-1.776 I-2.765 J0.691
N125 G3 X372.016 Y115.206 Z-2.089 I2.765 J-0.691
N130 G3 X366.487 Y116.589 Z-2.401 I-2.765 J0.691
N135 G3 X372.016 Y115.206 Z-2.714 I2.765 J-0.691
N140 G3 X366.487 Y116.589 Z-3.027 I-2.765 J0.691
N145 G3 X372.016 Y115.206 Z-3.339 I2.765 J-0.691
N150 G3 X366.487 Y116.589 Z-3.652 I-2.765 J0.691
N155 G3 X371.035 Y113.675 Z-3.9 I2.765 J-0.691
N160 G3 X372.794 Y115.223 I-16.125 J20.09 F420
N165 G3 X378.572 Y121.251 I-73.836 J76.555
N170 G3 X377.798 Y122.043 I-0.415 J0.368
N175 G1 X365.286 Y111.467
N180 G3 X365.923 Y110.477 I0.383 J-0.453
N185 G3 X371.035 Y113.675 I-11.013 J23.288
N190 G2 X373.137 Y113.872 I1.2 J-1.495
N195 G3 X375.225 Y114.182 I0.834 J1.566
N200 G3 X375.721 Y114.69 I-20.548 J20.575
N205 G3 X382.566 Y122.295 I-128.278 J122.323
N210 G3 X385.957 Y127.186 I-23.283 J19.767
N215 G3 X388.379 Y132.623 I-29.003 J16.175
N220 G3 X387.243 Y133.398 I-0.675 J0.231
N225 G1 X353.888 Y105.202
N230 G3 X354.463 Y103.969 I0.455 J-0.538
N235 G3 X361.132 Y105.844 I-5.803 J33.432
N240 G3 X367.468 Y108.643 I-32.196 J81.465
N245 G3 X375.225 Y114.182 I-12.791 J26.114
N250 G2 X377.836 Y114.666 I1.658 J-1.66
N255 G3 X380.442 Y115.176 I0.939 J2.114
N260 G3 X382.161 Y117.028 I-49.707 J47.856
N265 G3 X386.477 Y122.286 I-59.819 J53.512
N270 G3 X389.841 Y128.199 I-21.332 J16.049
N275 G3 X391.794 Y133.423 I-81.277 J33.361
N280 G3 X393.372 Y138.773 I-67.533 J22.83
N285 G2 X393.766 Y140.169 I25.829 J-6.533
N290 G3 X394.139 Y141.571 I-16.407 J5.115
N295 G3 X392.894 Y142.323 I-0.75 J0.166
N300 G1 X344.421 Y101.349
N305 G3 X344.955 Y99.945 I0.514 J-0.608
N310 G3 X355.466 Y101.161 I-1.473 J58.782
N315 G3 X365.568 Y104.307 I-11.172 J53.665
N320 G3 X374.57 Y109.746 I-14.134 J33.564
N325 G3 X380.442 Y115.176 I-43.836 J53.286
N330 G2 X383.393 Y115.877 I2.021 J-1.946
N335 G3 X386.32 Y116.675 I0.886 J2.518
N340 G3 X388.363 Y119.158 I-106.245 J89.484
N345 G3 X392.835 Y126.798 I-23.52 J18.896
N350 G3 X395.662 Y135.188 I-71.634 J28.805
N355 G1 X399.237 Y150.163
N360 G3 X397.941 Y150.905 I-0.783 J0.135
N365 G1 X335.802 Y98.38
N370 G3 X336.282 Y96.892 I0.545 J-0.645
N375 G3 X354.189 Y97.673 I5.746 J73.951
N380 G3 X371.209 Y103.291 I-9.57 J57.582
N385 G3 X380.624 Y110.319 I-15.985 J31.238
N390 G3 X386.32 Y116.675 I-100.548 J95.841
N395 G2 X389.119 Y117.505 I2.029 J-1.709
N400 G3 X391.874 Y118.467 I0.718 J2.369
N405 G3 X398.399 Y132.4 I-38.269 J26.416
N410 G3 X402.869 Y152.577 I-185.122 J51.593
N415 G2 X403.44 Y155.566 I60.512 J-10.027
N420 G3 X403.986 Y158.559 I-44.431 J9.648
N425 G3 X402.664 Y159.295 I-0.8 J0.118
N430 G1 X327.595 Y95.84
N435 G3 X328.052 Y94.302 I0.566 J-0.669
N440 G3 X349.461 Y93.764 I13.408 J107.387
N445 G3 X370.207 Y99.072 I-4.509 J60.819
N450 G3 X380.192 Y105.671 I-15.848 J34.833
N455 G3 X388.566 Y114.223 I-73.603 J80.446
N460 G3 X391.874 Y118.467 I-34.96 J30.661
N465 G2 X394.78 Y119.672 I2.385 J-1.647
N470 G3 X397.603 Y121.06 I0.475 J2.599
N475 G3 X398.974 Y123.972 I-39.318 J20.284
N480 G3 X404.244 Y141.171 I-78.058 J33.328
N485 G3 X407.224 Y158.912 I-356.571 J69.016
N490 G2 X407.895 Y162.863 I74.675 J-10.649
N495 G3 X408.517 Y166.823 I-50.283 J9.921
N500 G3 X407.161 Y167.551 I-0.822 J0.096
N505 G1 X319.665 Y93.591
N510 G3 X320.101 Y92.007 I0.584 J-0.691
N515 G3 X344.143 Y89.936 I25.071 J150.412
N520 G3 X367.86 Y94.385 I0.426 J63.171
N525 G3 X375.594 Y98.042 I-24.576 J61.962
N530 G3 X382.561 Y103.007 I-18.369 J33.147
N535 G3 X391.912 Y112.594 I-68.318 J75.994
N540 G3 X397.603 Y121.06 I-33.627 J28.751
N545 G2 X400.172 Y122.497 I2.37 J-1.222
N550 G3 X402.68 Y124.038 I0.188 J2.505
N555 G3 X404.59 Y129.464 I-48.088 J19.98
N560 G3 X409.596 Y151.462 I-182.049 J52.993
N565 G1 X411.679 Y166.083
N570 G3 X412.113 Y170.28 I-114.372 J13.956
N575 G3 X412.292 Y174.495 I-49.603 J4.216
N580 G3 X410.8 Y175.188 I-0.907 J0
N585 G1 X311.844 Y91.541
N590 G3 X312.259 Y89.914 I0.602 J-0.713
N595 G3 X345.75 Y86.57 I32.886 J159.993
N600 G3 X378.217 Y95.443 I-0.24 J64.719
N605 G3 X386.552 Y101.938 I-20.258 J34.591
N610 G3 X393.742 Y109.683 I-133.109 J130.789
N615 G3 X402.68 Y124.038 I-39.15 J34.335
N620 G2 X405.293 Y125.819 I2.67 J-1.11
N625 G3 X407.838 Y127.697 I-0.054 J2.737
N630 G3 X408.679 Y130.399 I-74.938 J24.795
N635 G1 X412.588 Y147.716
N640 G3 X415.025 Y164.891 I-232.921 J41.802
N645 G3 X415.877 Y182.218 I-156.635 J16.389
N650 G3 X414.378 Y182.908 I-0.911 J-0.005
N655 G1 X304.041 Y89.641
N660 G3 X304.431 Y87.966 I0.624 J-0.738
N665 G1 X328.04 Y84.009
N670 G3 X352.677 Y83.753 I13.561 J119.491
N675 G3 X376.396 Y90.416 I-6.281 J67.911
N680 G3 X388.184 Y98.671 I-20.443 J41.735
N685 G3 X398.037 Y109.16 I-99.347 J103.199
N690 G3 X404.478 Y119.218 I-33.98 J28.848
N695 G3 X407.838 Y127.697 I-71.577 J33.274
N700 G2 X410.44 Y129.74 I2.842 J-0.94
N705 G3 X412.987 Y131.851 I-0.231 J2.872
N710 G3 X414.511 Y138.301 I-90.562 J24.805
N715 G3 X417.775 Y157.407 I-345.127 J68.79
N720 G2 X418.613 Y163.043 I472.416 J-67.371
N725 G3 X419.216 Y168.709 I-59.106 J9.15
N730 G1 X419.376 Y189.873
N735 G3 X417.861 Y190.559 I-0.92 J-0.017
N740 G1 X296.522 Y87.992
N745 G3 X296.882 Y86.258 I0.65 J-0.769
N750 G1 X316.212 Y82.105
N755 G3 X344.167 Y79.426 I30.831 J174.505
N760 G3 X371.792 Y84.472 I1.165 J71.758
N765 G3 X381.213 Y88.979 I-28.086 J70.812
N770 G3 X389.69 Y95.076 I-23.691 J41.881
N775 G3 X400.585 Y106.388 I-73.012 J81.215
N780 G3 X408.781 Y119.785 I-41.6 J34.658
N785 G3 X412.987 Y131.851 I-86.356 J36.871
N790 G2 X415.2 Y133.783 I2.564 J-0.702
N795 G3 X417.386 Y135.745 I-0.344 J2.584
N800 G3 X420.252 Y149.696 I-180.363 J44.313
N805 G1 X422.4 Y164.774
N810 G2 X422.648 Y166.632 I85.096 J-10.384
N815 G3 X422.836 Y168.497 I-21.835 J3.15
N820 G1 X422.785 Y195.206
N825 G2 X422.78 Y196.341 I19.333 J0.645
N830 G3 X422.775 Y197.476 I-18.162 J0.494
N835 G3 X421.241 Y198.156 I-0.933 J-0.033
N840 G1 X289.219 Y86.559
N845 G3 X289.551 Y84.775 I0.674 J-0.797
N850 G3 X306.266 Y80.205 I42.203 J121.524
N855 G3 X323.352 Y77.323 I53.068 J262.534
N860 G3 X350.841 Y76.318 I18.846 J139.015
N865 G3 X377.532 Y82.972 I-4.665 J75.574
N870 G3 X390.739 Y91.473 I-22.52 J49.499
N875 G3 X401.863 Y102.561 I-77.047 J88.415
N880 G3 X414.353 Y124.843 I-46.267 J40.577
N885 G3 X417.386 Y135.745 I-177.329 J55.215
N890 G2 X420.017 Y138.203 I3.198 J-0.786
N895 G3 X422.599 Y140.714 I-0.55 J3.148
N900 G1 X422.815 Y141.777
N905 G1 X423.555 Y145.748
N910 G1 X424.126 Y149.055
N915 G1 X424.757 Y153.03
N920 G1 X425.247 Y156.342
N925 G1 X425.793 Y160.32
N930 G1 X426.298 Y164.299
N935 G1 X426.763 Y168.268
N940 G1 Y182.064
N945 G1 X426.74 Y186.044
N950 G1 X426.628 Y192.015
N955 G1 X426.524 Y195.331
N960 G1 X426.383 Y199.315
N965 G1 X426.141 Y204.623
N970 G1 X426.005 Y206.99
N975 G1 X288.41 Y90.681
N980 G1 X280.653 Y84.121
N985 G1 X281.911 Y83.624
N990 G1 X285.207 Y82.398
N995 G1 X288.765 Y81.162
N1000 G1 X291.801 Y80.176
N1005 G1 X295.098 Y79.181
N1010 G1 X296.409 Y78.812
N1015 G1 X299.048 Y78.088
N1020 G1 X302.577 Y77.21
N1025 G1 X305.643 Y76.514
N1030 G1 X307.625 Y76.093
N1035 G1 X310.934 Y75.412
N1040 G1 X314.899 Y74.672
N1045 G1 X318.863 Y74.012
N1050 G1 X322.824 Y73.432
N1055 G1 X326.784 Y72.937
N1060 G1 X330.741 Y72.533
N1065 G1 X334.695 Y72.226
N1070 G1 X337.988 Y72.052
N1075 G1 X339.298 Y72.007
N1080 G1 X341.934 Y71.936
N1085 G1 X345.22 Y71.931
N1090 G1 X347.84 Y71.997
N1095 G1 X349.809 Y72.095
N1100 G1 X351.114 Y72.171
N1105 G1 X353.069 Y72.33
N1110 G1 X355.681 Y72.615
N1115 G1 X358.291 Y72.988
N1120 G1 X360.251 Y73.328
N1125 G1 X360.889 Y73.449
N1130 G1 X362.989 Y73.885
N1135 G1 X365.452 Y74.48
N1140 G1 X367.991 Y75.188
N1145 G1 X370.078 Y75.838
N1150 G1 X372.628 Y76.717
N1155 G1 X373.929 Y77.206
N1160 G1 X374.575 Y77.456
N1165 G1 X376.539 Y78.252
N1170 G1 X379.159 Y79.397
N1175 G1 X381.298 Y80.409
N1180 G1 X382.584 Y81.061
N1185 G1 X383.841 Y81.71
N1190 G1 X385.661 Y82.731
N1195 G1 X387.155 Y83.644
N1200 G1 X388.877 Y84.785
N1205 G1 X390.816 Y86.199
N1210 G1 X392.483 Y87.517
N1215 G1 X393.398 Y88.294
N1220 G1 X394.737 Y89.463
N1225 G1 X396.14 Y90.762
N1230 G1 X397.965 Y92.543
N1235 G1 X399.413 Y94.032
N1240 G1 X401.265 Y96.007
N1245 G1 X403.229 Y98.181
N1250 G1 X404.815 Y99.971
N1255 G1 X406.531 Y101.948
N1260 G1 X407.832 Y103.515
N1265 G1 X409.137 Y105.194
N1270 G1 X410.42 Y106.977
N1275 G1 X411.368 Y108.414
N1280 G1 X412.349 Y110.021
N1285 G1 X413.251 Y111.633
N1290 G1 X414.249 Y113.575
N1295 G1 X415.158 Y115.52
N1300 G1 X415.722 Y116.821
N1305 G1 X415.993 Y117.464
N1310 G1 X416.515 Y118.767
N1315 G1 X417.01 Y120.074
N1320 G1 X417.486 Y121.379
N1325 G1 X418.157 Y123.342
N1330 G1 X418.85 Y125.525
N1335 G1 X419.375 Y127.28
N1340 G1 X419.746 Y128.585
N1345 G1 X420.618 Y131.881
N1350 G1 X421.413 Y135.176
N1355 G1 X422.143 Y138.476
N1360 G1 X422.599 Y140.714
N1365 G1 X422.608 Y140.78 Z-3.892 F1000
N1370 G1 X422.611 Y140.846 Z-3.885
N1375 G1 X422.606 Y140.909 Z-3.863
N1380 G1 X422.595 Y140.972 Z-3.841
N1385 G1 X422.579 Y141.026 Z-3.805
N1390 G1 X422.558 Y141.079 Z-3.769
N1395 G1 X422.512 Y141.163 Z-3.674
N1400 G1 X422.47 Y141.22 Z-3.56
N1405 G1 X422.44 Y141.253 Z-3.434
N1410 G1 X422.429 Y141.263 Z-3.3
N1415 G0 Z5
N1420 G0 X373.754 Y112.739
N1425 G0 Z-1.2
N1430 G1 X373.735 Y112.737 Z-1.352 F333.3
N1435 G1 X373.678 Y112.728 Z-1.494
N1440 G1 X373.588 Y112.712 Z-1.617
N1445 G1 X373.471 Y112.687 Z-1.713
N1450 G1 X373.336 Y112.652 Z-1.775
N1455 G1 X373.191 Y112.606 Z-1.8
N1460 G3 X375.057 Y107.22 Z-2.113 I0.933 J-2.693
N1465 G3 X373.191 Y112.606 Z-2.425 I-0.933 J2.693
N1470 G3 X375.057 Y107.22 Z-2.738 I0.933 J-2.693
N1475 G3 X373.191 Y112.606 Z-3.051 I-0.933 J2.693
N1480 G3 X375.057 Y107.22 Z-3.363 I0.933 J-2.693
N1485 G3 X373.191 Y112.606 Z-3.676 I-0.933 J2.693
N1490 G3 X375.057 Y107.22 Z-3.989 I0.933 J-2.693
N1495 G3 X373.191 Y112.606 Z-4.301 I-0.933 J2.693
N1500 G3 X375.057 Y107.22 Z-4.614 I0.933 J-2.693
N1505 G3 X373.191 Y112.606 Z-4.927 I-0.933 J2.693
N1510 G3 X375.057 Y107.22 Z-5.239 I0.933 J-2.693
N1515 G3 X373.191 Y112.606 Z-5.552 I-0.933 J2.693
N1520 G3 X375.057 Y107.22 Z-5.865 I0.933 J-2.693
N1525 G3 X375.935 Y107.713 Z-5.9 I-0.933 J2.693
N1530 G3 X376.578 Y108.253 I-24.417 J29.665 F420
N1535 G3 X378.858 Y110.344 I-32.116 J37.325
N1540 G3 X378.185 Y111.084 I-0.35 J0.358
N1545 G1 X373.524 Y107.132
N1550 G3 X374.153 Y106.332 I0.329 J-0.388
N1555 G3 X375.935 Y107.713 I-22.635 J31.046
N1560 G2 X377.891 Y107.931 I1.145 J-1.391
N1565 G3 X379.839 Y108.211 I0.773 J1.534
N1570 G3 X383.285 Y111.695 I-44.162 J47.129
N1575 G3 X388.324 Y117.406 I-147.394 J135.125
N1580 G3 X391.451 Y121.487 I-39.04 J33.144
N1585 G3 X393.944 Y125.984 I-21.807 J15.03
N1590 G3 X392.882 Y126.771 I-0.623 J0.27
N1595 G1 X359.809 Y98.742
N1600 G3 X360.412 Y97.602 I0.426 J-0.504
N1605 G3 X369.598 Y101.039 I-15.3 J54.885
N1610 G3 X377.816 Y106.394 I-15.858 J33.32
N1615 G3 X379.839 Y108.211 I-42.139 J48.946
N1620 G2 X382.577 Y108.709 I1.755 J-1.873
N1625 G3 X385.296 Y109.302 I0.933 J2.25
N1630 G3 X391.577 Y116.575 I-99.165 J91.992
N1635 G3 X396.861 Y125.428 I-29.043 J23.334
N1640 G3 X400.191 Y135.185 I-67.689 J28.555
N1645 G3 X398.99 Y135.943 I-0.719 J0.19
N1650 G1 X349.607 Y94.084
N1655 G3 X350.156 Y92.753 I0.488 J-0.577
N1660 G3 X361.959 Y95.059 I-4.337 J53.554
N1665 G3 X373.087 Y99.621 I-21.547 J68.415
N1670 G3 X383.228 Y107.121 I-17.611 J34.417
N1675 G3 X385.296 Y109.302 I-97.096 J94.172
N1680 G2 X388.027 Y109.965 I1.866 J-1.731
N1685 G3 X390.744 Y110.684 I0.839 J2.322
N1690 G3 X394.619 Y115.495 I-82.523 J70.437
N1695 G3 X400.514 Y126.212 I-33.313 J25.303
N1700 G3 X405.556 Y143.94 I-109.318 J40.672
N1705 G3 X404.292 Y144.691 I-0.763 J0.155
N1710 G1 X340.628 Y90.742
N1715 G3 X341.131 Y89.308 I0.525 J-0.621
N1720 G3 X365.696 Y92.921 I1.942 J72.107
N1725 G3 X386.684 Y106.188 I-16.072 J48.659
N1730 G3 X390.744 Y110.684 I-78.463 J74.932
N1735 G2 X393.718 Y111.526 I2.118 J-1.808
N1740 G3 X396.679 Y112.411 I0.838 J2.593
N1745 G1 X396.711 Y112.45
N1750 G3 X402.372 Y121.927 I-31.19 J25.059
N1755 G3 X405.989 Y132.357 I-76.819 J32.483
N1760 G3 X408.508 Y142.319 I-248.804 J68.216
N1765 G3 X410.475 Y152.406 I-142.419 J33.011
N1770 G3 X409.164 Y153.147 I-0.794 J0.126
N1775 G1 X332.141 Y87.931
N1780 G3 X332.623 Y86.437 I0.548 J-0.648
N1785 G3 X354.862 Y87.088 I8.082 J104.026
N1790 G3 X376.086 Y93.759 I-9.003 J65.744
N1795 G3 X387.386 Y102.016 I-20.253 J39.58
N1800 G3 X396.679 Y112.411 I-94.703 J94.014
N1805 G2 X399.382 Y113.332 I2.078 J-1.671
N1810 G3 X402.024 Y114.415 I0.571 J2.371
N1815 G3 X408.065 Y127.819 I-47.056 J29.273
N1820 G3 X413.389 Y150.834 I-179.445 J53.631
N1825 G2 X414.29 Y155.768 I152.075 J-25.199
N1830 G3 X415.121 Y160.715 I-81.558 J16.257
N1835 G3 X413.786 Y161.452 I-0.809 J0.111
N1840 G1 X324.023 Y85.491
N1845 G3 X324.486 Y83.934 I0.573 J-0.677
N1850 G3 X349.941 Y83.141 I16.975 J135.959
N1855 G3 X374.651 Y89.304 I-4.342 J70.021
N1860 G3 X386.591 Y97.057 I-19.868 J43.668
N1865 G3 X396.633 Y107.147 I-74.943 J84.623
N1870 G3 X402.024 Y114.415 I-41.665 J36.541
N1875 G2 X404.905 Y115.761 I2.474 J-1.539
N1880 G3 X407.714 Y117.252 I0.378 J2.678
N1885 G3 X408.857 Y119.752 I-48.725 J23.792
N1890 G3 X414.591 Y138.279 I-86.422 J36.899
N1895 G3 X417.857 Y157.395 I-345.051 J68.79
N1900 G2 X418.463 Y161.288 I153.187 J-21.846
N1905 G3 X419.029 Y165.186 I-85.021 J14.342
N1910 G2 X419.318 Y166.933 I20.84 J-2.543
N1915 G3 X419.551 Y168.689 I-11.764 J2.456
N1920 G1 X419.554 Y168.753
N1925 G1 X419.555 Y168.818
N1930 G3 X418.062 Y169.513 I-0.909 J0
N1935 G1 X316.137 Y83.297
N1940 G3 X316.577 Y81.7 I0.59 J-0.697
N1945 G3 X344.384 Y79.276 I29.367 J176.184
N1950 G3 X371.823 Y84.395 I0.635 J72.698
N1955 G3 X381.256 Y88.908 I-28.115 J70.883
N1960 G3 X389.746 Y95.015 I-23.732 J41.949
N1965 G3 X400.652 Y106.34 I-73.052 J81.26
N1970 G3 X407.714 Y117.252 I-41.663 J34.704
N1975 G2 X410.309 Y118.785 I2.46 J-1.201
N1980 G3 X412.843 Y120.416 I0.127 J2.586
N1985 G3 X414.4 Y124.821 I-57.243 J22.718
N1990 G3 X420.303 Y149.688 I-177.323 J55.228
N1995 G3 X422.275 Y163.049 I-377.077 J62.482
N2000 G3 X423.145 Y176.526 I-104.016 J13.479
N2005 G3 X421.652 Y177.222 I-0.909 J0
N2010 G1 X308.137 Y81.23
N2015 G3 X308.554 Y79.596 I0.606 J-0.716
N2020 G3 X346.728 Y75.877 I36.63 J178.208
N2025 G3 X383.702 Y86.076 I-0.632 J74.412
N2030 G3 X393.464 Y93.569 I-24.956 J42.613
N2035 G3 X401.902 Y102.526 I-121.564 J122.971
N2040 G3 X412.843 Y120.416 I-46.302 J40.608
N2045 G2 X415.74 Y122.47 I3.028 J-1.202
N2050 G3 X418.564 Y124.624 I-0.124 J3.089
N2055 G1 X418.85 Y125.525
N2060 G1 X419.375 Y127.28
N2065 G1 X419.746 Y128.585
N2070 G1 X420.618 Y131.881
N2075 G1 X421.413 Y135.176
N2080 G1 X422.143 Y138.476
N2085 G1 X422.815 Y141.777
N2090 G1 X423.555 Y145.748
N2095 G1 X424.126 Y149.055
N2100 G1 X424.757 Y153.03
N2105 G1 X425.247 Y156.342
N2110 G1 X425.793 Y160.32
N2115 G1 X426.298 Y164.299
N2120 G1 X426.763 Y168.268
N2125 G1 Y182.064
N2130 G1 X426.74 Y186.044
N2135 G1 X426.737 Y186.225
N2140 G1 X390.899 Y156.09
N2145 G1 X378.352 Y145.427
N2150 G1 X353.23 Y124.123
N2155 G1 X298.877 Y78.135
N2160 G1 X299.048 Y78.088
N2165 G1 X302.577 Y77.21
N2170 G1 X305.643 Y76.514
N2175 G1 X307.625 Y76.093
N2180 G1 X310.934 Y75.412
N2185 G1 X314.899 Y74.672
N2190 G1 X318.863 Y74.012
N2195 G1 X322.824 Y73.432
N2200 G1 X326.784 Y72.937
N2205 G1 X330.741 Y72.533
N2210 G1 X334.695 Y72.226
N2215 G1 X337.988 Y72.052
N2220 G1 X339.298 Y72.007
N2225 G1 X341.934 Y71.936
N2230 G1 X345.22 Y71.931
N2235 G1 X347.84 Y71.997
N2240 G1 X349.809 Y72.095
N2245 G1 X351.114 Y72.171
N2250 G1 X353.069 Y72.33
N2255 G1 X355.681 Y72.615
N2260 G1 X358.291 Y72.988
N2265 G1 X360.251 Y73.328
N2270 G1 X360.889 Y73.449
N2275 G1 X362.989 Y73.885
N2280 G1 X365.452 Y74.48
N2285 G1 X367.991 Y75.188
N2290 G1 X370.078 Y75.838
N2295 G1 X372.628 Y76.717
N2300 G1 X373.929 Y77.206
N2305 G1 X374.575 Y77.456
N2310 G1 X376.539 Y78.252
N2315 G1 X379.159 Y79.397
N2320 G1 X381.298 Y80.409
N2325 G1 X382.584 Y81.061
N2330 G1 X383.841 Y81.71
N2335 G1 X385.661 Y82.731
N2340 G1 X387.155 Y83.644
N2345 G1 X388.877 Y84.785
N2350 G1 X390.816 Y86.199
N2355 G1 X392.483 Y87.517
N2360 G1 X393.398 Y88.294
N2365 G1 X394.737 Y89.463
N2370 G1 X396.14 Y90.762
N2375 G1 X397.965 Y92.543
N2380 G1 X399.413 Y94.032
N2385 G1 X401.265 Y96.007
N2390 G1 X403.229 Y98.181
N2395 G1 X404.815 Y99.971
N2400 G1 X406.531 Y101.948
N2405 G1 X407.832 Y103.515
N2410 G1 X409.137 Y105.194
N2415 G1 X410.42 Y106.977
N2420 G1 X411.368 Y108.414
N2425 G1 X412.349 Y110.021
N2430 G1 X413.251 Y111.633
N2435 G1 X414.249 Y113.575
N2440 G1 X415.158 Y115.52
N2445 G1 X415.722 Y116.821
N2450 G1 X415.993 Y117.464
N2455 G1 X416.515 Y118.767
N2460 G1 X417.01 Y120.074
N2465 G1 X417.486 Y121.379
N2470 G1 X418.157 Y123.342
N2475 G1 X418.564 Y124.624
N2480 G1 X418.58 Y124.688 Z-5.892 F1000
N2485 G1 X418.59 Y124.754 Z-5.885
N2490 G1 X418.592 Y124.818 Z-5.863
N2495 G1 X418.587 Y124.881 Z-5.841
N2500 G1 X418.577 Y124.937 Z-5.805
N2505 G1 X418.562 Y124.992 Z-5.769
N2510 G1 X418.526 Y125.079 Z-5.674
N2515 G1 X418.489 Y125.141 Z-5.56
N2520 G1 X418.463 Y125.177 Z-5.434
N2525 G1 X418.454 Y125.188 Z-5.3
N2530 G0 Z5
N2535 G0 X381.85 Y99.378
N2540 G0 Z0
N2545 G1 Z-3.2 F333.3
N2550 G1 X381.87 Y99.381 Z-3.352
N2555 G1 X381.926 Y99.391 Z-3.494
N2560 G1 X382.016 Y99.408 Z-3.617
N2565 G1 X382.133 Y99.436 Z-3.713
N2570 G1 X382.267 Y99.474 Z-3.775
N2575 G1 X382.41 Y99.522 Z-3.8
N2580 G3 X380.438 Y104.87 Z-4.113 I-0.986 J2.674
N2585 G3 X382.41 Y99.522 Z-4.425 I0.986 J-2.674
N2590 G3 X380.438 Y104.87 Z-4.738 I-0.986 J2.674
N2595 G3 X382.41 Y99.522 Z-5.051 I0.986 J-2.674
N2600 G3 X380.438 Y104.87 Z-5.363 I-0.986 J2.674
N2605 G3 X382.41 Y99.522 Z-5.676 I0.986 J-2.674
N2610 G3 X380.438 Y104.87 Z-5.989 I-0.986 J2.674
N2615 G3 X382.41 Y99.522 Z-6.301 I0.986 J-2.674
N2620 G3 X380.438 Y104.87 Z-6.614 I-0.986 J2.674
N2625 G3 X382.41 Y99.522 Z-6.927 I0.986 J-2.674
N2630 G3 X380.438 Y104.87 Z-7.239 I-0.986 J2.674
N2635 G3 X382.41 Y99.522 Z-7.552 I0.986 J-2.674
N2640 G3 X380.438 Y104.87 Z-7.865 I-0.986 J2.674
N2645 G3 X379.57 Y104.36 Z-7.9 I0.986 J-2.674
N2650 G1 X374.71 Y100.196 F420
N2655 G2 X373.85 Y99.511 I-11.381 J13.428
N2660 G3 X372.989 Y98.827 I10.521 J-14.113
N2665 G3 X373.631 Y97.859 I0.378 J-0.446
N2670 G3 X382.276 Y103.939 I-16.682 J32.905
N2675 G3 X389.63 Y111.53 I-81.385 J86.201
N2680 G3 X388.856 Y112.319 I-0.415 J0.367
N2685 G1 X379.57 Y104.36
N2690 G2 X377.22 Y104.084 I-1.381 J1.611
N2695 G3 X374.871 Y103.807 I-0.967 J-1.906
N2700 G1 X360.375 Y91.504
N2705 G3 X360.97 Y90.332 I0.437 J-0.515
N2710 G3 X369.341 Y93.151 I-11.845 J49.015
N2715 G3 X377.211 Y97.16 I-30.203 J69.019
N2720 G3 X385.285 Y103.473 I-19.413 J33.149
N2725 G3 X392.246 Y110.995 I-137.26 J134.006
N2730 G3 X397.18 Y117.261 I-56.613 J49.65
N2735 G3 X400.985 Y124.269 I-28.033 J19.761
N2740 G3 X399.903 Y125.052 I-0.639 J0.256
N2745 G1 X374.871 Y103.807
N2750 G2 X372.14 Y103.491 I-1.603 J1.888
N2755 G3 X369.409 Y103.174 I-1.128 J-2.207
N2760 G1 X350.231 Y86.917
N2765 G3 X350.78 Y85.59 I0.488 J-0.575
N2770 G3 X363.946 Y88.147 I-4.886 J60.338
N2775 G3 X376.362 Y93.22 I-23.536 J75.332
N2780 G3 X387.769 Y101.546 I-20.499 J40.059
N2785 G3 X397.183 Y112.071 I-94.611 J94.103
N2790 G3 X403.012 Y121.613 I-34.027 J27.338
N2795 G3 X406.781 Y132.139 I-67.072 J29.95
N2800 G2 X406.967 Y132.764 I14.028 J-3.846
N2805 G3 X407.154 Y133.389 I-9.898 J3.294
N2810 G3 X405.951 Y134.151 I-0.721 J0.191
N2815 G1 X369.409 Y103.174
N2820 G2 X366.504 Y102.839 I-1.704 J2.01
N2825 G3 X363.599 Y102.504 I-1.201 J-2.347
N2830 G1 X341.201 Y83.528
N2835 G3 X341.705 Y82.094 I0.526 J-0.621
N2840 G3 X368.823 Y86.339 I2.039 J75.72
N2845 G3 X391.888 Y101.219 I-19.475 J55.506
N2850 G3 X400.719 Y111.677 I-80.911 J77.27
N2855 G3 X407.258 Y123.702 I-38.82 J28.901
N2860 G3 X412.167 Y140.595 I-112.504 J41.857
N2865 G2 X412.35 Y141.366 I16.966 J-3.604
N2870 G3 X412.532 Y142.136 I-12.231 J3.298
N2875 G3 X411.268 Y142.886 I-0.762 J0.155
N2880 G1 X363.599 Y102.504
N2885 G2 X360.624 Y102.161 I-1.744 J2.059
N2890 G3 X357.649 Y101.818 I-1.23 J-2.403
N2895 G1 X332.677 Y80.671
N2900 G3 X333.159 Y79.183 I0.547 J-0.645
N2905 G3 X356.826 Y80.071 I7.992 J102.861
N2910 G3 X379.362 Y87.358 I-11.279 J73.368
N2915 G3 X391.927 Y96.44 I-23.19 J45.318
N2920 G3 X402.317 Y107.946 I-94.526 J95.8
N2925 G3 X408.776 Y118.656 I-36.44 J29.277
N2930 G3 X412.923 Y130.455 I-81.544 J35.293
N2935 G1 X417.473 Y150.628
N2940 G3 X416.162 Y151.368 I-0.793 J0.126
N2945 G1 X357.649 Y101.818
N2950 G2 X354.634 Y101.471 I-1.768 J2.087
N2955 G3 X351.619 Y101.124 I-1.247 J-2.435
N2960 G1 X324.507 Y78.172
N2965 G3 X324.966 Y76.633 I0.567 J-0.669
N2970 G3 X351.721 Y76.047 I16.231 J130.004
N2975 G3 X377.627 Y82.764 I-6.235 J77.361
N2980 G3 X390.876 Y91.289 I-22.608 J49.693
N2985 G3 X402.035 Y102.41 I-77.126 J88.549
N2990 G3 X416.238 Y129.206 I-49.461 J43.378
N2995 G3 X422.132 Y158.955 I-248.077 J64.613
N3000 G3 X420.798 Y159.69 I-0.809 J0.111
N3005 G1 X351.619 Y101.124
N3010 G2 X348.52 Y100.767 I-1.818 J2.147
N3015 G3 X345.422 Y100.409 I-1.281 J-2.502
N3020 G1 X315.03 Y74.65
N3025 G1 X318.863 Y74.012
N3030 G1 X322.824 Y73.432
N3035 G1 X326.784 Y72.937
N3040 G1 X330.741 Y72.533
N3045 G1 X334.695 Y72.226
N3050 G1 X337.988 Y72.052
N3055 G1 X339.298 Y72.007
N3060 G1 X341.934 Y71.936
N3065 G1 X345.22 Y71.931
N3070 G1 X347.84 Y71.997
N3075 G1 X349.809 Y72.095
N3080 G1 X351.114 Y72.171
N3085 G1 X353.069 Y72.33
N3090 G1 X355.681 Y72.615
N3095 G1 X358.291 Y72.988
N3100 G1 X360.251 Y73.328
N3105 G1 X360.889 Y73.449
N3110 G1 X362.989 Y73.885
N3115 G1 X365.452 Y74.48
N3120 G1 X367.991 Y75.188
N3125 G1 X370.078 Y75.838
N3130 G1 X372.628 Y76.717
N3135 G1 X373.929 Y77.206
N3140 G1 X374.575 Y77.456
N3145 G1 X376.539 Y78.252
N3150 G1 X379.159 Y79.397
N3155 G1 X381.298 Y80.409
N3160 G1 X382.584 Y81.061
N3165 G1 X383.841 Y81.71
N3170 G1 X385.661 Y82.731
N3175 G1 X387.155 Y83.644
N3180 G1 X388.877 Y84.785
N3185 G1 X390.816 Y86.199
N3190 G1 X392.483 Y87.517
N3195 G1 X393.398 Y88.294
N3200 G1 X394.737 Y89.463
N3205 G1 X396.14 Y90.762
N3210 G1 X397.965 Y92.543
N3215 G1 X399.413 Y94.032
N3220 G1 X401.265 Y96.007
N3225 G1 X403.229 Y98.181
N3230 G1 X404.815 Y99.971
N3235 G1 X406.531 Y101.948
N3240 G1 X407.832 Y103.515
N3245 G1 X409.137 Y105.194
N3250 G1 X410.42 Y106.977
N3255 G1 X411.368 Y108.414
N3260 G1 X412.349 Y110.021
N3265 G1 X413.251 Y111.633
N3270 G1 X414.249 Y113.575
N3275 G1 X415.158 Y115.52
N3280 G1 X415.722 Y116.821
N3285 G1 X415.993 Y117.464
N3290 G1 X416.515 Y118.767
N3295 G1 X417.01 Y120.074
N3300 G1 X417.486 Y121.379
N3305 G1 X418.157 Y123.342
N3310 G1 X418.85 Y125.525
N3315 G1 X419.375 Y127.28
N3320 G1 X419.746 Y128.585
N3325 G1 X420.618 Y131.881
N3330 G1 X421.413 Y135.176
N3335 G1 X422.143 Y138.476
N3340 G1 X422.815 Y141.777
N3345 G1 X423.555 Y145.748
N3350 G1 X424.126 Y149.055
N3355 G1 X424.757 Y153.03
N3360 G1 X425.247 Y156.342
N3365 G1 X425.793 Y160.32
N3370 G1 X426.298 Y164.299
N3375 G1 X426.763 Y168.268
N3380 G1 Y169.218
N3385 G1 X384.32 Y133.447
N3390 G1 X362.363 Y114.768
N3395 G1 X345.422 Y100.409
N3400 G1 Z-7.3 F1000
N3405 G0 Z5
N3410 G0 X382.082 Y102.575
N3415 G0 Z-5.2
N3420 G1 X382.063 Y102.573 Z-5.352 F333.3
N3425 G1 X382.006 Y102.564 Z-5.494
N3430 G1 X381.916 Y102.549 Z-5.617
N3435 G1 X381.799 Y102.524 Z-5.713
N3440 G1 X381.664 Y102.488 Z-5.775
N3445 G1 X381.52 Y102.442 Z-5.8
N3450 G3 X383.389 Y97.057 Z-6.113 I0.934 J-2.692
N3455 G3 X381.52 Y102.442 Z-6.425 I-0.934 J2.692
N3460 G3 X383.389 Y97.057 Z-6.738 I0.934 J-2.692
N3465 G3 X381.52 Y102.442 Z-7.051 I-0.934 J2.692
N3470 G3 X383.389 Y97.057 Z-7.363 I0.934 J-2.692
N3475 G3 X381.52 Y102.442 Z-7.676 I-0.934 J2.692
N3480 G3 X383.389 Y97.057 Z-7.989 I0.934 J-2.692
N3485 G3 X381.52 Y102.442 Z-8.301 I-0.934 J2.692
N3490 G3 X383.389 Y97.057 Z-8.614 I0.934 J-2.692
N3495 G3 X381.52 Y102.442 Z-8.927 I-0.934 J2.692
N3500 G3 X383.389 Y97.057 Z-9.239 I0.934 J-2.692
N3505 G3 X381.52 Y102.442 Z-9.552 I-0.934 J2.692
N3510 G3 X383.389 Y97.057 Z-9.865 I0.934 J-2.692
N3515 G3 X384.267 Y97.551 Z-9.9 I-0.934 J2.692
N3520 G3 X391.819 Y104.701 I-48.139 J58.406 F420
N3525 G1 X399.85 Y113.827
N3530 G3 X398.983 Y114.629 I-0.483 J0.347
N3535 G1 X370.765 Y90.78
N3540 G3 X371.392 Y89.741 I0.397 J-0.469
N3545 G3 X382.435 Y96.088 I-17.545 J43.307
N3550 G3 X384.267 Y97.551 I-46.307 J59.869
N3555 G2 X386.891 Y97.817 I1.512 J-1.834
N3560 G3 X389.507 Y98.149 I1.072 J2.025
N3565 G3 X393.522 Y102.124 I-46.479 J50.968
N3570 G3 X401.106 Y111.203 I-80.836 J75.232
N3575 G3 X404.299 Y116.026 I-40.188 J30.067
N3580 G3 X406.858 Y121.214 I-36.384 J21.172
N3585 G2 X407.506 Y122.715 I42.065 J-17.266
N3590 G3 X408.124 Y124.229 I-19.756 J8.952
N3595 G3 X407.007 Y125.015 I-0.664 J0.243
N3600 G1 X358.897 Y84.347
N3605 G3 X359.49 Y83.139 I0.452 J-0.528
N3610 G3 X372.737 Y87.252 I-14.639 J70.53
N3615 G3 X384.75 Y94.187 I-21.359 J50.872
N3620 G3 X389.507 Y98.149 I-41.721 J54.93
N3625 G2 X392.063 Y98.579 I1.611 J-1.767
N3630 G3 X394.605 Y99.083 I0.904 J2.103
N3635 G3 X401.275 Y106.411 I-102.621 J100.114
N3640 G3 X408.275 Y117.182 I-38.469 J32.66
N3645 G3 X412.874 Y129.175 I-70.234 J33.812
N3650 G2 X413.508 Y131.216 I57.84 J-16.864
N3655 G3 X414.117 Y133.264 I-33.594 J11.101
N3660 G3 X412.901 Y134.036 I-0.73 J0.193
N3665 G1 X349.062 Y80.086
N3670 G3 X349.605 Y78.733 I0.498 J-0.586
N3675 G3 X364.327 Y81.241 I-3.975 J67.795
N3680 G3 X378.265 Y86.602 I-23.315 J81.416
N3685 G3 X390.792 Y95.319 I-22.103 J45.125
N3690 G3 X394.605 Y99.083 I-98.808 J103.879
N3695 G2 X397.496 Y99.73 I1.941 J-1.893
N3700 G3 X400.368 Y100.457 I0.911 J2.435
N3705 G3 X406.465 Y108.08 I-87.557 J76.281
N3710 G3 X413.612 Y121.338 I-44.087 J32.32
N3715 G3 X416.912 Y131.528 I-116.735 J43.431
N3720 G3 X419.411 Y141.942 I-149.045 J41.276
N3725 G3 X418.141 Y142.698 I-0.767 J0.156
N3730 G1 X340.127 Y76.776
N3735 G3 X340.634 Y75.341 I0.528 J-0.621
N3740 G3 X370.958 Y79.988 I2.32 J86.132
N3745 G3 X396.791 Y96.536 I-21.087 J61.357
N3750 G3 X400.368 Y100.457 I-83.981 J80.202
N3755 G2 X403.551 Y101.299 I2.213 J-1.928
N3760 G3 X406.723 Y102.179 I0.953 J2.723
N3765 G1 X407.832 Y103.515
N3770 G1 X409.137 Y105.194
N3775 G1 X410.42 Y106.977
N3780 G1 X411.368 Y108.414
N3785 G1 X412.349 Y110.021
N3790 G1 X413.251 Y111.633
N3795 G1 X414.249 Y113.575
N3800 G1 X415.158 Y115.52
N3805 G1 X415.722 Y116.821
N3810 G1 X415.993 Y117.464
N3815 G1 X416.515 Y118.767
N3820 G1 X417.01 Y120.074
N3825 G1 X417.486 Y121.379
N3830 G1 X418.157 Y123.342
N3835 G1 X418.85 Y125.525
N3840 G1 X419.375 Y127.28
N3845 G1 X419.746 Y128.585
N3850 G1 X420.618 Y131.881
N3855 G1 X421.413 Y135.176
N3860 G1 X422.143 Y138.476
N3865 G1 X422.815 Y141.777
N3870 G1 X423.555 Y145.748
N3875 G1 X424.126 Y149.055
N3880 G1 X424.691 Y152.616
N3885 G1 X416.952 Y146.098
N3890 G1 X402.993 Y134.39
N3895 G1 X402.989 Y134.386
N3900 G1 X395.459 Y128.112
N3905 G1 X393.003 Y126.047
N3910 G1 X359.699 Y97.899
N3915 G1 X351.708 Y91.056
N3920 G1 X351.704 Y91.052
N3925 G1 X337.351 Y78.837
N3930 G1 X330 Y72.609
N3935 G1 X330.741 Y72.533
N3940 G1 X334.695 Y72.226
N3945 G1 X337.988 Y72.052
N3950 G1 X339.298 Y72.007
N3955 G1 X341.934 Y71.936
N3960 G1 X345.22 Y71.931
N3965 G1 X347.84 Y71.997
N3970 G1 X349.809 Y72.095
N3975 G1 X351.114 Y72.171
N3980 G1 X353.069 Y72.33
N3985 G1 X355.681 Y72.615
N3990 G1 X358.291 Y72.988
N3995 G1 X360.251 Y73.328
N4000 G1 X360.889 Y73.449
N4005 G1 X362.989 Y73.885
N4010 G1 X365.452 Y74.48
N4015 G1 X367.991 Y75.188
N4020 G1 X370.078 Y75.838
N4025 G1 X372.628 Y76.717
N4030 G1 X373.929 Y77.206
N4035 G1 X374.575 Y77.456
N4040 G1 X376.539 Y78.252
N4045 G1 X379.159 Y79.397
N4050 G1 X381.298 Y80.409
N4055 G1 X382.584 Y81.061
N4060 G1 X383.841 Y81.71
N4065 G1 X385.661 Y82.731
N4070 G1 X387.155 Y83.644
N4075 G1 X388.877 Y84.785
N4080 G1 X390.816 Y86.199
N4085 G1 X392.483 Y87.517
N4090 G1 X393.398 Y88.294
N4095 G1 X394.737 Y89.463
N4100 G1 X396.14 Y90.762
N4105 G1 X397.965 Y92.543
N4110 G1 X399.413 Y94.032
N4115 G1 X401.265 Y96.007
N4120 G1 X403.229 Y98.181
N4125 G1 X404.815 Y99.971
N4130 G1 X406.531 Y101.948
N4135 G1 X406.723 Y102.179
N4140 G3 X406.503 Y102.671 I-0.231 J0.192
N4145 G1 X399.759 Y102.914
N4150 G1 X399.706 Y102.911
N4155 G1 X399.654 Y102.899
N4160 G1 X399.605 Y102.877
N4165 G1 X384.107 Y94.465
N4170 G1 X383.639 Y94.209
N4175 G1 X383.609 Y94.185
N4180 G1 X383.588 Y94.151
N4185 G1 X383.581 Y94.112
N4190 G1 X383.587 Y94.074
N4195 G1 X383.606 Y94.039
N4200 G1 X383.636 Y94.014
N4205 G3 X386.558 Y98.907 Z-10.213 I1.461 J2.447 F333.3
N4210 G3 X383.636 Y94.014 Z-10.525 I-1.461 J-2.447
N4215 G3 X386.558 Y98.907 Z-10.838 I1.461 J2.447
N4220 G3 X383.636 Y94.014 Z-11.151 I-1.461 J-2.447
N4225 G3 X386.558 Y98.907 Z-11.463 I1.461 J2.447
N4230 G3 X383.636 Y94.014 Z-11.776 I-1.461 J-2.447
N4235 G3 X386.95 Y94.295 Z-11.9 I1.461 J2.447
N4240 G3 X387.186 Y94.499 I-24.17 J28.247 F420
N4245 G3 X391.742 Y98.754 I-58.336 J67.031
N4250 G2 X392.506 Y99.483 I15.453 J-15.424
N4255 G3 X393.258 Y100.224 I-8.928 J9.818
N4260 G3 X392.507 Y101.015 I-0.398 J0.374
N4265 G1 X381.506 Y91.717
N4270 G3 X382.157 Y90.815 I0.36 J-0.426
N4275 G3 X386.95 Y94.295 I-19.377 J31.728
N4280 G2 X388.991 Y94.535 I1.199 J-1.401
N4285 G3 X391.027 Y94.808 I0.822 J1.601
N4290 G3 X396.882 Y100.658 I-63.419 J69.327
N4295 G3 X402.803 Y107.556 I-103.258 J94.616
N4300 G3 X405.94 Y111.737 I-61.682 J49.557
N4305 G3 X408.64 Y116.212 I-31.545 J22.083
N4310 G3 X407.629 Y117.018 I-0.586 J0.302
N4315 G1 X373.535 Y87.904
N4320 G2 X370.247 Y85.281 I-44.635 J52.578
N4325 G3 X366.959 Y82.658 I41.347 J-55.201
N4330 G3 X367.571 Y81.545 I0.419 J-0.494
N4335 G3 X379.684 Y86.669 I-19.981 J64.107
N4340 G3 X390.424 Y94.261 I-26.931 J49.495
N4345 G3 X391.027 Y94.808 I-62.816 J69.874
N4350 G2 X393.613 Y95.218 I1.603 J-1.753
N4355 G3 X396.187 Y95.697 I0.945 J2.08
N4360 G3 X405.709 Y106.583 I-88.929 J87.385
N4365 G3 X413.327 Y120.01 I-42.337 J32.897
N4370 G2 X414.494 Y122.908 I131.71 J-51.334
N4375 G3 X415.566 Y125.842 I-33.402 J13.877
N4380 G3 X414.413 Y126.613 I-0.688 J0.218
N4385 G1 X377.068 Y94.831
N4390 G1 X356.008 Y77.264
N4395 G3 X356.575 Y76.001 I0.465 J-0.55
N4400 G3 X377.582 Y82.338 I-10.281 J72.07
N4405 G3 X395.5 Y95.003 I-27.704 J58.203
N4410 G3 X396.187 Y95.697 I-88.242 J88.079
N4415 G2 X399.212 Y96.35 I2.01 J-1.975
N4420 G3 X402.223 Y97.067 I0.984 J2.548
N4425 G1 X403.229 Y98.181
N4430 G1 X404.815 Y99.971
N4435 G1 X406.531 Y101.948
N4440 G1 X407.832 Y103.515
N4445 G1 X409.137 Y105.194
N4450 G1 X410.42 Y106.977
N4455 G1 X411.368 Y108.414
N4460 G1 X412.349 Y110.021
N4465 G1 X413.251 Y111.633
N4470 G1 X414.249 Y113.575
N4475 G1 X415.158 Y115.52
N4480 G1 X415.722 Y116.821
N4485 G1 X415.993 Y117.464
N4490 G1 X416.515 Y118.767
N4495 G1 X417.01 Y120.074
N4500 G1 X417.486 Y121.379
N4505 G1 X418.157 Y123.342
N4510 G1 X418.85 Y125.525
N4515 G1 X419.375 Y127.28
N4520 G1 X419.746 Y128.585
N4525 G1 X420.618 Y131.881
N4530 G1 X421.413 Y135.176
N4535 G1 X421.838 Y137.095
N4540 G1 X410.991 Y127.946
N4545 G1 X399.664 Y118.41
N4550 G1 X392.961 Y112.794
N4555 G1 X390.336 Y110.603
N4560 G1 X374.813 Y97.484
N4565 G1 X369.365 Y92.825
N4570 G1 X369.36 Y92.821
N4575 G1 X356.807 Y82.165
N4580 G1 X344.713 Y71.932
N4585 G1 X345.22 Y71.931
N4590 G1 X347.84 Y71.997
N4595 G1 X349.809 Y72.095
N4600 G1 X351.114 Y72.171
N4605 G1 X353.069 Y72.33
N4610 G1 X355.681 Y72.615
N4615 G1 X358.291 Y72.988
N4620 G1 X360.251 Y73.328
N4625 G1 X360.889 Y73.449
N4630 G1 X362.989 Y73.885
N4635 G1 X365.452 Y74.48
N4640 G1 X367.991 Y75.188
N4645 G1 X370.078 Y75.838
N4650 G1 X372.628 Y76.717
N4655 G1 X373.929 Y77.206
N4660 G1 X374.575 Y77.456
N4665 G1 X376.539 Y78.252
N4670 G1 X379.159 Y79.397
N4675 G1 X381.298 Y80.409
N4680 G1 X382.584 Y81.061
N4685 G1 X383.841 Y81.71
N4690 G1 X385.661 Y82.731
N4695 G1 X387.155 Y83.644
N4700 G1 X388.877 Y84.785
N4705 G1 X390.816 Y86.199
N4710 G1 X392.483 Y87.517
N4715 G1 X393.398 Y88.294
N4720 G1 X394.737 Y89.463
N4725 G1 X396.14 Y90.762
N4730 G1 X397.965 Y92.543
N4735 G1 X399.413 Y94.032
N4740 G1 X401.265 Y96.007
N4745 G1 X402.223 Y97.067
N4750 G3 X401.988 Y97.568 I-0.223 J0.201
N4755 G1 X396.551 Y97.344
N4760 G1 X396.49 Y97.335
N4765 G1 X396.432 Y97.313
N4770 G1 X396.379 Y97.281
N4775 G1 X387.518 Y90.38
N4780 G1 X387.056 Y90.066
N4785 G1 X387.029 Y90.039
N4790 G1 X387.011 Y90.005
N4795 G1 X387.006 Y89.967
N4800 G1 X387.013 Y89.93
N4805 G1 X387.032 Y89.897
N4810 G1 X387.06 Y89.871
N4815 G3 X390.07 Y94.712 Z-12.213 I1.505 J2.42 F333.3
N4820 G3 X387.06 Y89.871 Z-12.525 I-1.505 J-2.42
N4825 G3 X390.07 Y94.712 Z-12.838 I1.505 J2.42
N4830 G3 X387.06 Y89.871 Z-13.151 I-1.505 J-2.42
N4835 G3 X390.07 Y94.712 Z-13.463 I1.505 J2.42
N4840 G3 X387.06 Y89.871 Z-13.776 I-1.505 J-2.42
N4845 G3 X390.379 Y90.093 Z-13.9 I1.505 J2.42
N4850 G3 X400.933 Y100.234 I-61.683 J74.762 F420
N4855 G2 X404.495 Y104.141 I209.791 J-187.672
N4860 G3 X407.845 Y108.232 I-31.063 J28.856
N4865 G3 X406.981 Y109.031 I-0.481 J0.346
N4870 G1 X374.91 Y81.93
N4875 G3 X375.551 Y80.901 I0.395 J-0.468
N4880 G3 X389.282 Y89.202 I-24.51 J56.052
N4885 G3 X390.379 Y90.093 I-60.586 J75.653
N4890 G2 X393.309 Y90.407 I1.703 J-2.064
N4895 G3 X396.223 Y90.843 I1.155 J2.237
N4900 G1 X397.965 Y92.543
N4905 G1 X399.413 Y94.032
N4910 G1 X401.265 Y96.007
N4915 G1 X403.229 Y98.181
N4920 G1 X404.815 Y99.971
N4925 G1 X406.531 Y101.948
N4930 G1 X407.832 Y103.515
N4935 G1 X409.137 Y105.194
N4940 G1 X410.42 Y106.977
N4945 G1 X411.368 Y108.414
N4950 G1 X412.349 Y110.021
N4955 G1 X413.251 Y111.633
N4960 G1 X414.249 Y113.575
N4965 G1 X415.158 Y115.52
N4970 G1 X415.722 Y116.821
N4975 G1 X415.993 Y117.464
N4980 G1 X416.515 Y118.767
N4985 G1 X417.01 Y120.074
N4990 G1 X417.486 Y121.379
N4995 G1 X417.594 Y121.695
N5000 G1 X391.006 Y99.23
N5005 G1 X387.675 Y96.429
N5010 G1 X383.014 Y92.474
N5015 G1 X360.385 Y73.353
N5020 G1 X360.889 Y73.449
N5025 G1 X362.989 Y73.885
N5030 G1 X365.452 Y74.48
N5035 G1 X367.991 Y75.188
N5040 G1 X370.078 Y75.838
N5045 G1 X372.628 Y76.717
N5050 G1 X373.929 Y77.206
N5055 G1 X374.575 Y77.456
N5060 G1 X376.539 Y78.252
N5065 G1 X379.159 Y79.397
N5070 G1 X381.298 Y80.409
N5075 G1 X382.584 Y81.061
N5080 G1 X383.841 Y81.71
N5085 G1 X385.661 Y82.731
N5090 G1 X387.155 Y83.644
N5095 G1 X388.877 Y84.785
N5100 G1 X390.816 Y86.199
N5105 G1 X392.483 Y87.517
N5110 G1 X393.398 Y88.294
N5115 G1 X394.737 Y89.463
N5120 G1 X396.14 Y90.762
N5125 G1 X396.223 Y90.843
N5130 G3 X395.947 Y91.132 I-0.14 J0.143
N5135 G1 X395.365 Y90.59
N5140 G3 X395.638 Y90.297 I0.136 J-0.146
N5145 G1 X396.14 Y90.762 Z-13.924 F333.3
N5150 G1 X397.965 Y92.543 Z-14.013
N5155 G1 X399.413 Y94.032 Z-14.085
N5160 G1 X401.265 Y96.007 Z-14.18
N5165 G1 X403.229 Y98.181 Z-14.282
N5170 G1 X404.815 Y99.971 Z-14.366
N5175 G1 X405.123 Y100.326 Z-14.382
N5180 G1 X381.945 Y80.737 Z-15.442
N5185 G1 X382.584 Y81.061 Z-15.467
N5190 G1 X383.841 Y81.71 Z-15.516
N5195 G1 X385.661 Y82.731 Z-15.589
N5200 G1 X387.155 Y83.644 Z-15.65
N5205 G1 X388.877 Y84.785 Z-15.723
N5210 G1 X390.816 Y86.199 Z-15.806
N5215 G1 X392.483 Y87.517 Z-15.881
N5220 G1 X392.907 Y87.877 Z-15.9
N5225 G1 X393.398 Y88.294 F420
N5230 G1 X394.737 Y89.463
N5235 G1 X396.14 Y90.762
N5240 G1 X397.965 Y92.543
N5245 G1 X399.413 Y94.032
N5250 G1 X401.265 Y96.007
N5255 G1 X403.229 Y98.181
N5260 G1 X404.815 Y99.971
N5265 G1 X405.123 Y100.326
N5270 G1 X381.945 Y80.737
N5275 G1 X382.584 Y81.061
N5280 G1 X383.841 Y81.71
N5285 G1 X385.661 Y82.731
N5290 G1 X387.155 Y83.644
N5295 G1 X388.877 Y84.785
N5300 G1 X390.816 Y86.199
N5305 G1 X392.483 Y87.517
N5310 G1 X392.907 Y87.877
N5315 G1 X392.955 Y87.923 Z-15.892 F1000
N5320 G1 X392.998 Y87.974 Z-15.885
N5325 G1 X393.034 Y88.026 Z-15.863
N5330 G1 X393.063 Y88.083 Z-15.841
N5335 G1 X393.084 Y88.135 Z-15.805
N5340 G1 X393.101 Y88.19 Z-15.769
N5345 G1 X393.116 Y88.283 Z-15.674
N5350 G1 X393.118 Y88.355 Z-15.56
N5355 G1 X393.115 Y88.399 Z-15.434
N5360 G1 X393.113 Y88.414 Z-15.3
N5365 G0 Z15
N5370 G28 G91 Z0
N5375 G90
N5380 G28 G91 X0 Y0
N5385 G90
N5390 M30
%
