%
(SlopeParallel)
(SlopeParallel)
(T1 D=6 CR=0 - ZMIN=-16.493 - flat end mill)
N10 G90 G94
N15 G17
N20 G21
N25 G28 G91 Z0
N30 G90

(SlopeParallel)
N35 T1 M6
N40 S14000 M3
N45 G54
N50 G0 X346.319 Y71.937
N55 G0 G43 Z15 H1
N60 G0 Z-10.26
N65 G1 Z-11.617 F1000
N70 G18 G3 X345.638 Z-12.211 I-0.6 K0
N75 G1 X341.848 Z-11.695 F420
N80 G3 X341.329 Z-11.101 I0.081 K0.595 F1000
N85 G0 Z5
N90 G0 X367.821 Y74.937
N95 G0 Z-12.882
N100 G1 Z-14.238 F1000
N105 G3 X367.131 Z-14.832 I-0.6 K0
N110 G1 X363.483 Z-14.276 F420
N115 G1 X359.599 Z-13.696
N120 G1 X354.71 Z-12.987
N125 G1 X349.644 Z-12.275
N130 G1 X345.273 Z-11.679
N135 G1 X342.055 Z-11.252
N140 G1 X337.881 Z-10.709
N145 G1 X333.072 Z-10.105
N150 G1 X328.985 Z-9.608
N155 G1 X325.256 Z-9.167
N160 G1 X321.187 Z-8.7
N165 G1 X317.067 Z-8.242
N170 G1 X313.437 Z-7.851
N175 G1 X299.608 Z-6.36
N180 G1 X299.55 Y74.939 Z-6.354
N185 G1 X299.491 Y74.944 Z-6.347
N190 G1 X299.434 Y74.954 Z-6.34
N195 G1 X299.377 Y74.967 Z-6.333
N200 G1 X299.321 Y74.984 Z-6.326
N205 G1 X299.266 Y75.005 Z-6.318
N210 G1 X299.213 Y75.029 Z-6.311
N215 G1 X299.162 Y75.057 Z-6.303
N220 G1 X299.112 Y75.088 Z-6.296
N225 G1 X299.065 Y75.122 Z-6.288
N230 G1 X299.02 Y75.159 Z-6.28
N235 G1 X298.978 Y75.2 Z-6.273
N240 G1 X298.938 Y75.242 Z-6.265
N245 G1 X298.901 Y75.288 Z-6.258
N250 G1 X298.867 Y75.336 Z-6.251
N255 G1 X298.837 Y75.385 Z-6.244
N260 G1 X298.81 Y75.437 Z-6.237
N265 G1 X298.786 Y75.491 Z-6.23
N270 G1 X298.766 Y75.546 Z-6.224
N275 G1 X298.749 Y75.602 Z-6.218
N280 G1 X298.736 Y75.659 Z-6.212
N285 G1 X298.727 Y75.717 Z-6.207
N290 G1 X298.722 Y75.775 Z-6.202
N295 G1 X298.721 Y75.834 Z-6.198
N300 G1 X298.73 Y77.039 Z-6.109
N305 G1 X298.732 Y77.097 Z-6.104
N310 G1 X298.739 Y77.156 Z-6.101
N315 G1 X298.749 Y77.214 Z-6.098
N320 G1 X298.762 Y77.271 Z-6.095
N325 G1 X298.78 Y77.327 Z-6.092
N330 G1 X298.801 Y77.382 Z-6.091
N335 G1 X298.826 Y77.436 Z-6.089
N340 G1 X298.854 Y77.487 Z-6.088
N345 G1 X298.885 Y77.537
N350 G1 X298.919 Y77.585
N355 G1 X298.957 Y77.63 Z-6.089
N360 G1 X298.997 Y77.673 Z-6.09
N365 G1 X299.04 Y77.713 Z-6.092
N370 G1 X299.086 Y77.751 Z-6.094
N375 G1 X299.134 Y77.785 Z-6.096
N380 G1 X299.184 Y77.816 Z-6.099
N385 G1 X299.236 Y77.844 Z-6.103
N390 G1 X299.289 Y77.868 Z-6.107
N395 G1 X299.344 Y77.888 Z-6.111
N400 G1 X299.4 Y77.906 Z-6.116
N405 G1 X299.457 Y77.919 Z-6.121
N410 G1 X299.515 Y77.928 Z-6.127
N415 G1 X299.574 Y77.934 Z-6.133
N420 G1 X299.632 Y77.936 Z-6.139
N425 G1 X303.407 Z-6.489
N430 G1 X307.82 Z-6.913
N435 G1 X312.186 Z-7.351
N440 G1 X316.369 Z-7.785
N445 G1 X320.787 Z-8.26
N450 G1 X325.006 Z-8.73
N455 G1 X328.935 Z-9.183
N460 G1 X332.195 Z-9.568
N465 G1 X336.39 Z-10.077
N470 G1 X341.625 Z-10.734
N475 G1 X346.788 Z-11.407
N480 G1 X351.54 Z-12.047
N485 G1 X355.112 Z-12.543
N490 G1 X358.721 Z-13.053
N495 G1 X363.9 Z-13.807
N500 G1 X368.709 Z-14.529
N505 G1 X372.937 Z-15.183
N510 G1 X375.781 Z-15.629
N515 G1 X375.842 Z-15.633
N520 G1 X375.903 Z-15.623
N525 G1 X375.96 Z-15.602
N530 G1 X376.024 Z-15.579
N535 G1 X376.092 Z-15.572
N540 G1 X382.673
N545 G1 X382.732 Y77.938
N550 G1 X382.79 Y77.944 Z-15.573
N555 G1 X382.848 Y77.953 Z-15.574
N560 G1 X382.906 Y77.966 Z-15.577
N565 G1 X382.962 Y77.983 Z-15.579
N570 G1 X383.017 Y78.004 Z-15.583
N575 G1 X383.071 Y78.028 Z-15.586
N580 G1 X383.123 Y78.055 Z-15.591
N585 G1 X383.173 Y78.086 Z-15.596
N590 G1 X383.221 Y78.12 Z-15.601
N595 G1 X383.266 Y78.157 Z-15.607
N600 G1 X383.309 Y78.196 Z-15.614
N605 G1 X383.349 Y78.239 Z-15.621
N610 G1 X383.387 Y78.284 Z-15.628
N615 G1 X383.421 Y78.331 Z-15.636
N620 G1 X383.452 Y78.38 Z-15.644
N625 G1 X383.48 Y78.432 Z-15.652
N630 G1 X383.504 Y78.485 Z-15.66
N635 G1 X383.525 Y78.539 Z-15.669
N640 G1 X383.542 Y78.595 Z-15.678
N645 G1 X383.556 Y78.651 Z-15.687
N650 G1 X383.565 Y78.709 Z-15.697
N655 G1 X383.571 Y78.766 Z-15.706
N660 G1 X383.573 Y78.825 Z-15.716
N665 G1 Y80.047 Z-15.914
N670 G1 X383.571 Y80.105 Z-15.923
N675 G1 X383.565 Y80.163 Z-15.932
N680 G1 X383.556 Y80.22 Z-15.942
N685 G1 X383.542 Y80.277 Z-15.951
N690 G1 X383.525 Y80.333 Z-15.96
N695 G1 X383.504 Y80.387 Z-15.969
N700 G1 X383.48 Y80.44 Z-15.977
N705 G1 X383.452 Y80.491 Z-15.986
N710 G1 X383.421 Y80.541 Z-15.994
N715 G1 X383.387 Y80.588 Z-16.001
N720 G1 X383.349 Y80.633 Z-16.009
N725 G1 X383.309 Y80.675 Z-16.015
N730 G1 X383.266 Y80.715 Z-16.022
N735 G1 X383.221 Y80.752 Z-16.028
N740 G1 X383.173 Y80.786 Z-16.033
N745 G1 X383.123 Y80.817 Z-16.038
N750 G1 X383.071 Y80.844 Z-16.043
N755 G1 X383.017 Y80.868 Z-16.047
N760 G1 X382.962 Y80.888 Z-16.05
N765 G1 X382.906 Y80.905 Z-16.053
N770 G1 X382.848 Y80.919 Z-16.055
N775 G1 X382.79 Y80.928 Z-16.056
N780 G1 X382.732 Y80.934 Z-16.057
N785 G1 X382.673 Y80.936 Z-16.058
N790 G1 X382.605 Z-16.065
N795 G1 X382.541 Z-16.088
N800 G1 X382.483 Z-16.109
N805 G1 X382.423 Z-16.119
N810 G1 X382.361 Z-16.115
N815 G1 X378.658 Z-15.523
N820 G1 X376.243 Z-15.145
N825 G1 X371.972 Z-14.485
N830 G1 X367.214 Z-13.772
N835 G1 X361.489 Z-12.941
N840 G1 X356.047 Z-12.178
N845 G1 X350.612 Z-11.443
N850 G1 X345.112 Z-10.726
N855 G1 X339.515 Z-10.024
N860 G1 X334.213 Z-9.385
N865 G1 X329.244 Z-8.808
N870 G1 X324.671 Z-8.297
N875 G1 X320.151 Z-7.81
N880 G1 X316.036 Z-7.381
N885 G1 X311.531 Z-6.929
N890 G1 X307.031 Z-6.496
N895 G1 X302.732 Z-6.098
N900 G1 X298.453 Z-5.718
N905 G1 X294.228 Z-5.358
N910 G1 X289.927 Z-5.007
N915 G1 X289.44 Z-4.969
N920 G1 X289.41 Z-4.965
N925 G1 X281.181 Z-3.476
N930 G1 X281.123 Y80.937 Z-3.466
N935 G1 X281.065 Y80.943 Z-3.456
N940 G1 X281.008 Y80.953 Z-3.448
N945 G1 X280.951 Y80.966 Z-3.44
N950 G1 X280.895 Y80.982 Z-3.434
N955 G1 X280.84 Y81.003 Z-3.428
N960 G1 X280.786 Y81.026 Z-3.423
N965 G1 X280.734 Y81.054 Z-3.42
N970 G1 X280.684 Y81.084 Z-3.417
N975 G1 X280.635 Y81.118 Z-3.415
N980 G1 X280.589 Y81.154 Z-3.414
N985 G1 X280.545 Y81.194 Z-3.415
N990 G1 X280.504 Y81.236 Z-3.416
N995 G1 X280.466 Y81.28 Z-3.418
N1000 G1 X280.43 Y81.327 Z-3.422
N1005 G1 X280.398 Y81.376 Z-3.426
N1010 G1 X280.369 Y81.427 Z-3.432
N1015 G1 X280.343 Y81.48 Z-3.438
N1020 G1 X280.32 Y81.534 Z-3.445
N1025 G1 X280.302 Y81.589 Z-3.453
N1030 G1 X280.286 Y81.645 Z-3.462
N1035 G1 X280.275 Y81.702 Z-3.472
N1040 G1 X280.267 Y81.759 Z-3.483
N1045 G1 X280.263 Y81.817 Z-3.494
N1050 G1 X280.218 Y83.054 Z-3.744
N1055 G1 Y83.111 Z-3.756
N1060 G1 X280.221 Y83.169 Z-3.769
N1065 G1 X280.228 Y83.226 Z-3.782
N1070 G1 X280.24 Y83.282 Z-3.796
N1075 G1 X280.254 Y83.337 Z-3.81
N1080 G1 X280.273 Y83.391 Z-3.825
N1085 G1 X280.295 Y83.443 Z-3.84
N1090 G1 X280.32 Y83.494 Z-3.855
N1095 G1 X280.349 Y83.543 Z-3.871
N1100 G1 X280.381 Y83.59 Z-3.886
N1105 G1 X280.416 Y83.635 Z-3.902
N1110 G1 X280.454 Y83.677 Z-3.918
N1115 G1 X280.495 Y83.716 Z-3.933
N1120 G1 X280.539 Y83.753 Z-3.949
N1125 G1 X280.584 Y83.786 Z-3.964
N1130 G1 X280.633 Y83.817 Z-3.979
N1135 G1 X280.683 Y83.844 Z-3.994
N1140 G1 X280.735 Y83.868 Z-4.008
N1145 G1 X280.788 Y83.888 Z-4.022
N1150 G1 X280.843 Y83.905 Z-4.036
N1155 G1 X280.899 Y83.918 Z-4.048
N1160 G1 X280.956 Y83.928 Z-4.061
N1165 G1 X281.013 Y83.933 Z-4.072
N1170 G1 X281.071 Y83.935 Z-4.083
N1175 G1 X281.103 Z-4.087
N1180 G1 X284.529 Z-4.329
N1185 G1 X289.07 Z-4.664
N1190 G1 X293.5 Z-5.009
N1195 G1 X297.835 Z-5.363
N1200 G1 X301.99 Z-5.717
N1205 G1 X306.27 Z-6.097
N1210 G1 X310.507 Z-6.489
N1215 G1 X314.92 Z-6.914
N1220 G1 X319.315 Z-7.354
N1225 G1 X323.496 Z-7.788
N1230 G1 X327.861 Z-8.257
N1235 G1 X332.186 Z-8.739
N1240 G1 X337.18 Z-9.316
N1245 G1 X342.599 Z-9.967
N1250 G1 X348.237 Z-10.672
N1255 G1 X353.776 Z-11.392
N1260 G1 X359.224 Z-12.127
N1265 G1 X364.783 Z-12.904
N1270 G1 X370.657 Z-13.756
N1275 G1 X375.358 Z-14.461
N1280 G1 X380.153 Z-15.201
N1285 G1 X383.2 Z-15.68
N1290 G1 X387.613 Z-16.391
N1295 G1 X387.674 Z-16.395
N1300 G1 X387.735 Z-16.386
N1305 G1 X387.793 Z-16.364
N1310 G1 X387.857 Z-16.342
N1315 G1 X387.925 Z-16.334
N1320 G1 X392.075
N1325 G1 X392.134 Y83.937
N1330 G1 X392.192 Y83.943
N1335 G1 X392.25 Y83.952
N1340 G1 X392.308 Y83.966 Z-16.335
N1345 G1 X392.364 Y83.983
N1350 G1 X392.419 Y84.004 Z-16.336
N1355 G1 X392.473 Y84.028 Z-16.337
N1360 G1 X392.525 Y84.056 Z-16.338
N1365 G1 X392.575 Y84.087 Z-16.339
N1370 G1 X392.623 Y84.121 Z-16.34
N1375 G1 X392.668 Y84.158 Z-16.341
N1380 G1 X392.711 Y84.199 Z-16.342
N1385 G1 X392.751 Y84.241 Z-16.344
N1390 G1 X392.789 Y84.287 Z-16.345
N1395 G1 X392.823 Y84.335 Z-16.347
N1400 G1 X392.854 Y84.385 Z-16.348
N1405 G1 X392.882 Y84.437 Z-16.35
N1410 G1 X392.906 Y84.49 Z-16.352
N1415 G1 X392.927 Y84.545 Z-16.354
N1420 G1 X392.944 Y84.602 Z-16.356
N1425 G1 X392.957 Y84.659 Z-16.357
N1430 G1 X392.967 Y84.717 Z-16.359
N1435 G1 X392.973 Y84.776 Z-16.361
N1440 G1 X392.975 Y84.835 Z-16.363
N1445 G1 Y86.035 Z-16.402
N1450 G1 X392.973 Y86.094 Z-16.404
N1455 G1 X392.967 Y86.152 Z-16.406
N1460 G1 X392.957 Y86.211 Z-16.408
N1465 G1 X392.944 Y86.268 Z-16.41
N1470 G1 X392.927 Y86.324 Z-16.412
N1475 G1 X392.906 Y86.379 Z-16.414
N1480 G1 X392.882 Y86.433 Z-16.415
N1485 G1 X392.854 Y86.485 Z-16.417
N1490 G1 X392.823 Y86.535 Z-16.419
N1495 G1 X392.789 Y86.583 Z-16.42
N1500 G1 X392.751 Y86.628 Z-16.422
N1505 G1 X392.711 Y86.671 Z-16.423
N1510 G1 X392.668 Y86.711 Z-16.424
N1515 G1 X392.623 Y86.749 Z-16.426
N1520 G1 X392.575 Y86.783 Z-16.427
N1525 G1 X392.525 Y86.814 Z-16.428
N1530 G1 X392.473 Y86.842 Z-16.429
N1535 G1 X392.419 Y86.866
N1540 G1 X392.364 Y86.887 Z-16.43
N1545 G1 X392.308 Y86.904 Z-16.431
N1550 G1 X392.25 Y86.917
N1555 G1 X392.192 Y86.927
N1560 G1 X392.134 Y86.933 Z-16.432
N1565 G1 X392.075 Y86.935
N1570 G1 X392.007 Z-16.439
N1575 G1 X391.943 Z-16.462
N1580 G1 X391.885 Z-16.484
N1585 G1 X391.824 Z-16.493
N1590 G1 X391.763 Z-16.489
N1595 G1 X387.752 Z-15.84
N1600 G1 X383.892 Z-15.23
N1605 G1 X378.786 Z-14.442
N1610 G1 X374.104 Z-13.741
N1615 G1 X368.079 Z-12.868
N1620 G1 X362.554 Z-12.097
N1625 G1 X357.098 Z-11.362
N1630 G1 X351.527 Z-10.639
N1635 G1 X345.903 Z-9.937
N1640 G1 X340.45 Z-9.283
N1645 G1 X335.446 Z-8.706
N1650 G1 X331.164 Z-8.231
N1655 G1 X326.904 Z-7.773
N1660 G1 X322.572 Z-7.324
N1665 G1 X318.345 Z-6.901
N1670 G1 X313.991 Z-6.483
N1675 G1 X309.784 Z-6.094
N1680 G1 X305.503 Z-5.714
N1685 G1 X301.416 Z-5.365
N1690 G1 X297.084 Z-5.012
N1695 G1 X292.616 Z-4.664
N1700 G1 X288.076 Z-4.328
N1705 G1 X283.54 Z-4.011
N1710 G1 X278.915 Z-3.704
N1715 G1 X274.43 Z-3.425
N1720 G1 X273.872 Z-3.391
N1725 G1 X267.433 Z-3.004
N1730 G1 X267.374 Y86.936 Z-3
N1735 G1 X267.315 Y86.942 Z-2.996
N1740 G1 X267.257 Y86.952 Z-2.992
N1745 G1 X267.2 Y86.965 Z-2.988
N1750 G1 X267.144 Y86.982 Z-2.983
N1755 G1 X267.089 Y87.003 Z-2.979
N1760 G1 X267.036 Y87.027 Z-2.974
N1765 G1 X266.984 Y87.055 Z-2.97
N1770 G1 X266.934 Y87.086 Z-2.965
N1775 G1 X266.886 Y87.12 Z-2.96
N1780 G1 X266.841 Y87.158 Z-2.955
N1785 G1 X266.798 Y87.198 Z-2.95
N1790 G1 X266.758 Y87.241 Z-2.946
N1795 G1 X266.721 Y87.286 Z-2.941
N1800 G1 X266.687 Y87.334 Z-2.936
N1805 G1 X266.656 Y87.384 Z-2.931
N1810 G1 X266.629 Y87.436 Z-2.927
N1815 G1 X266.604 Y87.489 Z-2.922
N1820 G1 X266.584 Y87.544 Z-2.918
N1825 G1 X266.567 Y87.601 Z-2.914
N1830 G1 X266.554 Y87.658 Z-2.91
N1835 G1 X266.545 Y87.716 Z-2.906
N1840 G1 X266.539 Y87.774 Z-2.902
N1845 G1 X266.537 Y87.833 Z-2.899
N1850 G1 X266.541 Y89.035 Z-2.831
N1855 G1 X266.543 Y89.094 Z-2.828
N1860 G1 X266.549 Y89.153 Z-2.825
N1865 G1 X266.559 Y89.211 Z-2.823
N1870 G1 X266.573 Y89.268 Z-2.82
N1875 G1 X266.59 Y89.324 Z-2.818
N1880 G1 X266.611 Y89.379 Z-2.816
N1885 G1 X266.635 Y89.433 Z-2.815
N1890 G1 X266.663 Y89.485 Z-2.813
N1895 G1 X266.694 Y89.535 Z-2.812
N1900 G1 X266.729 Y89.582
N1905 G1 X266.766 Y89.628 Z-2.811
N1910 G1 X266.807 Y89.671
N1915 G1 X266.85 Y89.711 Z-2.812
N1920 G1 X266.895 Y89.748
N1925 G1 X266.943 Y89.783 Z-2.813
N1930 G1 X266.993 Y89.814 Z-2.815
N1935 G1 X267.045 Y89.841 Z-2.816
N1940 G1 X267.099 Y89.866 Z-2.818
N1945 G1 X267.154 Y89.886 Z-2.82
N1950 G1 X267.21 Y89.903 Z-2.823
N1955 G1 X267.267 Y89.917 Z-2.825
N1960 G1 X267.325 Y89.926 Z-2.828
N1965 G1 X267.384 Y89.932 Z-2.832
N1970 G1 X267.443 Y89.934 Z-2.835
N1975 G1 X269.505 Z-2.943
N1980 G1 X273.873 Z-3.184
N1985 G1 X278.073 Z-3.431
N1990 G1 X282.508 Z-3.707
N1995 G1 X287.088 Z-4.01
N2000 G1 X291.583 Z-4.325
N2005 G1 X296.204 Z-4.667
N2010 G1 X300.632 Z-5.012
N2015 G1 X304.857 Z-5.356
N2020 G1 X308.847 Z-5.696
N2025 G1 X313.137 Z-6.076
N2030 G1 X317.257 Z-6.456
N2035 G1 X321.383 Z-6.851
N2040 G1 X325.539 Z-7.265
N2045 G1 X330.201 Z-7.746
N2050 G1 X334.414 Z-8.198
N2055 G1 X338.732 Z-8.677
N2060 G1 X343.77 Z-9.256
N2065 G1 X349.209 Z-9.907
N2070 G1 X354.889 Z-10.615
N2075 G1 X360.444 Z-11.335
N2080 G1 X365.932 Z-12.073
N2085 G1 X371.44 Z-12.841
N2090 G1 X377.573 Z-13.729
N2095 G1 X382.256 Z-14.43
N2100 G1 X387.806 Z-15.287
N2105 G1 X391.575 Z-15.884
N2110 G1 X395.257 Z-16.48
N2115 G1 X395.318 Z-16.483
N2120 G1 X395.379 Z-16.474
N2125 G1 X395.437 Z-16.453
N2130 G1 X395.501 Z-16.43
N2135 G1 X395.569 Z-16.422
N2140 G1 X398.663
N2145 G1 X398.721 Y89.936
N2150 G1 X398.78 Y89.942
N2155 G1 X398.838 Y89.951
N2160 G1 X398.896 Y89.965
N2165 G1 X398.952 Y89.982 Z-16.421
N2170 G1 X399.007 Y90.003
N2175 G1 X399.061 Y90.027 Z-16.42
N2180 G1 X399.113 Y90.055
N2185 G1 X399.163 Y90.086 Z-16.419
N2190 G1 X399.211 Y90.12 Z-16.418
N2195 G1 X399.256 Y90.157 Z-16.417
N2200 G1 X399.299 Y90.198 Z-16.416
N2205 G1 X399.339 Y90.241 Z-16.415
N2210 G1 X399.377 Y90.286 Z-16.414
N2215 G1 X399.411 Y90.334 Z-16.413
N2220 G1 X399.442 Y90.384 Z-16.411
N2225 G1 X399.47 Y90.436 Z-16.41
N2230 G1 X399.494 Y90.489 Z-16.409
N2235 G1 X399.515 Y90.545 Z-16.407
N2240 G1 X399.532 Y90.601 Z-16.406
N2245 G1 X399.545 Y90.658 Z-16.405
N2250 G1 X399.555 Y90.716 Z-16.403
N2255 G1 X399.561 Y90.775 Z-16.402
N2260 G1 X399.563 Y90.834 Z-16.4
N2265 G1 Y92.034 Z-16.37
N2270 G1 X399.561 Y92.093 Z-16.369
N2275 G1 X399.555 Y92.151 Z-16.368
N2280 G1 X399.545 Y92.209 Z-16.366
N2285 G1 X399.532 Y92.267 Z-16.365
N2290 G1 X399.515 Y92.323 Z-16.363
N2295 G1 X399.494 Y92.378 Z-16.362
N2300 G1 X399.47 Y92.432 Z-16.361
N2305 G1 X399.442 Y92.484 Z-16.359
N2310 G1 X399.411 Y92.534 Z-16.358
N2315 G1 X399.377 Y92.581 Z-16.357
N2320 G1 X399.339 Y92.627 Z-16.356
N2325 G1 X399.299 Y92.67 Z-16.355
N2330 G1 X399.256 Y92.71 Z-16.354
N2335 G1 X399.211 Y92.748 Z-16.353
N2340 G1 X399.163 Y92.782 Z-16.352
N2345 G1 X399.113 Y92.813 Z-16.351
N2350 G1 X399.061 Y92.841 Z-16.35
N2355 G1 X399.007 Y92.865
N2360 G1 X398.952 Y92.886 Z-16.349
N2365 G1 X398.896 Y92.903
N2370 G1 X398.838 Y92.916
N2375 G1 X398.78 Y92.926 Z-16.348
N2380 G1 X398.721 Y92.932
N2385 G1 X398.663 Y92.933
N2390 G1 X398.595 Z-16.356
N2395 G1 X398.531 Z-16.379
N2400 G1 X398.473 Z-16.4
N2405 G1 X398.412 Z-16.409
N2410 G1 X398.351 Z-16.406
N2415 G1 X394.052 Z-15.712
N2420 G1 X390.837 Z-15.206
N2425 G1 X385.708 Z-14.415
N2430 G1 X381.043 Z-13.717
N2435 G1 X374.905 Z-12.83
N2440 G1 X369.417 Z-12.064
N2445 G1 X363.882 Z-11.32
N2450 G1 X358.323 Z-10.6
N2455 G1 X352.687 Z-9.899
N2460 G1 X347.245 Z-9.247
N2465 G1 X342.178 Z-8.665
N2470 G1 X337.856 Z-8.186
N2475 G1 X333.695 Z-7.74
N2480 G1 X329.06 Z-7.262
N2485 G1 X324.933 Z-6.851
N2490 G1 X320.806 Z-6.456
N2495 G1 X316.687 Z-6.076
N2500 G1 X312.362 Z-5.693
N2505 G1 X308.441 Z-5.359
N2510 G1 X304.181 Z-5.012
N2515 G1 X299.753 Z-4.667
N2520 G1 X295.133 Z-4.325
N2525 G1 X290.637 Z-4.01
N2530 G1 X286.103 Z-3.71
N2535 G1 X281.721 Z-3.437
N2540 G1 X277.529 Z-3.19
N2545 G1 X273.056 Z-2.943
N2550 G1 X268.715 Z-2.72
N2555 G1 X264.547 Z-2.52
N2560 G1 X261.7 Z-2.392
N2565 G1 X256.719 Z-2.168
N2570 G1 X256.66 Y92.935 Z-2.165
N2575 G1 X256.602 Y92.941 Z-2.162
N2580 G1 X256.544 Y92.951 Z-2.159
N2585 G1 X256.486 Y92.964 Z-2.156
N2590 G1 X256.43 Y92.981 Z-2.153
N2595 G1 X256.375 Y93.002 Z-2.15
N2600 G1 X256.322 Y93.026 Z-2.147
N2605 G1 X256.27 Y93.054 Z-2.144
N2610 G1 X256.22 Y93.085 Z-2.14
N2615 G1 X256.172 Y93.119 Z-2.137
N2620 G1 X256.127 Y93.157 Z-2.134
N2625 G1 X256.084 Y93.197 Z-2.131
N2630 G1 X256.044 Y93.24 Z-2.128
N2635 G1 X256.006 Y93.285 Z-2.124
N2640 G1 X255.972 Y93.333 Z-2.121
N2645 G1 X255.941 Y93.383 Z-2.118
N2650 G1 X255.913 Y93.435 Z-2.115
N2655 G1 X255.889 Y93.489 Z-2.113
N2660 G1 X255.869 Y93.544 Z-2.11
N2665 G1 X255.852 Y93.6 Z-2.107
N2670 G1 X255.838 Y93.658 Z-2.105
N2675 G1 X255.829 Y93.716 Z-2.103
N2680 G1 X255.823 Y93.774 Z-2.101
N2685 G1 X255.821 Y93.833 Z-2.099
N2690 G1 X255.823 Y95.033 Z-2.06
N2695 G1 X255.825 Y95.092 Z-2.059
N2700 G1 X255.831 Y95.151 Z-2.057
N2705 G1 X255.84 Y95.209 Z-2.056
N2710 G1 X255.854 Y95.266 Z-2.054
N2715 G1 X255.871 Y95.323 Z-2.053
N2720 G1 X255.892 Y95.378 Z-2.052
N2725 G1 X255.916 Y95.431
N2730 G1 X255.944 Y95.483 Z-2.051
N2735 G1 X255.975 Y95.533
N2740 G1 X256.01 Y95.581
N2745 G1 X256.047 Y95.627
N2750 G1 X256.087 Y95.67 Z-2.052
N2755 G1 X256.13 Y95.71 Z-2.053
N2760 G1 X256.176 Y95.747
N2765 G1 X256.224 Y95.781 Z-2.054
N2770 G1 X256.274 Y95.812 Z-2.056
N2775 G1 X256.326 Y95.84 Z-2.057
N2780 G1 X256.379 Y95.865 Z-2.059
N2785 G1 X256.434 Y95.885 Z-2.061
N2790 G1 X256.491 Y95.902 Z-2.063
N2795 G1 X256.548 Y95.916 Z-2.065
N2800 G1 X256.606 Y95.925 Z-2.067
N2805 G1 X256.665 Y95.931 Z-2.07
N2810 G1 X256.723 Y95.933 Z-2.072
N2815 G1 X258.301 Z-2.116
N2820 G1 X259.935 Z-2.172
N2825 G1 X263.76 Z-2.328
N2830 G1 X268.06 Z-2.518
N2835 G1 X272.232 Z-2.718
N2840 G1 X276.63 Z-2.944
N2845 G1 X281.153 Z-3.194
N2850 G1 X285.341 Z-3.441
N2855 G1 X289.673 Z-3.712
N2860 G1 X294.163 Z-4.009
N2865 G1 X298.66 Z-4.324
N2870 G1 X303.32 Z-4.668
N2875 G1 X307.783 Z-5.016
N2880 G1 X312.004 Z-5.361
N2885 G1 X315.858 Z-5.688
N2890 G1 X320.25 Z-6.077
N2895 G1 X324.4 Z-6.46
N2900 G1 X328.525 Z-6.856
N2905 G1 X332.621 Z-7.263
N2910 G1 X337.2 Z-7.735
N2915 G1 X341.362 Z-8.181
N2920 G1 X345.659 Z-8.657
N2925 G1 X350.729 Z-9.24
N2930 G1 X356.174 Z-9.891
N2935 G1 X361.813 Z-10.593
N2940 G1 X367.398 Z-11.316
N2945 G1 X372.912 Z-12.057
N2950 G1 X378.381 Z-12.819
N2955 G1 X384.522 Z-13.707
N2960 G1 X389.188 Z-14.405
N2965 G1 X394.301 Z-15.193
N2970 G1 X396.86 Z-15.595
N2975 G1 X401.197 Z-16.291
N2980 G1 X401.258 Z-16.294
N2985 G1 X401.319 Z-16.285
N2990 G1 X401.377 Z-16.264
N2995 G1 X401.441 Z-16.241
N3000 G1 X401.509 Z-16.233
N3005 G1 X404.211
N3010 G1 X404.269 Y95.935
N3015 G1 X404.328 Y95.941
N3020 G1 X404.386 Y95.95
N3025 G1 X404.443 Y95.964 Z-16.232
N3030 G1 X404.5 Y95.981 Z-16.231
N3035 G1 X404.555 Y96.001 Z-16.23
N3040 G1 X404.609 Y96.026 Z-16.229
N3045 G1 X404.66 Y96.053 Z-16.228
N3050 G1 X404.711 Y96.084 Z-16.227
N3055 G1 X404.758 Y96.119 Z-16.225
N3060 G1 X404.804 Y96.156 Z-16.223
N3065 G1 X404.847 Y96.196 Z-16.221
N3070 G1 X404.887 Y96.239 Z-16.219
N3075 G1 X404.925 Y96.285 Z-16.217
N3080 G1 X404.959 Y96.333 Z-16.215
N3085 G1 X404.99 Y96.382 Z-16.213
N3090 G1 X405.018 Y96.434 Z-16.21
N3095 G1 X405.042 Y96.488 Z-16.208
N3100 G1 X405.063 Y96.543 Z-16.205
N3105 G1 X405.08 Y96.599 Z-16.203
N3110 G1 X405.093 Y96.657 Z-16.2
N3115 G1 X405.103 Y96.715 Z-16.198
N3120 G1 X405.109 Y96.773 Z-16.195
N3125 G1 X405.111 Y96.832 Z-16.192
N3130 G1 Y98.033 Z-16.137
N3135 G1 X405.109 Y98.092 Z-16.134
N3140 G1 X405.103 Y98.151 Z-16.132
N3145 G1 X405.093 Y98.209 Z-16.129
N3150 G1 X405.08 Y98.266 Z-16.126
N3155 G1 X405.063 Y98.322 Z-16.124
N3160 G1 X405.042 Y98.377 Z-16.121
N3165 G1 X405.018 Y98.431 Z-16.119
N3170 G1 X404.99 Y98.483 Z-16.117
N3175 G1 X404.959 Y98.533 Z-16.114
N3180 G1 X404.925 Y98.581 Z-16.112
N3185 G1 X404.887 Y98.626 Z-16.11
N3190 G1 X404.847 Y98.669 Z-16.108
N3195 G1 X404.804 Y98.709 Z-16.106
N3200 G1 X404.758 Y98.747 Z-16.104
N3205 G1 X404.711 Y98.781 Z-16.103
N3210 G1 X404.66 Y98.812 Z-16.101
N3215 G1 X404.609 Y98.84 Z-16.1
N3220 G1 X404.555 Y98.864 Z-16.099
N3225 G1 X404.5 Y98.885 Z-16.098
N3230 G1 X404.443 Y98.902 Z-16.097
N3235 G1 X404.386 Y98.915
N3240 G1 X404.328 Y98.925 Z-16.096
N3245 G1 X404.269 Y98.931
N3250 G1 X404.211 Y98.932
N3255 G1 X404.143 Z-16.104
N3260 G1 X404.078 Z-16.127
N3265 G1 X404.021 Z-16.148
N3270 G1 X403.96 Z-16.157
N3275 G1 X403.899 Z-16.153
N3280 G1 X400.124 Z-15.55
N3285 G1 X397.751 Z-15.178
N3290 G1 X392.794 Z-14.413
N3295 G1 X388.069 Z-13.707
N3300 G1 X381.863 Z-12.81
N3305 G1 X376.414 Z-12.051
N3310 G1 X370.899 Z-11.309
N3315 G1 X365.312 Z-10.586
N3320 G1 X359.673 Z-9.885
N3325 G1 X354.227 Z-9.234
N3330 G1 X349.158 Z-8.652
N3335 G1 X344.857 Z-8.175
N3340 G1 X340.693 Z-7.73
N3345 G1 X336.17 Z-7.263
N3350 G1 X332.105 Z-6.858
N3355 G1 X327.982 Z-6.463
N3360 G1 X323.865 Z-6.083
N3365 G1 X319.475 Z-5.694
N3370 G1 X315.659 Z-5.369
N3375 G1 X311.369 Z-5.019
N3380 G1 X306.868 Z-4.668
N3385 G1 X302.208 Z-4.324
N3390 G1 X297.711 Z-4.009
N3395 G1 X293.266 Z-3.714
N3400 G1 X288.985 Z-3.447
N3405 G1 X284.752 Z-3.197
N3410 G1 X280.232 Z-2.947
N3415 G1 X275.779 Z-2.718
N3420 G1 X271.605 Z-2.518
N3425 G1 X267.383 Z-2.331
N3430 G1 X263.423 Z-2.17
N3435 G1 X261.885 Z-2.117
N3440 G1 X260.46 Z-2.077
N3445 G1 X258.717 Z-2.039
N3450 G1 X256.911 Z-2.014
N3455 G1 X255.033 Z-2.002
N3460 G1 X252.526 Z-2
N3465 G1 X252.458 Z-1.992
N3470 G1 X252.394 Z-1.969
N3475 G1 X252.33 Z-1.947
N3480 G1 X252.262 Z-1.939
N3485 G17 G2 X251.362 Y99.832 I0 J0.9
N3490 G1 Y101.032
N3495 G2 X252.262 Y101.932 I0.9 J0
N3500 G1 X253.06
N3505 G1 X253.128 Z-1.947
N3510 G1 X253.192 Z-1.969
N3515 G1 X253.256 Z-1.992
N3520 G1 X253.324 Z-2
N3525 G1 X258.168
N3530 G1 X260.314 Z-2.012
N3535 G1 X262.028 Z-2.034
N3540 G1 X263.939 Z-2.075
N3545 G1 X265.407 Z-2.116
N3550 G1 X267.041 Z-2.172
N3555 G1 X271.065 Z-2.336
N3560 G1 X275.275 Z-2.524
N3565 G1 X279.381 Z-2.721
N3570 G1 X283.832 Z-2.95
N3575 G1 X288.401 Z-3.203
N3580 G1 X292.677 Z-3.455
N3585 G1 X296.904 Z-3.72
N3590 G1 X301.302 Z-4.011
N3595 G1 X305.796 Z-4.326
N3600 G1 X310.455 Z-4.671
N3605 G1 X314.954 Z-5.021
N3610 G1 X319.17 Z-5.366
N3615 G1 X322.92 Z-5.685
N3620 G1 X327.379 Z-6.08
N3625 G1 X331.528 Z-6.463
N3630 G1 X335.652 Z-6.858
N3635 G1 X339.717 Z-7.263
N3640 G1 X344.184 Z-7.723
N3645 G1 X348.351 Z-8.169
N3650 G1 X352.653 Z-8.645
N3655 G1 X357.724 Z-9.228
N3660 G1 X363.172 Z-9.879
N3665 G1 X368.837 Z-10.583
N3670 G1 X374.401 Z-11.303
N3675 G1 X379.918 Z-12.044
N3680 G1 X385.369 Z-12.804
N3685 G1 X391.697 Z-13.718
N3690 G1 X396.441 Z-14.428
N3695 G1 X400.895 Z-15.115
N3700 G1 X403.239 Z-15.481
N3705 G1 X406.521 Z-16.004
N3710 G1 X406.582 Z-16.008
N3715 G1 X406.643 Z-15.999
N3720 G1 X406.7 Z-15.977
N3725 G1 X406.764 Z-15.954
N3730 G1 X406.832 Z-15.947
N3735 G1 X409.254
N3740 G1 X409.312 Y101.934
N3745 G1 X409.371 Y101.94 Z-15.946
N3750 G1 X409.429 Y101.949
N3755 G1 X409.487 Y101.963 Z-15.945
N3760 G1 X409.543 Y101.98 Z-15.944
N3765 G1 X409.598 Y102 Z-15.943
N3770 G1 X409.652 Y102.025 Z-15.941
N3775 G1 X409.704 Y102.052 Z-15.939
N3780 G1 X409.754 Y102.083 Z-15.938
N3785 G1 X409.801 Y102.118 Z-15.935
N3790 G1 X409.847 Y102.155 Z-15.933
N3795 G1 X409.89 Y102.195 Z-15.931
N3800 G1 X409.93 Y102.238 Z-15.928
N3805 G1 X409.968 Y102.283 Z-15.925
N3810 G1 X410.002 Y102.331 Z-15.922
N3815 G1 X410.033 Y102.381 Z-15.919
N3820 G1 X410.061 Y102.433 Z-15.916
N3825 G1 X410.085 Y102.486 Z-15.913
N3830 G1 X410.106 Y102.542 Z-15.91
N3835 G1 X410.123 Y102.598 Z-15.906
N3840 G1 X410.136 Y102.655 Z-15.903
N3845 G1 X410.146 Y102.713 Z-15.899
N3850 G1 X410.152 Y102.772 Z-15.896
N3855 G1 X410.154 Y102.83 Z-15.892
N3860 G1 Y104.033 Z-15.819
N3865 G1 X410.152 Y104.092 Z-15.816
N3870 G1 X410.146 Y104.15 Z-15.812
N3875 G1 X410.136 Y104.208 Z-15.809
N3880 G1 X410.123 Y104.266 Z-15.805
N3885 G1 X410.106 Y104.322 Z-15.802
N3890 G1 X410.085 Y104.377 Z-15.798
N3895 G1 X410.061 Y104.43 Z-15.795
N3900 G1 X410.033 Y104.482 Z-15.792
N3905 G1 X410.002 Y104.532 Z-15.789
N3910 G1 X409.968 Y104.58 Z-15.786
N3915 G1 X409.93 Y104.625 Z-15.783
N3920 G1 X409.89 Y104.668 Z-15.781
N3925 G1 X409.847 Y104.708 Z-15.778
N3930 G1 X409.801 Y104.746 Z-15.776
N3935 G1 X409.754 Y104.78 Z-15.774
N3940 G1 X409.704 Y104.811 Z-15.772
N3945 G1 X409.652 Y104.839 Z-15.77
N3950 G1 X409.598 Y104.863 Z-15.769
N3955 G1 X409.543 Y104.884 Z-15.768
N3960 G1 X409.487 Y104.901 Z-15.767
N3965 G1 X409.429 Y104.914 Z-15.766
N3970 G1 X409.371 Y104.924 Z-15.765
N3975 G1 X409.312 Y104.929
N3980 G1 X409.254 Y104.931
N3985 G1 X409.186 Z-15.773
N3990 G1 X409.122 Z-15.795
N3995 G1 X409.064 Z-15.817
N4000 G1 X409.004 Z-15.826
N4005 G1 X408.943 Z-15.822
N4010 G1 X405.154 Z-15.224
N4015 G1 X400.107 Z-14.445
N4020 G1 X395.325 Z-13.73
N4025 G1 X389 Z-12.815
N4030 G1 X383.44 Z-12.041
N4035 G1 X377.922 Z-11.299
N4040 G1 X372.332 Z-10.576
N4045 G1 X366.665 Z-9.872
N4050 G1 X361.215 Z-9.221
N4055 G1 X356.168 Z-8.641
N4060 G1 X351.892 Z-8.168
N4065 G1 X347.753 Z-7.725
N4070 G1 X343.286 Z-7.265
N4075 G1 X339.253 Z-6.863
N4080 G1 X335.1 Z-6.465
N4085 G1 X330.952 Z-6.082
N4090 G1 X326.459 Z-5.684
N4095 G1 X322.712 Z-5.366
N4100 G1 X318.491 Z-5.02
N4105 G1 X314.029 Z-4.673
N4110 G1 X309.371 Z-4.328
N4115 G1 X304.88 Z-4.013
N4120 G1 X300.484 Z-3.722
N4125 G1 X296.26 Z-3.457
N4130 G1 X291.988 Z-3.205
N4135 G1 X287.366 Z-2.949
N4140 G1 X282.974 Z-2.723
N4145 G1 X278.868 Z-2.526
N4150 G1 X274.659 Z-2.338
N4155 G1 X270.566 Z-2.171
N4160 G1 X268.932 Z-2.115
N4165 G1 X267.358 Z-2.072
N4170 G1 X265.357 Z-2.031
N4175 G1 X263.788 Z-2.012
N4180 G1 X261.91 Z-2.001
N4185 G1 X256.874 Z-2
N4190 G1 X256.806 Z-1.992
N4195 G1 X256.742 Z-1.969
N4200 G1 X256.678 Z-1.947
N4205 G1 X256.61 Z-1.939
N4210 G2 X255.71 Y105.831 I0 J0.9
N4215 G1 Y107.031
N4220 G2 X256.61 Y107.931 I0.9 J0
N4225 G1 X260.16
N4230 G1 X260.228 Z-1.947
N4235 G1 X260.292 Z-1.969
N4240 G1 X260.356 Z-1.992
N4245 G1 X260.424 Z-2
N4250 G1 X265.416 Z-2.001
N4255 G1 X267.294 Z-2.011
N4260 G1 X268.995 Z-2.032
N4265 G1 X271.057 Z-2.076
N4270 G1 X272.514 Z-2.116
N4275 G1 X274.148 Z-2.172
N4280 G1 X278.37 Z-2.345
N4285 G1 X282.566 Z-2.533
N4290 G1 X286.662 Z-2.73
N4295 G1 X291.044 Z-2.956
N4300 G1 X295.655 Z-3.212
N4305 G1 X299.972 Z-3.467
N4310 G1 X304.14 Z-3.729
N4315 G1 X308.487 Z-4.017
N4320 G1 X313.017 Z-4.335
N4325 G1 X317.707 Z-4.683
N4330 G1 X322.126 Z-5.027
N4335 G1 X326.307 Z-5.369
N4340 G1 X330.018 Z-5.685
N4345 G1 X334.544 Z-6.085
N4350 G1 X338.69 Z-6.469
N4355 G1 X342.872 Z-6.87
N4360 G1 X346.874 Z-7.268
N4365 G1 X351.34 Z-7.729
N4370 G1 X355.449 Z-8.169
N4375 G1 X359.672 Z-8.636
N4380 G1 X364.72 Z-9.216
N4385 G1 X370.148 Z-9.864
N4390 G1 X375.841 Z-10.571
N4395 G1 X381.456 Z-11.297
N4400 G1 X387.04 Z-12.047
N4405 G1 X392.641 Z-12.828
N4410 G1 X398.98 Z-13.745
N4415 G1 X403.781 Z-14.464
N4420 G1 X408.363 Z-15.172
N4425 G1 X411.058 Z-15.594
N4430 G1 X411.119 Z-15.597
N4435 G1 X411.179 Z-15.588
N4440 G1 X411.236 Z-15.567
N4445 G1 X411.301 Z-15.544
N4450 G1 X411.368 Z-15.536
N4455 G1 X413.178
N4460 G1 X413.237 Y107.933
N4465 G1 X413.296 Y107.939
N4470 G1 X413.354 Y107.948 Z-15.535
N4475 G1 X413.411 Y107.961 Z-15.534
N4480 G1 X413.468 Y107.978 Z-15.532
N4485 G1 X413.523 Y107.999 Z-15.53
N4490 G1 X413.576 Y108.023 Z-15.528
N4495 G1 X413.628 Y108.051 Z-15.525
N4500 G1 X413.678 Y108.082 Z-15.523
N4505 G1 X413.726 Y108.116 Z-15.519
N4510 G1 X413.772 Y108.153 Z-15.516
N4515 G1 X413.815 Y108.193 Z-15.512
N4520 G1 X413.855 Y108.236 Z-15.508
N4525 G1 X413.892 Y108.282 Z-15.504
N4530 G1 X413.927 Y108.329 Z-15.5
N4535 G1 X413.958 Y108.379 Z-15.495
N4540 G1 X413.986 Y108.431 Z-15.491
N4545 G1 X414.01 Y108.484 Z-15.486
N4550 G1 X414.031 Y108.539 Z-15.481
N4555 G1 X414.048 Y108.595 Z-15.476
N4560 G1 X414.061 Y108.652 Z-15.47
N4565 G1 X414.071 Y108.71 Z-15.465
N4570 G1 X414.076 Y108.769 Z-15.46
N4575 G1 X414.078 Y108.827 Z-15.454
N4580 G1 Y110.034 Z-15.344
N4585 G1 X414.076 Y110.093 Z-15.338
N4590 G1 X414.071 Y110.151 Z-15.333
N4595 G1 X414.061 Y110.209 Z-15.328
N4600 G1 X414.048 Y110.266 Z-15.323
N4605 G1 X414.031 Y110.322 Z-15.317
N4610 G1 X414.01 Y110.377 Z-15.312
N4615 G1 X413.986 Y110.431 Z-15.308
N4620 G1 X413.958 Y110.482 Z-15.303
N4625 G1 X413.927 Y110.532 Z-15.298
N4630 G1 X413.892 Y110.58 Z-15.294
N4635 G1 X413.855 Y110.625 Z-15.29
N4640 G1 X413.815 Y110.668 Z-15.286
N4645 G1 X413.772 Y110.708 Z-15.282
N4650 G1 X413.726 Y110.745 Z-15.279
N4655 G1 X413.678 Y110.779 Z-15.276
N4660 G1 X413.628 Y110.81 Z-15.273
N4665 G1 X413.576 Y110.838 Z-15.27
N4670 G1 X413.523 Y110.862 Z-15.268
N4675 G1 X413.468 Y110.883 Z-15.266
N4680 G1 X413.411 Y110.9 Z-15.265
N4685 G1 X413.354 Y110.913 Z-15.263
N4690 G1 X413.296 Y110.923 Z-15.262
N4695 G1 X413.237 Y110.928
N4700 G1 X413.178 Y110.93
N4705 G1 X413.111 Z-15.27
N4710 G1 X413.046 Z-15.292
N4715 G1 X412.989 Z-15.313
N4720 G1 X412.929 Z-15.323
N4725 G1 X412.868 Z-15.319
N4730 G1 X407.579 Z-14.502
N4735 G1 X402.703 Z-13.771
N4740 G1 X396.936 Z-12.934
N4745 G1 X390.715 Z-12.064
N4750 G1 X385.043 Z-11.302
N4755 G1 X379.383 Z-10.57
N4760 G1 X373.664 Z-9.86
N4765 G1 X368.21 Z-9.209
N4770 G1 X363.187 Z-8.632
N4775 G1 X359.017 Z-8.171
N4780 G1 X354.909 Z-7.731
N4785 G1 X350.443 Z-7.27
N4790 G1 X346.441 Z-6.872
N4795 G1 X342.261 Z-6.471
N4800 G1 X338.116 Z-6.087
N4805 G1 X333.557 Z-5.684
N4810 G1 X329.811 Z-5.365
N4815 G1 X325.552 Z-5.017
N4820 G1 X321.167 Z-4.676
N4825 G1 X316.511 Z-4.331
N4830 G1 X311.979 Z-4.013
N4835 G1 X307.672 Z-3.728
N4840 G1 X303.503 Z-3.466
N4845 G1 X299.235 Z-3.213
N4850 G1 X294.735 Z-2.963
N4855 G1 X290.424 Z-2.74
N4860 G1 X286.216 Z-2.537
N4865 G1 X282.028 Z-2.35
N4870 G1 X277.741 Z-2.174
N4875 G1 X276.121 Z-2.118
N4880 G1 X274.58 Z-2.075
N4885 G1 X272.68 Z-2.034
N4890 G1 X270.904 Z-2.012
N4895 G1 X269.027 Z-2.001
N4900 G1 X263.974 Z-2
N4905 G1 X263.906 Z-1.992
N4910 G1 X263.842 Z-1.969
N4915 G1 X263.778 Z-1.947
N4920 G1 X263.71 Z-1.939
N4925 G2 X262.81 Y111.83 I0 J0.9
N4930 G1 Y113.03
N4935 G2 X263.71 Y113.93 I0.9 J0
N4940 G1 X267.26
N4945 G1 X267.328 Z-1.947
N4950 G1 X267.392 Z-1.969
N4955 G1 X267.456 Z-1.992
N4960 G1 X267.524 Z-2
N4965 G1 X272.389
N4970 G1 X274.535 Z-2.012
N4975 G1 X276.255 Z-2.035
N4980 G1 X278.271 Z-2.078
N4985 G1 X279.706 Z-2.119
N4990 G1 X281.484 Z-2.181
N4995 G1 X286.083 Z-2.372
N5000 G1 X290.921 Z-2.592
N5005 G1 X294.982 Z-2.791
N5010 G1 X299.17 Z-3.012
N5015 G1 X303.059 Z-3.229
N5020 G1 X307.362 Z-3.485
N5025 G1 X311.557 Z-3.749
N5030 G1 X315.759 Z-4.029
N5035 G1 X320.158 Z-4.338
N5040 G1 X324.847 Z-4.686
N5045 G1 X329.191 Z-5.024
N5050 G1 X333.409 Z-5.369
N5055 G1 X337.12 Z-5.685
N5060 G1 X341.679 Z-6.089
N5065 G1 X345.824 Z-6.472
N5070 G1 X350.034 Z-6.876
N5075 G1 X354.034 Z-7.275
N5080 G1 X358.498 Z-7.735
N5085 G1 X362.578 Z-8.172
N5090 G1 X366.695 Z-8.628
N5095 G1 X371.72 Z-9.204
N5100 G1 X377.176 Z-9.855
N5105 G1 X382.967 Z-10.575
N5110 G1 X388.626 Z-11.306
N5115 G1 X394.275 Z-12.065
N5120 G1 X400.1 Z-12.878
N5125 G1 X406.202 Z-13.763
N5130 G1 X410.625 Z-14.426
N5135 G1 X414.422 Z-15.009
N5140 G1 X414.482 Z-15.012
N5145 G1 X414.542 Z-15.003
N5150 G1 X414.599 Z-14.981
N5155 G1 X414.663 Z-14.959
N5160 G1 X414.731 Z-14.951
N5165 G1 X416.081
N5170 G1 X416.14 Y113.932
N5175 G1 X416.199 Y113.937 Z-14.95
N5180 G1 X416.257 Y113.947 Z-14.949
N5185 G1 X416.314 Y113.96 Z-14.947
N5190 G1 X416.371 Y113.977 Z-14.946
N5195 G1 X416.426 Y113.998 Z-14.943
N5200 G1 X416.479 Y114.022 Z-14.94
N5205 G1 X416.531 Y114.05 Z-14.937
N5210 G1 X416.581 Y114.081 Z-14.934
N5215 G1 X416.629 Y114.115 Z-14.93
N5220 G1 X416.675 Y114.152 Z-14.926
N5225 G1 X416.718 Y114.192 Z-14.921
N5230 G1 X416.758 Y114.234 Z-14.916
N5235 G1 X416.795 Y114.28 Z-14.911
N5240 G1 X416.83 Y114.327 Z-14.906
N5245 G1 X416.861 Y114.377 Z-14.9
N5250 G1 X416.888 Y114.429 Z-14.894
N5255 G1 X416.913 Y114.482 Z-14.888
N5260 G1 X416.934 Y114.537 Z-14.882
N5265 G1 X416.951 Y114.593 Z-14.876
N5270 G1 X416.964 Y114.65 Z-14.869
N5275 G1 X416.974 Y114.707 Z-14.863
N5280 G1 X416.979 Y114.766 Z-14.856
N5285 G1 X416.981 Y114.824 Z-14.85
N5290 G1 Y116.035 Z-14.712
N5295 G1 X416.979 Y116.094 Z-14.706
N5300 G1 X416.974 Y116.152 Z-14.699
N5305 G1 X416.964 Y116.21 Z-14.693
N5310 G1 X416.951 Y116.267 Z-14.686
N5315 G1 X416.934 Y116.323 Z-14.68
N5320 G1 X416.913 Y116.377 Z-14.673
N5325 G1 X416.888 Y116.431 Z-14.667
N5330 G1 X416.861 Y116.482 Z-14.662
N5335 G1 X416.83 Y116.532 Z-14.656
N5340 G1 X416.795 Y116.579 Z-14.651
N5345 G1 X416.758 Y116.625 Z-14.645
N5350 G1 X416.718 Y116.667 Z-14.641
N5355 G1 X416.675 Y116.707 Z-14.636
N5360 G1 X416.629 Y116.745 Z-14.632
N5365 G1 X416.581 Y116.779 Z-14.628
N5370 G1 X416.531 Y116.81 Z-14.624
N5375 G1 X416.479 Y116.837 Z-14.621
N5380 G1 X416.426 Y116.861 Z-14.619
N5385 G1 X416.371 Y116.882 Z-14.616
N5390 G1 X416.314 Y116.899 Z-14.614
N5395 G1 X416.257 Y116.912 Z-14.613
N5400 G1 X416.199 Y116.922 Z-14.612
N5405 G1 X416.14 Y116.927 Z-14.611
N5410 G1 X416.081 Y116.929
N5415 G1 X416.014 Z-14.619
N5420 G1 X415.949 Z-14.642
N5425 G1 X415.893 Z-14.663
N5430 G1 X415.833 Z-14.672
N5435 G1 X415.772 Z-14.669
N5440 G1 X411.11 Z-13.964
N5445 G1 X408.08 Z-13.519
N5450 G1 X403.415 Z-12.845
N5455 G1 X397.863 Z-12.071
N5460 G1 X392.239 Z-11.315
N5465 G1 X386.559 Z-10.58
N5470 G1 X380.77 Z-9.861
N5475 G1 X375.264 Z-9.204
N5480 G1 X370.213 Z-8.624
N5485 G1 X366.121 Z-8.172
N5490 G1 X362.182 Z-7.75
N5495 G1 X357.665 Z-7.283
N5500 G1 X353.638 Z-6.881
N5505 G1 X349.398 Z-6.474
N5510 G1 X345.255 Z-6.091
N5515 G1 X340.694 Z-5.687
N5520 G1 X337.023 Z-5.375
N5525 G1 X332.882 Z-5.036
N5530 G1 X328.543 Z-4.697
N5535 G1 X323.987 Z-4.358
N5540 G1 X320.107 Z-4.085
N5545 G1 X315.827 Z-3.796
N5550 G1 X311.43 Z-3.517
N5555 G1 X307.006 Z-3.252
N5560 G1 X303.246 Z-3.04
N5565 G1 X299.379 Z-2.835
N5570 G1 X295.204 Z-2.626
N5575 G1 X290.291 Z-2.4
N5580 G1 X286.311 Z-2.233
N5585 G1 X284.373 Z-2.157
N5590 G1 X282.773 Z-2.104
N5595 G1 X280.936 Z-2.058
N5600 G1 X279.444 Z-2.03
N5605 G1 X277.544 Z-2.008
N5610 G1 X273.575 Z-2
N5615 G1 X271.074
N5620 G1 X271.006 Z-1.992
N5625 G1 X270.942 Z-1.969
N5630 G1 X270.877 Z-1.947
N5635 G1 X270.81 Z-1.939
N5640 G2 X269.91 Y117.829 I0 J0.9
N5645 G1 Y119.029
N5650 G2 X270.81 Y119.929 I0.9 J0
N5655 G1 X274.36
N5660 G1 X274.427 Z-1.947
N5665 G1 X274.492 Z-1.969
N5670 G1 X274.556 Z-1.992
N5675 G1 X274.624 Z-2
N5680 G1 X277.393
N5685 G1 X281.134 Z-2.008
N5690 G1 X283.033 Z-2.03
N5695 G1 X284.642 Z-2.061
N5700 G1 X286.342 Z-2.105
N5705 G1 X287.94 Z-2.157
N5710 G1 X289.947 Z-2.236
N5715 G1 X293.923 Z-2.404
N5720 G1 X298.828 Z-2.63
N5725 G1 X303.058 Z-2.841
N5730 G1 X307.023 Z-3.053
N5735 G1 X311.017 Z-3.279
N5740 G1 X315.226 Z-3.532
N5745 G1 X319.614 Z-3.812
N5750 G1 X323.79 Z-4.094
N5755 G1 X327.628 Z-4.365
N5760 G1 X332.141 Z-4.701
N5765 G1 X336.478 Z-5.039
N5770 G1 X340.616 Z-5.378
N5775 G1 X344.285 Z-5.691
N5780 G1 X348.846 Z-6.095
N5785 G1 X352.988 Z-6.478
N5790 G1 X357.226 Z-6.885
N5795 G1 X361.281 Z-7.29
N5800 G1 X365.822 Z-7.759
N5805 G1 X369.705 Z-8.175
N5810 G1 X373.77 Z-8.625
N5815 G1 X378.847 Z-9.207
N5820 G1 X384.376 Z-9.867
N5825 G1 X390.163 Z-10.587
N5830 G1 X395.909 Z-11.33
N5835 G1 X401.679 Z-12.107
N5840 G1 X407.43 Z-12.911
N5845 G1 X412.96 Z-13.713
N5850 G1 X416.962 Z-14.31
N5855 G1 X417.022 Z-14.313
N5860 G1 X417.082 Z-14.304
N5865 G1 X417.138 Z-14.283
N5870 G1 X417.202 Z-14.26
N5875 G1 X417.27 Z-14.252
N5880 G1 X418.329
N5885 G1 X418.388 Y119.931
N5890 G1 X418.447 Y119.936 Z-14.251
N5895 G1 X418.505 Y119.946 Z-14.25
N5900 G1 X418.562 Y119.959 Z-14.248
N5905 G1 X418.619 Y119.976 Z-14.246
N5910 G1 X418.674 Y119.997 Z-14.244
N5915 G1 X418.727 Y120.021 Z-14.241
N5920 G1 X418.779 Y120.048 Z-14.237
N5925 G1 X418.829 Y120.079 Z-14.233
N5930 G1 X418.877 Y120.113 Z-14.229
N5935 G1 X418.923 Y120.15 Z-14.225
N5940 G1 X418.966 Y120.19 Z-14.22
N5945 G1 X419.006 Y120.233 Z-14.214
N5950 G1 X419.043 Y120.278 Z-14.209
N5955 G1 X419.078 Y120.326 Z-14.203
N5960 G1 X419.109 Y120.375 Z-14.197
N5965 G1 X419.136 Y120.427 Z-14.19
N5970 G1 X419.161 Y120.48 Z-14.184
N5975 G1 X419.182 Y120.535 Z-14.177
N5980 G1 X419.199 Y120.591 Z-14.17
N5985 G1 X419.212 Y120.648 Z-14.163
N5990 G1 X419.222 Y120.705 Z-14.155
N5995 G1 X419.227 Y120.763 Z-14.148
N6000 G1 X419.229 Y120.822 Z-14.141
N6005 G1 Y122.035 Z-13.99
N6010 G1 X419.227 Y122.094 Z-13.982
N6015 G1 X419.222 Y122.152 Z-13.975
N6020 G1 X419.212 Y122.209 Z-13.968
N6025 G1 X419.199 Y122.266 Z-13.961
N6030 G1 X419.182 Y122.322 Z-13.954
N6035 G1 X419.161 Y122.377 Z-13.947
N6040 G1 X419.136 Y122.43 Z-13.94
N6045 G1 X419.109 Y122.482 Z-13.934
N6050 G1 X419.078 Y122.531 Z-13.928
N6055 G1 X419.043 Y122.579 Z-13.922
N6060 G1 X419.006 Y122.624 Z-13.916
N6065 G1 X418.966 Y122.667 Z-13.911
N6070 G1 X418.923 Y122.707 Z-13.906
N6075 G1 X418.877 Y122.744 Z-13.901
N6080 G1 X418.829 Y122.778 Z-13.897
N6085 G1 X418.779 Y122.809 Z-13.893
N6090 G1 X418.727 Y122.836 Z-13.89
N6095 G1 X418.674 Y122.86 Z-13.887
N6100 G1 X418.619 Y122.881 Z-13.884
N6105 G1 X418.562 Y122.898 Z-13.882
N6110 G1 X418.505 Y122.911 Z-13.881
N6115 G1 X418.447 Y122.921 Z-13.879
N6120 G1 X418.388 Y122.926
N6125 G1 X418.329 Y122.928 Z-13.878
N6130 G1 X418.262 Z-13.886
N6135 G1 X418.197 Z-13.909
N6140 G1 X418.141 Z-13.93
N6145 G1 X418.082 Z-13.939
N6150 G1 X418.022 Z-13.936
N6155 G1 X415.11 Z-13.509
N6160 G1 X410.924 Z-12.903
N6165 G1 X405.386 Z-12.129
N6170 G1 X399.622 Z-11.352
N6175 G1 X393.791 Z-10.596
N6180 G1 X387.98 Z-9.874
N6185 G1 X382.453 Z-9.214
N6190 G1 X377.377 Z-8.632
N6195 G1 X373.315 Z-8.182
N6200 G1 X369.489 Z-7.772
N6205 G1 X365.042 Z-7.311
N6210 G1 X360.873 Z-6.895
N6215 G1 X356.576 Z-6.482
N6220 G1 X352.436 Z-6.098
N6225 G1 X347.844 Z-5.691
N6230 G1 X344.21 Z-5.382
N6235 G1 X340.111 Z-5.046
N6240 G1 X335.777 Z-4.707
N6245 G1 X331.351 Z-4.377
N6250 G1 X327.564 Z-4.109
N6255 G1 X323.577 Z-3.839
N6260 G1 X319.167 Z-3.556
N6265 G1 X314.937 Z-3.301
N6270 G1 X310.694 Z-3.059
N6275 G1 X306.681 Z-2.845
N6280 G1 X302.394 Z-2.631
N6285 G1 X297.426 Z-2.402
N6290 G1 X293.516 Z-2.237
N6295 G1 X291.516 Z-2.158
N6300 G1 X289.932 Z-2.106
N6305 G1 X288.264 Z-2.063
N6310 G1 X286.538 Z-2.029
N6315 G1 X284.499 Z-2.006
N6320 G1 X279.065 Z-2
N6325 G1 X278.174
N6330 G1 X278.106 Z-1.992
N6335 G1 X278.042 Z-1.969
N6340 G1 X277.977 Z-1.947
N6345 G1 X277.91 Z-1.939
N6350 G2 X277.01 Y123.828 I0 J0.9
N6355 G1 Y125.028
N6360 G2 X277.91 Y125.928 I0.9 J0
N6365 G1 X281.459
N6370 G1 X281.527 Z-1.947
N6375 G1 X281.591 Z-1.969
N6380 G1 X281.656 Z-1.992
N6385 G1 X281.724 Z-2
N6390 G1 X282.884
N6395 G1 X288.061 Z-2.006
N6400 G1 X290.101 Z-2.03
N6405 G1 X291.826 Z-2.063
N6410 G1 X293.494 Z-2.106
N6415 G1 X295.078 Z-2.159
N6420 G1 X297.003 Z-2.235
N6425 G1 X300.854 Z-2.397
N6430 G1 X305.894 Z-2.628
N6435 G1 X310.243 Z-2.846
N6440 G1 X314.309 Z-3.063
N6445 G1 X318.55 Z-3.304
N6450 G1 X322.87 Z-3.566
N6455 G1 X327.403 Z-3.857
N6460 G1 X331.336 Z-4.125
N6465 G1 X335.233 Z-4.402
N6470 G1 X339.529 Z-4.723
N6475 G1 X343.853 Z-5.061
N6480 G1 X347.839 Z-5.389
N6485 G1 X351.436 Z-5.695
N6490 G1 X356.025 Z-6.102
N6495 G1 X360.133 Z-6.482
N6500 G1 X364.46 Z-6.898
N6505 G1 X368.775 Z-7.329
N6510 G1 X373.129 Z-7.781
N6515 G1 X376.899 Z-8.186
N6520 G1 X380.96 Z-8.635
N6525 G1 X386.035 Z-9.218
N6530 G1 X391.61 Z-9.883
N6535 G1 X397.485 Z-10.614
N6540 G1 X403.422 Z-11.385
N6545 G1 X409.177 Z-12.162
N6550 G1 X414.623 Z-12.924
N6555 G1 X418.976 Z-13.554
N6560 G1 X419.035 Z-13.557
N6565 G1 X419.094 Z-13.547
N6570 G1 X419.151 Z-13.527
N6575 G1 X419.215 Z-13.504
N6580 G1 X419.283 Z-13.496
N6585 G1 X420.146
N6590 G1 X420.205 Y125.93
N6595 G1 X420.263 Y125.935 Z-13.495
N6600 G1 X420.322 Y125.945 Z-13.494
N6605 G1 X420.379 Y125.958 Z-13.492
N6610 G1 X420.435 Y125.975 Z-13.49
N6615 G1 X420.49 Y125.996 Z-13.487
N6620 G1 X420.544 Y126.02 Z-13.484
N6625 G1 X420.596 Y126.047 Z-13.48
N6630 G1 X420.646 Y126.078 Z-13.476
N6635 G1 X420.694 Y126.112 Z-13.472
N6640 G1 X420.739 Y126.149 Z-13.467
N6645 G1 X420.782 Y126.189 Z-13.462
N6650 G1 X420.823 Y126.232 Z-13.456
N6655 G1 X420.86 Y126.277 Z-13.451
N6660 G1 X420.894 Y126.324 Z-13.444
N6665 G1 X420.925 Y126.374 Z-13.438
N6670 G1 X420.953 Y126.425 Z-13.431
N6675 G1 X420.978 Y126.479 Z-13.424
N6680 G1 X420.998 Y126.533 Z-13.417
N6685 G1 X421.015 Y126.589 Z-13.41
N6690 G1 X421.029 Y126.646 Z-13.402
N6695 G1 X421.038 Y126.704 Z-13.395
N6700 G1 X421.044 Y126.762 Z-13.387
N6705 G1 X421.046 Y126.82 Z-13.38
N6710 G1 Y128.035 Z-13.221
N6715 G1 X421.044 Y128.093 Z-13.214
N6720 G1 X421.038 Y128.151 Z-13.206
N6725 G1 X421.029 Y128.209 Z-13.199
N6730 G1 X421.015 Y128.266 Z-13.191
N6735 G1 X420.998 Y128.322 Z-13.184
N6740 G1 X420.978 Y128.376 Z-13.177
N6745 G1 X420.953 Y128.43 Z-13.17
N6750 G1 X420.925 Y128.481 Z-13.163
N6755 G1 X420.894 Y128.531 Z-13.157
N6760 G1 X420.86 Y128.578 Z-13.151
N6765 G1 X420.823 Y128.623 Z-13.145
N6770 G1 X420.782 Y128.666 Z-13.139
N6775 G1 X420.739 Y128.706 Z-13.134
N6780 G1 X420.694 Y128.743 Z-13.129
N6785 G1 X420.646 Y128.777 Z-13.125
N6790 G1 X420.596 Y128.808 Z-13.121
N6795 G1 X420.544 Y128.835 Z-13.117
N6800 G1 X420.49 Y128.859 Z-13.114
N6805 G1 X420.435 Y128.88 Z-13.111
N6810 G1 X420.379 Y128.897 Z-13.109
N6815 G1 X420.322 Y128.91 Z-13.107
N6820 G1 X420.263 Y128.92 Z-13.106
N6825 G1 X420.205 Y128.925 Z-13.105
N6830 G1 X420.146 Y128.927
N6835 G1 X420.078 Z-13.113
N6840 G1 X420.014 Z-13.136
N6845 G1 X419.958 Z-13.157
N6850 G1 X419.899 Z-13.166
N6855 G1 X419.84 Z-13.163
N6860 G1 X416.769 Z-12.727
N6865 G1 X412.693 Z-12.157
N6870 G1 X407.117 Z-11.404
N6875 G1 X401.21 Z-10.637
N6880 G1 X395.221 Z-9.891
N6885 G1 X389.648 Z-9.225
N6890 G1 X384.574 Z-8.642
N6895 G1 X380.488 Z-8.19
N6900 G1 X376.775 Z-7.791
N6905 G1 X372.57 Z-7.354
N6910 G1 X368.144 Z-6.912
N6915 G1 X363.729 Z-6.487
N6920 G1 X359.686 Z-6.112
N6925 G1 X355.172 Z-5.711
N6930 G1 X351.58 Z-5.405
N6935 G1 X347.75 Z-5.089
N6940 G1 X343.365 Z-4.745
N6945 G1 X339.128 Z-4.427
N6950 G1 X335.036 Z-4.135
N6955 G1 X331.066 Z-3.865
N6960 G1 X326.491 Z-3.57
N6965 G1 X322.178 Z-3.309
N6970 G1 X317.888 Z-3.065
N6975 G1 X313.825 Z-2.847
N6980 G1 X309.478 Z-2.63
N6985 G1 X304.375 Z-2.395
N6990 G1 X300.59 Z-2.237
N6995 G1 X298.678 Z-2.161
N7000 G1 X297.094 Z-2.108
N7005 G1 X295.576 Z-2.068
N7010 G1 X293.702 Z-2.03
N7015 G1 X291.394 Z-2.005
N7020 G1 X285.273 Z-2
N7025 G1 X285.206 Z-1.992
N7030 G1 X285.142 Z-1.969
N7035 G1 X285.077 Z-1.947
N7040 G1 X285.01 Z-1.939
N7045 G2 X284.11 Y129.827 I0 J0.9
N7050 G1 Y131.027
N7055 G2 X285.01 Y131.927 I0.9 J0
N7060 G1 X288.559
N7065 G1 X288.627 Z-1.947
N7070 G1 X288.691 Z-1.969
N7075 G1 X288.756 Z-1.992
N7080 G1 X288.823 Z-2
N7085 G1 X293.449
N7090 G1 X295.695 Z-2.011
N7095 G1 X297.556 Z-2.035
N7100 G1 X299.658 Z-2.081
N7105 G1 X301.156 Z-2.124
N7110 G1 X303.043 Z-2.191
N7115 G1 X307.817 Z-2.391
N7120 G1 X312.993 Z-2.628
N7125 G1 X317.399 Z-2.848
N7130 G1 X321.457 Z-3.066
N7135 G1 X325.748 Z-3.31
N7140 G1 X330.059 Z-3.572
N7145 G1 X334.633 Z-3.866
N7150 G1 X338.603 Z-4.136
N7155 G1 X342.695 Z-4.428
N7160 G1 X346.931 Z-4.746
N7165 G1 X351.316 Z-5.091
N7170 G1 X355.146 Z-5.406
N7175 G1 X358.736 Z-5.712
N7180 G1 X363.25 Z-6.113
N7185 G1 X367.261 Z-6.485
N7190 G1 X371.707 Z-6.913
N7195 G1 X376.249 Z-7.367
N7200 G1 X380.39 Z-7.798
N7205 G1 X384.077 Z-8.194
N7210 G1 X388.189 Z-8.65
N7215 G1 X393.235 Z-9.229
N7220 G1 X398.879 Z-9.904
N7225 G1 X404.979 Z-10.665
N7230 G1 X410.9 Z-11.435
N7235 G1 X416.34 Z-12.17
N7240 G1 X420.63 Z-12.77
N7245 G1 X420.689 Z-12.772
N7250 G1 X420.748 Z-12.763
N7255 G1 X420.803 Z-12.742
N7260 G1 X420.868 Z-12.72
N7265 G1 X420.935 Z-12.712
N7270 G1 X421.661
N7275 G1 X421.719 Y131.929
N7280 G1 X421.778 Y131.934 Z-12.711
N7285 G1 X421.836 Y131.944 Z-12.709
N7290 G1 X421.893 Y131.957 Z-12.708
N7295 G1 X421.95 Y131.974 Z-12.705
N7300 G1 X422.005 Y131.995 Z-12.703
N7305 G1 X422.059 Y132.019 Z-12.7
N7310 G1 X422.111 Y132.046 Z-12.696
N7315 G1 X422.161 Y132.077 Z-12.692
N7320 G1 X422.208 Y132.111 Z-12.687
N7325 G1 X422.254 Y132.148 Z-12.682
N7330 G1 X422.297 Y132.188 Z-12.677
N7335 G1 X422.337 Y132.231 Z-12.672
N7340 G1 X422.375 Y132.276 Z-12.666
N7345 G1 X422.409 Y132.323 Z-12.659
N7350 G1 X422.44 Y132.373 Z-12.653
N7355 G1 X422.468 Y132.424 Z-12.646
N7360 G1 X422.492 Y132.477 Z-12.639
N7365 G1 X422.513 Y132.532 Z-12.632
N7370 G1 X422.53 Y132.588 Z-12.624
N7375 G1 X422.543 Y132.645 Z-12.617
N7380 G1 X422.553 Y132.702 Z-12.609
N7385 G1 X422.559 Y132.761 Z-12.601
N7390 G1 X422.561 Y132.819 Z-12.594
N7395 G1 Y134.034 Z-12.433
N7400 G1 X422.559 Y134.092 Z-12.425
N7405 G1 X422.553 Y134.15 Z-12.418
N7410 G1 X422.543 Y134.208 Z-12.41
N7415 G1 X422.53 Y134.265 Z-12.402
N7420 G1 X422.513 Y134.321 Z-12.395
N7425 G1 X422.492 Y134.375 Z-12.388
N7430 G1 X422.468 Y134.429 Z-12.381
N7435 G1 X422.44 Y134.48 Z-12.374
N7440 G1 X422.409 Y134.53 Z-12.367
N7445 G1 X422.375 Y134.577 Z-12.361
N7450 G1 X422.337 Y134.622 Z-12.355
N7455 G1 X422.297 Y134.665 Z-12.35
N7460 G1 X422.254 Y134.705 Z-12.344
N7465 G1 X422.208 Y134.742 Z-12.339
N7470 G1 X422.161 Y134.776 Z-12.335
N7475 G1 X422.111 Y134.807 Z-12.331
N7480 G1 X422.059 Y134.834 Z-12.327
N7485 G1 X422.005 Y134.858 Z-12.324
N7490 G1 X421.95 Y134.879 Z-12.321
N7495 G1 X421.893 Y134.896 Z-12.319
N7500 G1 X421.836 Y134.909 Z-12.317
N7505 G1 X421.778 Y134.919 Z-12.316
N7510 G1 X421.719 Y134.924 Z-12.315
N7515 G1 X421.661 Y134.926
N7520 G1 X421.593 Z-12.323
N7525 G1 X421.529 Z-12.346
N7530 G1 X421.473 Z-12.366
N7535 G1 X421.415 Z-12.376
N7540 G1 X421.356 Z-12.373
N7545 G1 X417.96 Z-11.908
N7550 G1 X413.922 Z-11.365
N7555 G1 X408.515 Z-10.663
N7560 G1 X402.512 Z-9.914
N7565 G1 X396.873 Z-9.239
N7570 G1 X391.802 Z-8.657
N7575 G1 X387.638 Z-8.195
N7580 G1 X384.007 Z-7.806
N7585 G1 X379.898 Z-7.378
N7590 G1 X375.27 Z-6.914
N7595 G1 X370.824 Z-6.486
N7600 G1 X366.845 Z-6.118
N7605 G1 X362.368 Z-5.72
N7610 G1 X358.744 Z-5.41
N7615 G1 X354.917 Z-5.095
N7620 G1 X350.534 Z-4.75
N7625 G1 X346.3 Z-4.432
N7630 G1 X342.21 Z-4.14
N7635 G1 X338.244 Z-3.87
N7640 G1 X333.627 Z-3.573
N7645 G1 X329.267 Z-3.308
N7650 G1 X325.027 Z-3.067
N7655 G1 X320.971 Z-2.849
N7660 G1 X316.566 Z-2.629
N7665 G1 X311.391 Z-2.392
N7670 G1 X306.622 Z-2.192
N7675 G1 X304.645 Z-2.122
N7680 G1 X303.127 Z-2.079
N7685 G1 X300.993 Z-2.033
N7690 G1 X299.014 Z-2.009
N7695 G1 X296.217 Z-2
N7700 G1 X292.373
N7705 G1 X292.306 Z-1.992
N7710 G1 X292.241 Z-1.969
N7715 G1 X292.177 Z-1.947
N7720 G1 X292.109 Z-1.939
N7725 G2 X291.209 Y135.826 I0 J0.9
N7730 G1 Y137.026
N7735 G2 X292.109 Y137.926 I0.9 J0
N7740 G1 X295.659
N7745 G1 X295.727 Z-1.947
N7750 G1 X295.791 Z-1.969
N7755 G1 X295.855 Z-1.992
N7760 G1 X295.923 Z-2
N7765 G1 X297.889
N7770 G1 X302.347 Z-2.007
N7775 G1 X304.594 Z-2.034
N7780 G1 X306.612 Z-2.077
N7785 G1 X308.225 Z-2.123
N7790 G1 X310.2 Z-2.193
N7795 G1 X314.968 Z-2.393
N7800 G1 X320.078 Z-2.628
N7805 G1 X324.544 Z-2.851
N7810 G1 X328.65 Z-3.071
N7815 G1 X332.885 Z-3.312
N7820 G1 X337.242 Z-3.577
N7825 G1 X341.856 Z-3.874
N7830 G1 X345.776 Z-4.141
N7835 G1 X349.906 Z-4.436
N7840 G1 X354.137 Z-4.754
N7845 G1 X358.554 Z-5.102
N7850 G1 X362.377 Z-5.417
N7855 G1 X366.033 Z-5.729
N7860 G1 X370.471 Z-6.125
N7865 G1 X374.384 Z-6.487
N7870 G1 X378.83 Z-6.915
N7875 G1 X383.516 Z-7.384
N7880 G1 X387.594 Z-7.809
N7885 G1 X391.251 Z-8.202
N7890 G1 X395.464 Z-8.669
N7895 G1 X400.635 Z-9.264
N7900 G1 X406.507 Z-9.968
N7905 G1 X412.423 Z-10.709
N7910 G1 X417.773 Z-11.405
N7915 G1 X422.026 Z-11.977
N7920 G1 X422.085 Z-11.98
N7925 G1 X422.143 Z-11.97
N7930 G1 X422.198 Z-11.95
N7935 G1 X422.262 Z-11.927
N7940 G1 X422.33 Z-11.919
N7945 G1 X422.95
N7950 G1 X423.009 Y137.928
N7955 G1 X423.068 Y137.933 Z-11.918
N7960 G1 X423.126 Y137.943 Z-11.917
N7965 G1 X423.183 Y137.956 Z-11.915
N7970 G1 X423.24 Y137.973 Z-11.913
N7975 G1 X423.295 Y137.994 Z-11.91
N7980 G1 X423.348 Y138.018 Z-11.907
N7985 G1 X423.4 Y138.045 Z-11.903
N7990 G1 X423.45 Y138.076 Z-11.899
N7995 G1 X423.498 Y138.11 Z-11.895
N8000 G1 X423.544 Y138.147 Z-11.89
N8005 G1 X423.587 Y138.187 Z-11.884
N8010 G1 X423.627 Y138.23 Z-11.879
N8015 G1 X423.664 Y138.275 Z-11.873
N8020 G1 X423.699 Y138.322 Z-11.867
N8025 G1 X423.73 Y138.372 Z-11.86
N8030 G1 X423.758 Y138.423 Z-11.853
N8035 G1 X423.782 Y138.476 Z-11.846
N8040 G1 X423.803 Y138.531 Z-11.839
N8045 G1 X423.82 Y138.587 Z-11.832
N8050 G1 X423.833 Y138.644 Z-11.824
N8055 G1 X423.843 Y138.701 Z-11.816
N8060 G1 X423.849 Y138.76 Z-11.809
N8065 G1 X423.85 Y138.818 Z-11.801
N8070 G1 Y140.033 Z-11.641
N8075 G1 X423.849 Y140.091 Z-11.633
N8080 G1 X423.843 Y140.149 Z-11.625
N8085 G1 X423.833 Y140.207 Z-11.618
N8090 G1 X423.82 Y140.264 Z-11.61
N8095 G1 X423.803 Y140.32 Z-11.603
N8100 G1 X423.782 Y140.374 Z-11.595
N8105 G1 X423.758 Y140.428 Z-11.588
N8110 G1 X423.73 Y140.479 Z-11.582
N8115 G1 X423.699 Y140.529 Z-11.575
N8120 G1 X423.664 Y140.576 Z-11.569
N8125 G1 X423.627 Y140.621 Z-11.563
N8130 G1 X423.587 Y140.664 Z-11.557
N8135 G1 X423.544 Y140.704 Z-11.552
N8140 G1 X423.498 Y140.741 Z-11.547
N8145 G1 X423.45 Y140.775 Z-11.543
N8150 G1 X423.4 Y140.806 Z-11.538
N8155 G1 X423.348 Y140.833 Z-11.535
N8160 G1 X423.295 Y140.857 Z-11.532
N8165 G1 X423.24 Y140.878 Z-11.529
N8170 G1 X423.183 Y140.895 Z-11.527
N8175 G1 X423.126 Y140.908 Z-11.525
N8180 G1 X423.068 Y140.918 Z-11.524
N8185 G1 X423.009 Y140.923 Z-11.523
N8190 G1 X422.95 Y140.925
N8195 G1 X422.883 Z-11.53
N8200 G1 X422.818 Z-11.553
N8205 G1 X422.764 Z-11.574
N8210 G1 X422.706 Z-11.583
N8215 G1 X422.647 Z-11.581
N8220 G1 X418.825 Z-11.077
N8225 G1 X415.028 Z-10.588
N8230 G1 X409.802 Z-9.937
N8235 G1 X404.223 Z-9.268
N8240 G1 X399.055 Z-8.674
N8245 G1 X394.815 Z-8.204
N8250 G1 X391.215 Z-7.817
N8255 G1 X387.139 Z-7.392
N8260 G1 X382.396 Z-6.917
N8265 G1 X377.95 Z-6.489
N8270 G1 X374.102 Z-6.132
N8275 G1 X369.737 Z-5.743
N8280 G1 X366.016 Z-5.425
N8285 G1 X362.197 Z-5.109
N8290 G1 X357.745 Z-4.759
N8295 G1 X353.556 Z-4.444
N8300 G1 X349.434 Z-4.149
N8305 G1 X345.474 Z-3.878
N8310 G1 X340.817 Z-3.578
N8315 G1 X336.461 Z-3.314
N8320 G1 X332.282 Z-3.075
N8325 G1 X328.122 Z-2.852
N8330 G1 X323.656 Z-2.629
N8335 G1 X318.548 Z-2.394
N8340 G1 X313.779 Z-2.194
N8345 G1 X311.82 Z-2.124
N8350 G1 X310.322 Z-2.081
N8355 G1 X308.186 Z-2.034
N8360 G1 X305.995 Z-2.008
N8365 G1 X302.78 Z-2
N8370 G1 X299.473
N8375 G1 X299.405 Z-1.992
N8380 G1 X299.341 Z-1.969
N8385 G1 X299.277 Z-1.947
N8390 G1 X299.209 Z-1.939
N8395 G2 X298.309 Y141.825 I0 J0.9
N8400 G1 Y143.025
N8405 G2 X299.209 Y143.925 I0.9 J0
N8410 G1 X302.759
N8415 G1 X302.827 Z-1.947
N8420 G1 X302.891 Z-1.969
N8425 G1 X302.955 Z-1.992
N8430 G1 X303.023 Z-2
N8435 G1 X306.598
N8440 G1 X309.668 Z-2.009
N8445 G1 X311.655 Z-2.033
N8450 G1 X313.558 Z-2.073
N8455 G1 X315.032 Z-2.114
N8460 G1 X316.586 Z-2.166
N8465 G1 X318.834 Z-2.257
N8470 G1 X322.384 Z-2.407
N8475 G1 X327.533 Z-2.645
N8480 G1 X332.026 Z-2.871
N8485 G1 X336.225 Z-3.097
N8490 G1 X340.469 Z-3.341
N8495 G1 X344.523 Z-3.588
N8500 G1 X349.213 Z-3.891
N8505 G1 X353.211 Z-4.165
N8510 G1 X357.395 Z-4.465
N8515 G1 X361.422 Z-4.768
N8520 G1 X365.939 Z-5.125
N8525 G1 X369.682 Z-5.435
N8530 G1 X373.434 Z-5.756
N8535 G1 X377.723 Z-6.139
N8540 G1 X381.509 Z-6.49
N8545 G1 X385.925 Z-6.915
N8550 G1 X390.727 Z-7.396
N8555 G1 X394.773 Z-7.818
N8560 G1 X398.349 Z-8.202
N8565 G1 X402.773 Z-8.693
N8570 G1 X408.133 Z-9.311
N8575 G1 X413.772 Z-9.988
N8580 G1 X418.984 Z-10.64
N8585 G1 X423.225 Z-11.188
N8590 G1 X423.283 Z-11.19
N8595 G1 X423.341 Z-11.181
N8600 G1 X423.395 Z-11.16
N8605 G1 X423.46 Z-11.137
N8610 G1 X423.527 Z-11.13
N8615 G1 X424.066
N8620 G1 X424.125 Y143.927 Z-11.129
N8625 G1 X424.183 Y143.932
N8630 G1 X424.241 Y143.942 Z-11.127
N8635 G1 X424.299 Y143.955 Z-11.126
N8640 G1 X424.355 Y143.972 Z-11.123
N8645 G1 X424.41 Y143.993 Z-11.121
N8650 G1 X424.464 Y144.017 Z-11.118
N8655 G1 X424.516 Y144.044 Z-11.114
N8660 G1 X424.566 Y144.075 Z-11.11
N8665 G1 X424.614 Y144.109 Z-11.105
N8670 G1 X424.659 Y144.146 Z-11.101
N8675 G1 X424.702 Y144.186 Z-11.095
N8680 G1 X424.743 Y144.229 Z-11.09
N8685 G1 X424.78 Y144.274 Z-11.084
N8690 G1 X424.814 Y144.321 Z-11.078
N8695 G1 X424.845 Y144.371 Z-11.071
N8700 G1 X424.873 Y144.422 Z-11.065
N8705 G1 X424.897 Y144.476 Z-11.058
N8710 G1 X424.918 Y144.53 Z-11.051
N8715 G1 X424.935 Y144.586 Z-11.043
N8720 G1 X424.949 Y144.643 Z-11.036
N8725 G1 X424.958 Y144.701 Z-11.028
N8730 G1 X424.964 Y144.759 Z-11.021
N8735 G1 X424.966 Y144.817 Z-11.013
N8740 G1 Y146.032 Z-10.855
N8745 G1 X424.964 Y146.09 Z-10.847
N8750 G1 X424.958 Y146.148 Z-10.84
N8755 G1 X424.949 Y146.206 Z-10.832
N8760 G1 X424.935 Y146.263 Z-10.825
N8765 G1 X424.918 Y146.319 Z-10.817
N8770 G1 X424.897 Y146.373 Z-10.81
N8775 G1 X424.873 Y146.426 Z-10.803
N8780 G1 X424.845 Y146.478 Z-10.797
N8785 G1 X424.814 Y146.527 Z-10.79
N8790 G1 X424.78 Y146.575 Z-10.784
N8795 G1 X424.743 Y146.62 Z-10.778
N8800 G1 X424.702 Y146.663 Z-10.772
N8805 G1 X424.659 Y146.703 Z-10.767
N8810 G1 X424.614 Y146.74 Z-10.762
N8815 G1 X424.566 Y146.774 Z-10.758
N8820 G1 X424.516 Y146.805 Z-10.754
N8825 G1 X424.464 Y146.832 Z-10.75
N8830 G1 X424.41 Y146.856 Z-10.747
N8835 G1 X424.355 Y146.877 Z-10.744
N8840 G1 X424.299 Y146.894 Z-10.742
N8845 G1 X424.241 Y146.907 Z-10.741
N8850 G1 X424.183 Y146.916 Z-10.739
N8855 G1 X424.125 Y146.922
N8860 G1 X424.066 Y146.924 Z-10.738
N8865 G1 X423.998 Z-10.746
N8870 G1 X423.934 Z-10.769
N8875 G1 X423.88 Z-10.789
N8880 G1 X423.822 Z-10.799
N8885 G1 X423.764 Z-10.797
N8890 G1 X419.499 Z-10.258
N8895 G1 X416.152 Z-9.846
N8900 G1 X411.483 Z-9.287
N8905 G1 X406.297 Z-8.69
N8910 G1 X401.872 Z-8.199
N8915 G1 X398.324 Z-7.818
N8920 G1 X394.278 Z-7.396
N8925 G1 X389.476 Z-6.915
N8930 G1 X385.091 Z-6.493
N8935 G1 X381.338 Z-6.145
N8940 G1 X377.121 Z-5.767
N8945 G1 X373.338 Z-5.443
N8950 G1 X369.67 Z-5.14
N8955 G1 X365.05 Z-4.774
N8960 G1 X361.184 Z-4.483
N8965 G1 X356.89 Z-4.173
N8970 G1 X352.895 Z-3.9
N8975 G1 X348.311 Z-3.603
N8980 G1 X344.511 Z-3.371
N8985 G1 X340.146 Z-3.118
N8990 G1 X335.913 Z-2.888
N8995 G1 X331.327 Z-2.657
N9000 G1 X326.337 Z-2.424
N9005 G1 X322.752 Z-2.272
N9010 G1 X320.142 Z-2.167
N9015 G1 X318.588 Z-2.114
N9020 G1 X317.114 Z-2.073
N9025 G1 X315.245 Z-2.034
N9030 G1 X312.999 Z-2.007
N9035 G1 X308.538 Z-2
N9040 G1 X306.573
N9045 G1 X306.505 Z-1.992
N9050 G1 X306.441 Z-1.969
N9055 G1 X306.377 Z-1.947
N9060 G1 X306.309 Z-1.939
N9065 G2 X305.409 Y147.824 I0 J0.9
N9070 G1 Y149.024
N9075 G2 X306.309 Y149.924 I0.9 J0
N9080 G1 X309.859
N9085 G1 X309.927 Z-1.947
N9090 G1 X309.991 Z-1.969
N9095 G1 X310.055 Z-1.992
N9100 G1 X310.123 Z-2
N9105 G1 X313.429
N9110 G1 X316.644 Z-2.008
N9115 G1 X318.684 Z-2.032
N9120 G1 X320.738 Z-2.075
N9125 G1 X322.275 Z-2.118
N9130 G1 X323.888 Z-2.174
N9135 G1 X328.45 Z-2.362
N9140 G1 X332.15 Z-2.529
N9145 G1 X335.684 Z-2.696
N9150 G1 X340.102 Z-2.922
N9155 G1 X344.765 Z-3.178
N9160 G1 X348.669 Z-3.407
N9165 G1 X352.586 Z-3.649
N9170 G1 X356.726 Z-3.919
N9175 G1 X360.671 Z-4.19
N9180 G1 X364.872 Z-4.493
N9185 G1 X368.657 Z-4.779
N9190 G1 X373.274 Z-5.144
N9195 G1 X376.941 Z-5.448
N9200 G1 X380.79 Z-5.778
N9205 G1 X384.97 Z-6.152
N9210 G1 X388.657 Z-6.494
N9215 G1 X393.072 Z-6.919
N9220 G1 X398.015 Z-7.415
N9225 G1 X401.944 Z-7.825
N9230 G1 X405.518 Z-8.21
N9235 G1 X410.148 Z-8.724
N9240 G1 X415.247 Z-9.312
N9245 G1 X420.11 Z-9.895
N9250 G1 X424.269 Z-10.411
N9255 G1 X424.327 Z-10.412
N9260 G1 X424.384 Z-10.403
N9265 G1 X424.438 Z-10.382
N9270 G1 X424.502 Z-10.36
N9275 G1 X424.57 Z-10.352
N9280 G1 X425.042
N9285 G1 X425.101 Y149.925
N9290 G1 X425.16 Y149.931 Z-10.351
N9295 G1 X425.218 Y149.941 Z-10.35
N9300 G1 X425.275 Y149.954 Z-10.348
N9305 G1 X425.332 Y149.971 Z-10.346
N9310 G1 X425.387 Y149.992 Z-10.343
N9315 G1 X425.44 Y150.016 Z-10.34
N9320 G1 X425.492 Y150.043 Z-10.337
N9325 G1 X425.542 Y150.074 Z-10.333
N9330 G1 X425.59 Y150.108 Z-10.328
N9335 G1 X425.636 Y150.145 Z-10.323
N9340 G1 X425.679 Y150.185 Z-10.318
N9345 G1 X425.719 Y150.228 Z-10.313
N9350 G1 X425.756 Y150.273 Z-10.307
N9355 G1 X425.791 Y150.32 Z-10.301
N9360 G1 X425.822 Y150.37 Z-10.295
N9365 G1 X425.849 Y150.421 Z-10.288
N9370 G1 X425.874 Y150.475 Z-10.281
N9375 G1 X425.895 Y150.529 Z-10.274
N9380 G1 X425.912 Y150.585 Z-10.267
N9385 G1 X425.925 Y150.642 Z-10.26
N9390 G1 X425.935 Y150.7 Z-10.253
N9395 G1 X425.94 Y150.758 Z-10.245
N9400 G1 X425.942 Y150.816 Z-10.238
N9405 G1 Y152.03 Z-10.083
N9410 G1 X425.94 Y152.089 Z-10.075
N9415 G1 X425.935 Y152.147 Z-10.068
N9420 G1 X425.925 Y152.204 Z-10.06
N9425 G1 X425.912 Y152.261 Z-10.053
N9430 G1 X425.895 Y152.317 Z-10.046
N9435 G1 X425.874 Y152.372 Z-10.039
N9440 G1 X425.849 Y152.425 Z-10.032
N9445 G1 X425.822 Y152.477 Z-10.026
N9450 G1 X425.791 Y152.526 Z-10.019
N9455 G1 X425.756 Y152.574 Z-10.013
N9460 G1 X425.719 Y152.619 Z-10.008
N9465 G1 X425.679 Y152.662 Z-10.002
N9470 G1 X425.636 Y152.702 Z-9.997
N9475 G1 X425.59 Y152.739 Z-9.992
N9480 G1 X425.542 Y152.773 Z-9.988
N9485 G1 X425.492 Y152.803 Z-9.984
N9490 G1 X425.44 Y152.831 Z-9.98
N9495 G1 X425.387 Y152.855 Z-9.977
N9500 G1 X425.332 Y152.876 Z-9.975
N9505 G1 X425.275 Y152.893 Z-9.973
N9510 G1 X425.218 Y152.906 Z-9.971
N9515 G1 X425.16 Y152.915 Z-9.97
N9520 G1 X425.101 Y152.921 Z-9.969
N9525 G1 X425.042 Y152.923
N9530 G1 X424.975 Z-9.976
N9535 G1 X424.91 Z-9.999
N9540 G1 X424.856 Z-10.02
N9545 G1 X424.8 Z-10.029
N9550 G1 X424.742 Z-10.028
N9555 G1 X419.917 Z-9.445
N9560 G1 X415.966 Z-8.984
N9565 G1 X412.482 Z-8.587
N9570 G1 X408.763 Z-8.177
N9575 G1 X405.32 Z-7.807
N9580 G1 X401.213 Z-7.379
N9585 G1 X396.496 Z-6.907
N9590 G1 X392.2 Z-6.494
N9595 G1 X388.578 Z-6.157
N9600 G1 X384.469 Z-5.789
N9605 G1 X380.555 Z-5.453
N9610 G1 X376.926 Z-5.152
N9615 G1 X372.353 Z-4.79
N9620 G1 X368.652 Z-4.51
N9625 G1 X364.549 Z-4.213
N9630 G1 X360.483 Z-3.933
N9635 G1 X356.675 Z-3.683
N9640 G1 X352.506 Z-3.424
N9645 G1 X348.611 Z-3.195
N9650 G1 X344.032 Z-2.942
N9655 G1 X339.872 Z-2.728
N9660 G1 X336.141 Z-2.549
N9665 G1 X332.054 Z-2.364
N9670 G1 X327.422 Z-2.173
N9675 G1 X325.794 Z-2.117
N9680 G1 X324.258 Z-2.074
N9685 G1 X322.353 Z-2.034
N9690 G1 X320.366 Z-2.01
N9695 G1 X317.784 Z-2
N9700 G1 X313.673
N9705 G1 X313.605 Z-1.992
N9710 G1 X313.541 Z-1.969
N9715 G1 X313.477 Z-1.947
N9720 G1 X313.409 Z-1.939
N9725 G2 X312.509 Y153.823 I0 J0.9
N9730 G1 Y155.023
N9735 G2 X313.409 Y155.923 I0.9 J0
N9740 G1 X316.959
N9745 G1 X317.027 Z-1.947
N9750 G1 X317.091 Z-1.969
N9755 G1 X317.155 Z-1.992
N9760 G1 X317.223 Z-2
N9765 G1 X320.798
N9770 G1 X323.852 Z-2.009
N9775 G1 X325.991 Z-2.036
N9780 G1 X327.978 Z-2.079
N9785 G1 X329.397 Z-2.119
N9790 G1 X331.088 Z-2.177
N9795 G1 X335.974 Z-2.38
N9800 G1 X340.797 Z-2.6
N9805 G1 X344.479 Z-2.782
N9810 G1 X348.215 Z-2.976
N9815 G1 X352.437 Z-3.211
N9820 G1 X356.227 Z-3.434
N9825 G1 X360.518 Z-3.702
N9830 G1 X364.14 Z-3.94
N9835 G1 X368.244 Z-4.223
N9840 G1 X372.299 Z-4.517
N9845 G1 X375.957 Z-4.794
N9850 G1 X380.49 Z-5.154
N9855 G1 X384.12 Z-5.455
N9860 G1 X388.033 Z-5.79
N9865 G1 X392.142 Z-6.159
N9870 G1 X395.767 Z-6.495
N9875 G1 X400.12 Z-6.914
N9880 G1 X405.065 Z-7.41
N9885 G1 X409.023 Z-7.823
N9890 G1 X412.544 Z-8.202
N9895 G1 X417.15 Z-8.713
N9900 G1 X421.414 Z-9.204
N9905 G1 X425.188 Z-9.651
N9910 G1 X425.245 Z-9.652
N9915 G1 X425.301 Z-9.642
N9920 G1 X425.355 Z-9.622
N9925 G1 X425.419 Z-9.599
N9930 G1 X425.487 Z-9.591
N9935 G1 X425.904
N9940 G1 X425.963 Y155.924
N9945 G1 X426.022 Y155.93
N9950 G1 X426.08 Y155.94 Z-9.589
N9955 G1 X426.137 Y155.953 Z-9.588
N9960 G1 X426.194 Y155.97 Z-9.586
N9965 G1 X426.249 Y155.991 Z-9.583
N9970 G1 X426.302 Y156.015 Z-9.58
N9975 G1 X426.354 Y156.042 Z-9.577
N9980 G1 X426.404 Y156.073 Z-9.573
N9985 G1 X426.452 Y156.107 Z-9.569
N9990 G1 X426.498 Y156.144 Z-9.564
N9995 G1 X426.541 Y156.184 Z-9.559
N10000 G1 X426.581 Y156.227 Z-9.554
N10005 G1 X426.618 Y156.272 Z-9.548
N10010 G1 X426.653 Y156.319 Z-9.542
N10015 G1 X426.684 Y156.369 Z-9.536
N10020 G1 X426.712 Y156.421 Z-9.53
N10025 G1 X426.736 Y156.474 Z-9.523
N10030 G1 X426.757 Y156.529 Z-9.516
N10035 G1 X426.774 Y156.585 Z-9.509
N10040 G1 X426.787 Y156.641 Z-9.502
N10045 G1 X426.797 Y156.699 Z-9.495
N10050 G1 X426.802 Y156.757 Z-9.488
N10055 G1 X426.804 Y156.816 Z-9.481
N10060 G1 Y158.029 Z-9.33
N10065 G1 X426.802 Y158.087 Z-9.323
N10070 G1 X426.797 Y158.145 Z-9.315
N10075 G1 X426.787 Y158.203 Z-9.308
N10080 G1 X426.774 Y158.26 Z-9.301
N10085 G1 X426.757 Y158.316 Z-9.294
N10090 G1 X426.736 Y158.371 Z-9.287
N10095 G1 X426.712 Y158.424 Z-9.281
N10100 G1 X426.684 Y158.475 Z-9.274
N10105 G1 X426.653 Y158.525 Z-9.268
N10110 G1 X426.618 Y158.573 Z-9.262
N10115 G1 X426.581 Y158.618 Z-9.257
N10120 G1 X426.541 Y158.66 Z-9.251
N10125 G1 X426.498 Y158.7 Z-9.246
N10130 G1 X426.452 Y158.737 Z-9.242
N10135 G1 X426.404 Y158.771 Z-9.238
N10140 G1 X426.354 Y158.802 Z-9.234
N10145 G1 X426.302 Y158.83 Z-9.23
N10150 G1 X426.249 Y158.854 Z-9.227
N10155 G1 X426.194 Y158.875 Z-9.225
N10160 G1 X426.137 Y158.892 Z-9.223
N10165 G1 X426.08 Y158.905 Z-9.221
N10170 G1 X426.022 Y158.914 Z-9.22
N10175 G1 X425.963 Y158.92 Z-9.219
N10180 G1 X425.904 Y158.922
N10185 G1 X425.837 Z-9.227
N10190 G1 X425.772 Z-9.25
N10195 G1 X425.719 Z-9.27
N10200 G1 X425.663 Z-9.279
N10205 G1 X425.606 Z-9.278
N10210 G1 X421.07 Z-8.755
N10215 G1 X416.18 Z-8.211
N10220 G1 X412.634 Z-7.83
N10225 G1 X408.848 Z-7.434
N10230 G1 X403.736 Z-6.92
N10235 G1 X399.323 Z-6.496
N10240 G1 X395.698 Z-6.159
N10245 G1 X391.623 Z-5.794
N10250 G1 X387.712 Z-5.458
N10255 G1 X384.12 Z-5.16
N10260 G1 X379.707 Z-4.81
N10265 G1 X376.055 Z-4.533
N10270 G1 X372.134 Z-4.247
N10275 G1 X367.874 Z-3.953
N10280 G1 X364.35 Z-3.721
N10285 G1 X360.323 Z-3.467
N10290 G1 X356.4 Z-3.235
N10295 G1 X353.009 Z-3.044
N10300 G1 X349.15 Z-2.838
N10305 G1 X344.794 Z-2.621
N10310 G1 X339.87 Z-2.395
N10315 G1 X334.883 Z-2.187
N10320 G1 X333.053 Z-2.122
N10325 G1 X331.538 Z-2.079
N10330 G1 X329.519 Z-2.035
N10335 G1 X327.328 Z-2.008
N10340 G1 X324.348 Z-2
N10345 G1 X320.773
N10350 G1 X320.705 Z-1.992
N10355 G1 X320.641 Z-1.969
N10360 G1 X320.577 Z-1.947
N10365 G1 X320.509 Z-1.939
N10370 G2 X319.609 Y159.822 I0 J0.9
N10375 G1 Y161.021
N10380 G2 X320.509 Y161.921 I0.9 J0
N10385 G1 X324.059
N10390 G1 X324.126 Z-1.947
N10395 G1 X324.191 Z-1.969
N10400 G1 X324.255 Z-1.992
N10405 G1 X324.323 Z-2
N10410 G1 X327.629
N10415 G1 X330.901 Z-2.009
N10420 G1 X333.092 Z-2.036
N10425 G1 X335.112 Z-2.08
N10430 G1 X336.531 Z-2.12
N10435 G1 X338.22 Z-2.179
N10440 G1 X343.239 Z-2.387
N10445 G1 X348.052 Z-2.607
N10450 G1 X351.959 Z-2.801
N10455 G1 X355.987 Z-3.013
N10460 G1 X359.708 Z-3.221
N10465 G1 X363.349 Z-3.436
N10470 G1 X367.64 Z-3.704
N10475 G1 X371.26 Z-3.942
N10480 G1 X375.447 Z-4.23
N10485 G1 X379.496 Z-4.525
N10490 G1 X383.113 Z-4.799
N10495 G1 X387.608 Z-5.155
N10500 G1 X391.202 Z-5.453
N10505 G1 X395.116 Z-5.789
N10510 G1 X399.225 Z-6.157
N10515 G1 X402.788 Z-6.488
N10520 G1 X407.053 Z-6.898
N10525 G1 X411.715 Z-7.364
N10530 G1 X415.856 Z-7.795
N10535 G1 X419.274 Z-8.162
N10540 G1 X422.544 Z-8.522
N10545 G1 X426.001 Z-8.912
N10550 G1 X426.058 Z-8.913
N10555 G1 X426.114 Z-8.904
N10560 G1 X426.167 Z-8.884
N10565 G1 X426.231 Z-8.861
N10570 G1 X426.299 Z-8.853
N10575 G1 X426.671
N10580 G1 X426.73 Y161.923
N10585 G1 X426.788 Y161.929 Z-8.852
N10590 G1 X426.846 Y161.939 Z-8.851
N10595 G1 X426.904 Y161.952 Z-8.849
N10600 G1 X426.96 Y161.969 Z-8.847
N10605 G1 X427.015 Y161.99 Z-8.845
N10610 G1 X427.069 Y162.014 Z-8.842
N10615 G1 X427.121 Y162.041 Z-8.839
N10620 G1 X427.171 Y162.072 Z-8.835
N10625 G1 X427.219 Y162.106 Z-8.831
N10630 G1 X427.264 Y162.143 Z-8.826
N10635 G1 X427.307 Y162.183 Z-8.822
N10640 G1 X427.347 Y162.226 Z-8.817
N10645 G1 X427.385 Y162.271 Z-8.811
N10650 G1 X427.419 Y162.319 Z-8.805
N10655 G1 X427.45 Y162.368 Z-8.799
N10660 G1 X427.478 Y162.42 Z-8.793
N10665 G1 X427.502 Y162.473 Z-8.787
N10670 G1 X427.523 Y162.528 Z-8.78
N10675 G1 X427.54 Y162.584 Z-8.774
N10680 G1 X427.554 Y162.641 Z-8.767
N10685 G1 X427.563 Y162.698 Z-8.76
N10690 G1 X427.569 Y162.757 Z-8.753
N10695 G1 X427.571 Y162.815 Z-8.746
N10700 G1 Y164.027 Z-8.601
N10705 G1 X427.569 Y164.086 Z-8.594
N10710 G1 X427.563 Y164.144 Z-8.587
N10715 G1 X427.554 Y164.202 Z-8.58
N10720 G1 X427.54 Y164.259 Z-8.573
N10725 G1 X427.523 Y164.315 Z-8.566
N10730 G1 X427.502 Y164.369 Z-8.56
N10735 G1 X427.478 Y164.423 Z-8.554
N10740 G1 X427.45 Y164.474 Z-8.547
N10745 G1 X427.419 Y164.524 Z-8.541
N10750 G1 X427.385 Y164.571 Z-8.536
N10755 G1 X427.347 Y164.617 Z-8.53
N10760 G1 X427.307 Y164.659 Z-8.525
N10765 G1 X427.264 Y164.699 Z-8.52
N10770 G1 X427.219 Y164.736 Z-8.516
N10775 G1 X427.171 Y164.77 Z-8.512
N10780 G1 X427.121 Y164.801 Z-8.508
N10785 G1 X427.069 Y164.829 Z-8.505
N10790 G1 X427.015 Y164.853 Z-8.502
N10795 G1 X426.96 Y164.874 Z-8.5
N10800 G1 X426.904 Y164.891 Z-8.498
N10805 G1 X426.846 Y164.904 Z-8.496
N10810 G1 X426.788 Y164.913 Z-8.495
N10815 G1 X426.73 Y164.919 Z-8.494
N10820 G1 X426.671 Y164.921
N10825 G1 X426.603 Z-8.502
N10830 G1 X426.539 Z-8.525
N10835 G1 X426.486 Z-8.544
N10840 G1 X426.43 Z-8.554
N10845 G1 X426.374 Z-8.553
N10850 G1 X422.894 Z-8.169
N10855 G1 X419.477 Z-7.803
N10860 G1 X415.397 Z-7.378
N10865 G1 X410.619 Z-6.899
N10870 G1 X406.322 Z-6.486
N10875 G1 X402.791 Z-6.159
N10880 G1 X398.716 Z-5.793
N10885 G1 X394.77 Z-5.455
N10890 G1 X391.212 Z-5.16
N10895 G1 X386.797 Z-4.809
N10900 G1 X383.146 Z-4.532
N10905 G1 X379.224 Z-4.246
N10910 G1 X374.963 Z-3.952
N10915 G1 X371.44 Z-3.72
N10920 G1 X367.364 Z-3.464
N10925 G1 X363.435 Z-3.231
N10930 G1 X359.935 Z-3.035
N10935 G1 X355.944 Z-2.823
N10940 G1 X351.817 Z-2.617
N10945 G1 X346.947 Z-2.394
N10950 G1 X341.89 Z-2.183
N10955 G1 X340.136 Z-2.122
N10960 G1 X338.623 Z-2.079
N10965 G1 X336.636 Z-2.035
N10970 G1 X334.528 Z-2.009
N10975 G1 X331.716 Z-2
N10980 G1 X327.873
N10985 G1 X327.805 Z-1.992
N10990 G1 X327.741 Z-1.969
N10995 G1 X327.676 Z-1.947
N11000 G1 X327.609 Z-1.939
N11005 G2 X326.709 Y165.821 I0 J0.9
N11010 G1 Y167.02
N11015 G2 X327.609 Y167.92 I0.9 J0
N11020 G1 X331.159
N11025 G1 X331.226 Z-1.947
N11030 G1 X331.291 Z-1.969
N11035 G1 X331.355 Z-1.992
N11040 G1 X331.423 Z-2
N11045 G1 X335.534
N11050 G1 X338.112 Z-2.009
N11055 G1 X340.219 Z-2.036
N11060 G1 X342.206 Z-2.079
N11065 G1 X343.72 Z-2.123
N11070 G1 X345.548 Z-2.187
N11075 G1 X350.594 Z-2.398
N11080 G1 X355.458 Z-2.622
N11085 G1 X359.872 Z-2.842
N11090 G1 X363.776 Z-3.051
N11095 G1 X367.162 Z-3.242
N11100 G1 X371.178 Z-3.48
N11105 G1 X375.147 Z-3.73
N11110 G1 X378.665 Z-3.962
N11115 G1 X383.08 Z-4.268
N11120 G1 X386.872 Z-4.545
N11125 G1 X390.632 Z-4.831
N11130 G1 X394.885 Z-5.17
N11135 G1 X398.44 Z-5.465
N11140 G1 X402.446 Z-5.809
N11145 G1 X406.386 Z-6.163
N11150 G1 X409.916 Z-6.49
N11155 G1 X414.361 Z-6.918
N11160 G1 X419.532 Z-7.438
N11165 G1 X423.26 Z-7.827
N11170 G1 X426.726 Z-8.2
N11175 G1 X426.783 Z-8.201
N11180 G1 X426.838 Z-8.191
N11185 G1 X426.89 Z-8.171
N11190 G1 X426.955 Z-8.148
N11195 G1 X427.022 Z-8.14
N11200 G1 X427.061
N11205 G1 X427.12 Y167.922
N11210 G1 X427.179 Y167.928 Z-8.139
N11215 G1 X427.237 Y167.938 Z-8.138
N11220 G1 X427.294 Y167.951 Z-8.136
N11225 G1 X427.351 Y167.968 Z-8.134
N11230 G1 X427.406 Y167.988 Z-8.132
N11235 G1 X427.459 Y168.013 Z-8.129
N11240 G1 X427.511 Y168.04 Z-8.125
N11245 G1 X427.561 Y168.071 Z-8.121
N11250 G1 X427.609 Y168.105 Z-8.117
N11255 G1 X427.655 Y168.142 Z-8.112
N11260 G1 X427.698 Y168.182 Z-8.107
N11265 G1 X427.738 Y168.225 Z-8.102
N11270 G1 X427.775 Y168.27 Z-8.096
N11275 G1 X427.81 Y168.317 Z-8.09
N11280 G1 X427.841 Y168.367 Z-8.084
N11285 G1 X427.868 Y168.418 Z-8.078
N11290 G1 X427.893 Y168.472 Z-8.071
N11295 G1 X427.914 Y168.526 Z-8.064
N11300 G1 X427.931 Y168.582 Z-8.057
N11305 G1 X427.944 Y168.639 Z-8.05
N11310 G1 X427.954 Y168.697 Z-8.043
N11315 G1 X427.959 Y168.755 Z-8.035
N11320 G1 X427.961 Y168.813 Z-8.028
N11325 G1 Y170.027 Z-7.875
N11330 G1 X427.959 Y170.085 Z-7.868
N11335 G1 X427.954 Y170.144 Z-7.861
N11340 G1 X427.944 Y170.201 Z-7.853
N11345 G1 X427.931 Y170.258 Z-7.846
N11350 G1 X427.914 Y170.314 Z-7.839
N11355 G1 X427.893 Y170.369 Z-7.832
N11360 G1 X427.868 Y170.422 Z-7.826
N11365 G1 X427.841 Y170.473 Z-7.819
N11370 G1 X427.81 Y170.523 Z-7.813
N11375 G1 X427.775 Y170.571 Z-7.807
N11380 G1 X427.738 Y170.616 Z-7.801
N11385 G1 X427.698 Y170.658 Z-7.796
N11390 G1 X427.655 Y170.698 Z-7.791
N11395 G1 X427.609 Y170.735 Z-7.786
N11400 G1 X427.561 Y170.769 Z-7.782
N11405 G1 X427.511 Y170.8 Z-7.778
N11410 G1 X427.459 Y170.828 Z-7.775
N11415 G1 X427.406 Y170.852 Z-7.772
N11420 G1 X427.351 Y170.873 Z-7.769
N11425 G1 X427.294 Y170.889 Z-7.767
N11430 G1 X427.237 Y170.903 Z-7.765
N11435 G1 X427.179 Y170.912 Z-7.764
N11440 G1 X427.12 Y170.918 Z-7.763
N11445 G1 X427.061 Y170.92
N11450 G1 X426.994 Z-7.771
N11455 G1 X426.929 Z-7.794
N11460 G1 X426.877 Z-7.813
N11465 G1 X426.822 Z-7.823
N11470 G1 X426.766
N11475 G1 X422.951 Z-7.424
N11480 G1 X417.833 Z-6.91
N11485 G1 X413.448 Z-6.489
N11490 G1 X409.917 Z-6.161
N11495 G1 X405.91 Z-5.802
N11500 G1 X401.934 Z-5.46
N11505 G1 X398.377 Z-5.165
N11510 G1 X394.082 Z-4.823
N11515 G1 X390.397 Z-4.543
N11520 G1 X386.604 Z-4.266
N11525 G1 X382.229 Z-3.963
N11530 G1 X378.711 Z-3.731
N11535 G1 X374.743 Z-3.481
N11540 G1 X370.677 Z-3.24
N11545 G1 X367.291 Z-3.049
N11550 G1 X363.384 Z-2.84
N11555 G1 X358.967 Z-2.62
N11560 G1 X354.101 Z-2.397
N11565 G1 X349.054 Z-2.186
N11570 G1 X347.211 Z-2.121
N11575 G1 X345.814 Z-2.081
N11580 G1 X343.859 Z-2.038
N11585 G1 X341.777 Z-2.01
N11590 G1 X339.496 Z-2
N11595 G1 X334.973
N11600 G1 X334.905 Z-1.992
N11605 G1 X334.84 Z-1.969
N11610 G1 X334.776 Z-1.947
N11615 G1 X334.708 Z-1.939
N11620 G2 X333.808 Y171.82 I0 J0.9
N11625 G1 Y173.019
N11630 G2 X334.708 Y173.919 I0.9 J0
N11635 G1 X338.258
N11640 G1 X338.326 Z-1.947
N11645 G1 X338.39 Z-1.969
N11650 G1 X338.455 Z-1.992
N11655 G1 X338.522 Z-2
N11660 G1 X343.094
N11665 G1 X345.374 Z-2.011
N11670 G1 X347.457 Z-2.039
N11675 G1 X349.411 Z-2.082
N11680 G1 X350.808 Z-2.122
N11685 G1 X352.56 Z-2.184
N11690 G1 X357.677 Z-2.398
N11695 G1 X362.541 Z-2.621
N11700 G1 X367.014 Z-2.844
N11705 G1 X370.915 Z-3.053
N11710 G1 X374.298 Z-3.244
N11715 G1 X378.361 Z-3.485
N11720 G1 X382.324 Z-3.735
N11725 G1 X385.839 Z-3.967
N11730 G1 X390.291 Z-4.276
N11735 G1 X394 Z-4.547
N11740 G1 X397.836 Z-4.839
N11745 G1 X402.046 Z-5.175
N11750 G1 X405.6 Z-5.47
N11755 G1 X409.636 Z-5.817
N11760 G1 X413.509 Z-6.165
N11765 G1 X417.007 Z-6.49
N11770 G1 X421.453 Z-6.917
N11775 G1 X426.766 Z-7.452
N11780 G1 X426.822
N11785 G1 X426.876 Z-7.442
N11790 G1 X426.928 Z-7.423
N11795 G1 X426.992 Z-7.4
N11800 G1 X427.06 Z-7.392
N11805 G1 X427.119 Y173.921
N11810 G1 X427.178 Y173.927 Z-7.391
N11815 G1 X427.236 Y173.937 Z-7.39
N11820 G1 X427.293 Y173.95 Z-7.388
N11825 G1 X427.349 Y173.967 Z-7.386
N11830 G1 X427.405 Y173.987 Z-7.384
N11835 G1 X427.458 Y174.012 Z-7.381
N11840 G1 X427.51 Y174.039 Z-7.378
N11845 G1 X427.56 Y174.07 Z-7.374
N11850 G1 X427.608 Y174.104 Z-7.37
N11855 G1 X427.654 Y174.141 Z-7.365
N11860 G1 X427.697 Y174.181 Z-7.361
N11865 G1 X427.737 Y174.224 Z-7.355
N11870 G1 X427.774 Y174.269 Z-7.35
N11875 G1 X427.808 Y174.317 Z-7.344
N11880 G1 X427.84 Y174.366 Z-7.338
N11885 G1 X427.867 Y174.418 Z-7.332
N11890 G1 X427.892 Y174.471 Z-7.326
N11895 G1 X427.912 Y174.526 Z-7.319
N11900 G1 X427.929 Y174.582 Z-7.313
N11905 G1 X427.943 Y174.639 Z-7.306
N11910 G1 X427.952 Y174.696 Z-7.299
N11915 G1 X427.958 Y174.755 Z-7.292
N11920 G1 X427.96 Y174.813 Z-7.285
N11925 G1 Y176.025 Z-7.14
N11930 G1 X427.958 Y176.084 Z-7.133
N11935 G1 X427.952 Y176.142 Z-7.126
N11940 G1 X427.943 Y176.2 Z-7.119
N11945 G1 X427.929 Y176.257 Z-7.112
N11950 G1 X427.912 Y176.313 Z-7.105
N11955 G1 X427.892 Y176.367 Z-7.099
N11960 G1 X427.867 Y176.42 Z-7.093
N11965 G1 X427.84 Y176.472 Z-7.086
N11970 G1 X427.808 Y176.522 Z-7.08
N11975 G1 X427.774 Y176.569 Z-7.075
N11980 G1 X427.737 Y176.614 Z-7.069
N11985 G1 X427.697 Y176.657 Z-7.064
N11990 G1 X427.654 Y176.697 Z-7.059
N11995 G1 X427.608 Y176.734 Z-7.055
N12000 G1 X427.56 Y176.768 Z-7.051
N12005 G1 X427.51 Y176.799 Z-7.047
N12010 G1 X427.458 Y176.827 Z-7.044
N12015 G1 X427.405 Y176.851 Z-7.041
N12020 G1 X427.349 Y176.871 Z-7.039
N12025 G1 X427.293 Y176.888 Z-7.037
N12030 G1 X427.236 Y176.902 Z-7.035
N12035 G1 X427.178 Y176.911 Z-7.034
N12040 G1 X427.119 Y176.917 Z-7.033
N12045 G1 X427.06 Y176.919
N12050 G1 X427.059
N12055 G1 X426.992 Z-7.041
N12060 G1 X426.927 Z-7.064
N12065 G1 X426.876 Z-7.083
N12070 G1 X426.821 Z-7.093
N12075 G1 X426.766
N12080 G1 X423.314 Z-6.753
N12085 G1 X419.878 Z-6.426
N12090 G1 X416.103 Z-6.078
N12095 G1 X411.879 Z-5.703
N12100 G1 X408.428 Z-5.409
N12105 G1 X404.381 Z-5.076
N12110 G1 X400.29 Z-4.755
N12115 G1 X396.419 Z-4.463
N12120 G1 X392.317 Z-4.169
N12125 G1 X388.795 Z-3.927
N12130 G1 X384.758 Z-3.663
N12135 G1 X380.761 Z-3.416
N12140 G1 X377.309 Z-3.213
N12145 G1 X373.207 Z-2.984
N12150 G1 X369.366 Z-2.784
N12155 G1 X365.682 Z-2.602
N12160 G1 X360.993 Z-2.387
N12165 G1 X356.058 Z-2.182
N12170 G1 X354.301 Z-2.121
N12175 G1 X352.894 Z-2.08
N12180 G1 X350.905 Z-2.037
N12185 G1 X348.853 Z-2.01
N12190 G1 X346.707 Z-2
N12195 G1 X342.072
N12200 G1 X342.005 Z-1.992
N12205 G1 X341.94 Z-1.969
N12210 G1 X341.876 Z-1.947
N12215 G1 X341.808 Z-1.939
N12220 G2 X340.908 Y177.819 I0 J0.9
N12225 G1 Y179.018
N12230 G2 X341.808 Y179.918 I0.9 J0
N12235 G1 X345.358
N12240 G1 X345.426 Z-1.947
N12245 G1 X345.49 Z-1.969
N12250 G1 X345.555 Z-1.992
N12255 G1 X345.622 Z-2
N12260 G1 X350.084
N12265 G1 X352.499 Z-2.011
N12270 G1 X354.581 Z-2.039
N12275 G1 X356.536 Z-2.083
N12280 G1 X357.848 Z-2.121
N12285 G1 X359.603 Z-2.182
N12290 G1 X364.538 Z-2.387
N12295 G1 X369.225 Z-2.601
N12300 G1 X372.85 Z-2.78
N12305 G1 X376.641 Z-2.977
N12310 G1 X380.8 Z-3.209
N12315 G1 X384.254 Z-3.412
N12320 G1 X388.209 Z-3.656
N12325 G1 X392.292 Z-3.924
N12330 G1 X395.816 Z-4.165
N12335 G1 X399.883 Z-4.457
N12340 G1 X403.794 Z-4.751
N12345 G1 X407.7 Z-5.057
N12350 G1 X411.832 Z-5.397
N12355 G1 X415.285 Z-5.691
N12360 G1 X419.392 Z-6.054
N12365 G1 X423.359 Z-6.419
N12370 G1 X426.766 Z-6.744
N12375 G1 X426.821
N12380 G1 X426.875 Z-6.734
N12385 G1 X426.927 Z-6.714
N12390 G1 X426.991 Z-6.691
N12395 G1 X427.059 Z-6.684
N12400 G1 X427.117 Y179.92
N12405 G1 X427.176 Y179.926 Z-6.683
N12410 G1 X427.234 Y179.936 Z-6.682
N12415 G1 X427.291 Y179.949 Z-6.68
N12420 G1 X427.348 Y179.966 Z-6.678
N12425 G1 X427.403 Y179.986 Z-6.676
N12430 G1 X427.457 Y180.011 Z-6.673
N12435 G1 X427.509 Y180.038 Z-6.67
N12440 G1 X427.559 Y180.069 Z-6.667
N12445 G1 X427.606 Y180.103 Z-6.663
N12450 G1 X427.652 Y180.14 Z-6.659
N12455 G1 X427.695 Y180.18 Z-6.654
N12460 G1 X427.735 Y180.223 Z-6.649
N12465 G1 X427.773 Y180.268 Z-6.644
N12470 G1 X427.807 Y180.316 Z-6.639
N12475 G1 X427.838 Y180.366 Z-6.633
N12480 G1 X427.866 Y180.417 Z-6.628
N12485 G1 X427.89 Y180.47 Z-6.622
N12490 G1 X427.911 Y180.525 Z-6.615
N12495 G1 X427.928 Y180.581 Z-6.609
N12500 G1 X427.941 Y180.638 Z-6.603
N12505 G1 X427.951 Y180.696 Z-6.596
N12510 G1 X427.957 Y180.754 Z-6.59
N12515 G1 X427.959 Y180.813 Z-6.583
N12520 G1 Y182.023 Z-6.447
N12525 G1 X427.957 Y182.082 Z-6.44
N12530 G1 X427.951 Y182.14 Z-6.433
N12535 G1 X427.941 Y182.198 Z-6.427
N12540 G1 X427.928 Y182.255 Z-6.42
N12545 G1 X427.911 Y182.311 Z-6.414
N12550 G1 X427.89 Y182.366 Z-6.408
N12555 G1 X427.866 Y182.419 Z-6.402
N12560 G1 X427.838 Y182.471 Z-6.396
N12565 G1 X427.807 Y182.52 Z-6.391
N12570 G1 X427.773 Y182.568 Z-6.385
N12575 G1 X427.735 Y182.613 Z-6.38
N12580 G1 X427.695 Y182.656 Z-6.375
N12585 G1 X427.652 Y182.696 Z-6.371
N12590 G1 X427.606 Y182.733 Z-6.367
N12595 G1 X427.559 Y182.767 Z-6.363
N12600 G1 X427.509 Y182.798 Z-6.359
N12605 G1 X427.457 Y182.826 Z-6.356
N12610 G1 X427.403 Y182.85 Z-6.353
N12615 G1 X427.348 Y182.87 Z-6.351
N12620 G1 X427.291 Y182.887 Z-6.349
N12625 G1 X427.234 Y182.901 Z-6.348
N12630 G1 X427.176 Y182.91 Z-6.347
N12635 G1 X427.117 Y182.916 Z-6.346
N12640 G1 X427.059 Y182.918
N12645 G1 X427.055
N12650 G1 X426.987 Z-6.354
N12655 G1 X426.923 Z-6.376
N12660 G1 X426.872 Z-6.396
N12665 G1 X426.818 Z-6.406
N12670 G1 X426.764
N12675 G1 X422.694 Z-6.031
N12680 G1 X418.78 Z-5.686
N12685 G1 X415.289 Z-5.389
N12690 G1 X410.969 Z-5.035
N12695 G1 X407.281 Z-4.746
N12700 G1 X403.248 Z-4.443
N12705 G1 X399.211 Z-4.155
N12710 G1 X395.726 Z-3.916
N12715 G1 X391.541 Z-3.643
N12720 G1 X387.672 Z-3.404
N12725 G1 X384.161 Z-3.198
N12730 G1 X379.761 Z-2.955
N12735 G1 X376.182 Z-2.769
N12740 G1 X372.665 Z-2.596
N12745 G1 X368.096 Z-2.388
N12750 G1 X363.166 Z-2.182
N12755 G1 X361.41 Z-2.121
N12760 G1 X360.121 Z-2.084
N12765 G1 X358.164 Z-2.04
N12770 G1 X356.19 Z-2.012
N12775 G1 X354.043 Z-2
N12780 G1 X349.172
N12785 G1 X349.104 Z-1.992
N12790 G1 X349.04 Z-1.969
N12795 G1 X348.976 Z-1.947
N12800 G1 X348.908 Z-1.939
N12805 G2 X348.008 Y183.818 I0 J0.9
N12810 G1 Y185.017
N12815 G2 X348.908 Y185.917 I0.9 J0
N12820 G1 X352.458
N12825 G1 X352.526 Z-1.947
N12830 G1 X352.59 Z-1.969
N12835 G1 X352.654 Z-1.992
N12840 G1 X352.722 Z-2
N12845 G1 X357.697 Z-2.001
N12850 G1 X359.843 Z-2.013
N12855 G1 X361.777 Z-2.041
N12860 G1 X363.615 Z-2.082
N12865 G1 X365.02 Z-2.123
N12870 G1 X366.76 Z-2.184
N12875 G1 X371.744 Z-2.392
N12880 G1 X376.43 Z-2.606
N12885 G1 X380.166 Z-2.791
N12890 G1 X384.156 Z-3
N12895 G1 X388.09 Z-3.22
N12900 G1 X391.538 Z-3.423
N12905 G1 X395.661 Z-3.679
N12910 G1 X399.513 Z-3.932
N12915 G1 X403.076 Z-4.176
N12920 G1 X407.448 Z-4.491
N12925 G1 X411.039 Z-4.762
N12930 G1 X415.163 Z-5.086
N12935 G1 X419.17 Z-5.417
N12940 G1 X422.583 Z-5.708
N12945 G1 X426.741 Z-6.076
N12950 G1 X426.795
N12955 G1 X426.849 Z-6.066
N12960 G1 X426.899 Z-6.047
N12965 G1 X426.964 Z-6.024
N12970 G1 X427.031 Z-6.016
N12975 G1 X427.09 Y185.919
N12980 G1 X427.149 Y185.925
N12985 G1 X427.207 Y185.935 Z-6.015
N12990 G1 X427.264 Y185.948 Z-6.013
N12995 G1 X427.321 Y185.965 Z-6.011
N13000 G1 X427.376 Y185.985 Z-6.009
N13005 G1 X427.429 Y186.01 Z-6.007
N13010 G1 X427.481 Y186.037 Z-6.004
N13015 G1 X427.531 Y186.068 Z-6
N13020 G1 X427.579 Y186.102 Z-5.997
N13025 G1 X427.625 Y186.139 Z-5.993
N13030 G1 X427.668 Y186.179 Z-5.988
N13035 G1 X427.708 Y186.222 Z-5.984
N13040 G1 X427.745 Y186.267 Z-5.979
N13045 G1 X427.78 Y186.315 Z-5.974
N13050 G1 X427.811 Y186.365 Z-5.969
N13055 G1 X427.839 Y186.416 Z-5.963
N13060 G1 X427.863 Y186.47 Z-5.958
N13065 G1 X427.884 Y186.525 Z-5.952
N13070 G1 X427.901 Y186.581 Z-5.946
N13075 G1 X427.914 Y186.638 Z-5.94
N13080 G1 X427.924 Y186.695 Z-5.934
N13085 G1 X427.929 Y186.754 Z-5.927
N13090 G1 X427.931 Y186.812 Z-5.921
N13095 G1 Y188.022 Z-5.792
N13100 G1 X427.929 Y188.08 Z-5.786
N13105 G1 X427.924 Y188.139 Z-5.78
N13110 G1 X427.914 Y188.196 Z-5.774
N13115 G1 X427.901 Y188.253 Z-5.767
N13120 G1 X427.884 Y188.31 Z-5.762
N13125 G1 X427.863 Y188.364 Z-5.756
N13130 G1 X427.839 Y188.418 Z-5.75
N13135 G1 X427.811 Y188.469 Z-5.744
N13140 G1 X427.78 Y188.519 Z-5.739
N13145 G1 X427.745 Y188.567 Z-5.734
N13150 G1 X427.708 Y188.612 Z-5.729
N13155 G1 X427.668 Y188.655 Z-5.725
N13160 G1 X427.625 Y188.695 Z-5.72
N13165 G1 X427.579 Y188.732 Z-5.716
N13170 G1 X427.531 Y188.766 Z-5.713
N13175 G1 X427.481 Y188.797 Z-5.71
N13180 G1 X427.429 Y188.824 Z-5.707
N13185 G1 X427.376 Y188.849 Z-5.704
N13190 G1 X427.321 Y188.869 Z-5.702
N13195 G1 X427.264 Y188.886 Z-5.7
N13200 G1 X427.207 Y188.9 Z-5.699
N13205 G1 X427.149 Y188.909 Z-5.698
N13210 G1 X427.09 Y188.915 Z-5.697
N13215 G1 X427.031 Y188.917
N13220 G1 X426.986
N13225 G1 X426.918 Z-5.705
N13230 G1 X426.854 Z-5.727
N13235 G1 X426.803 Z-5.747
N13240 G1 X426.75 Z-5.757
N13245 G1 X426.696
N13250 G1 X423.019 Z-5.442
N13255 G1 X419.49 Z-5.15
N13260 G1 X414.992 Z-4.793
N13265 G1 X411.495 Z-4.528
N13270 G1 X407.488 Z-4.237
N13275 G1 X403.35 Z-3.951
N13280 G1 X399.872 Z-3.722
N13285 G1 X395.749 Z-3.463
N13290 G1 X391.872 Z-3.233
N13295 G1 X388.374 Z-3.037
N13300 G1 X384.154 Z-2.813
N13305 G1 X380.136 Z-2.614
N13310 G1 X375.461 Z-2.399
N13315 G1 X370.345 Z-2.185
N13320 G1 X368.607 Z-2.124
N13325 G1 X367.223 Z-2.084
N13330 G1 X365.301 Z-2.041
N13335 G1 X363.326 Z-2.013
N13340 G1 X361.046 Z-2
N13345 G1 X356.272
N13350 G1 X356.204 Z-1.992
N13355 G1 X356.14 Z-1.969
N13360 G1 X356.076 Z-1.947
N13365 G1 X356.008 Z-1.939
N13370 G2 X355.108 Y189.817 I0 J0.9
N13375 G1 Y191.016
N13380 G2 X356.008 Y191.916 I0.9 J0
N13385 G1 X359.558
N13390 G1 X359.626 Z-1.947
N13395 G1 X359.69 Z-1.969
N13400 G1 X359.754 Z-1.992
N13405 G1 X359.822 Z-2
N13410 G1 X365.228 Z-2.002
N13415 G1 X367.269 Z-2.017
N13420 G1 X368.963 Z-2.043
N13425 G1 X370.736 Z-2.083
N13430 G1 X372.143 Z-2.124
N13435 G1 X373.955 Z-2.188
N13440 G1 X379.133 Z-2.405
N13445 G1 X383.799 Z-2.619
N13450 G1 X388.218 Z-2.839
N13455 G1 X392.181 Z-3.051
N13460 G1 X395.616 Z-3.245
N13465 G1 X399.678 Z-3.486
N13470 G1 X403.686 Z-3.739
N13475 G1 X407.153 Z-3.968
N13480 G1 X411.48 Z-4.268
N13485 G1 X415.195 Z-4.54
N13490 G1 X418.802 Z-4.813
N13495 G1 X423.176 Z-5.161
N13500 G1 X426.631 Z-5.447
N13505 G1 X426.685
N13510 G1 X426.738 Z-5.437
N13515 G1 X426.788 Z-5.417
N13520 G1 X426.852 Z-5.395
N13525 G1 X426.92 Z-5.387
N13530 G1 X426.979 Y191.918
N13535 G1 X427.037 Y191.924 Z-5.386
N13540 G1 X427.095 Y191.933 Z-5.385
N13545 G1 X427.153 Y191.947 Z-5.384
N13550 G1 X427.209 Y191.964 Z-5.382
N13555 G1 X427.264 Y191.984 Z-5.38
N13560 G1 X427.318 Y192.009 Z-5.378
N13565 G1 X427.37 Y192.036 Z-5.375
N13570 G1 X427.42 Y192.067 Z-5.372
N13575 G1 X427.468 Y192.101 Z-5.368
N13580 G1 X427.513 Y192.138 Z-5.365
N13585 G1 X427.556 Y192.179 Z-5.361
N13590 G1 X427.596 Y192.221 Z-5.356
N13595 G1 X427.634 Y192.267 Z-5.352
N13600 G1 X427.668 Y192.314 Z-5.347
N13605 G1 X427.699 Y192.364 Z-5.342
N13610 G1 X427.727 Y192.416 Z-5.337
N13615 G1 X427.751 Y192.469 Z-5.331
N13620 G1 X427.772 Y192.524 Z-5.326
N13625 G1 X427.789 Y192.58 Z-5.32
N13630 G1 X427.802 Y192.637 Z-5.315
N13635 G1 X427.812 Y192.695 Z-5.309
N13640 G1 X427.818 Y192.753 Z-5.303
N13645 G1 X427.82 Y192.812 Z-5.297
N13650 G1 Y194.02 Z-5.176
N13655 G1 X427.818 Y194.079 Z-5.17
N13660 G1 X427.812 Y194.137 Z-5.164
N13665 G1 X427.802 Y194.195 Z-5.158
N13670 G1 X427.789 Y194.252 Z-5.153
N13675 G1 X427.772 Y194.308 Z-5.147
N13680 G1 X427.751 Y194.363 Z-5.141
N13685 G1 X427.727 Y194.416 Z-5.136
N13690 G1 X427.699 Y194.468 Z-5.131
N13695 G1 X427.668 Y194.518 Z-5.126
N13700 G1 X427.634 Y194.565 Z-5.121
N13705 G1 X427.596 Y194.611 Z-5.117
N13710 G1 X427.556 Y194.653 Z-5.112
N13715 G1 X427.513 Y194.694 Z-5.108
N13720 G1 X427.468 Y194.731 Z-5.104
N13725 G1 X427.42 Y194.765 Z-5.101
N13730 G1 X427.37 Y194.796 Z-5.098
N13735 G1 X427.318 Y194.823 Z-5.095
N13740 G1 X427.264 Y194.848 Z-5.093
N13745 G1 X427.209 Y194.868 Z-5.091
N13750 G1 X427.153 Y194.885 Z-5.089
N13755 G1 X427.095 Y194.899 Z-5.088
N13760 G1 X427.037 Y194.908 Z-5.087
N13765 G1 X426.979 Y194.914 Z-5.086
N13770 G1 X426.92 Y194.916
N13775 G1 X426.833
N13780 G1 X426.765 Z-5.094
N13785 G1 X426.701 Z-5.117
N13790 G1 X426.651 Z-5.136
N13795 G1 X426.599 Z-5.146
N13800 G1 X426.545
N13805 G1 X422.083 Z-4.793
N13810 G1 X418.625 Z-4.531
N13815 G1 X414.702 Z-4.245
N13820 G1 X410.527 Z-3.956
N13825 G1 X407.099 Z-3.73
N13830 G1 X402.984 Z-3.471
N13835 G1 X399.012 Z-3.236
N13840 G1 X395.571 Z-3.042
N13845 G1 X391.477 Z-2.824
N13850 G1 X387.286 Z-2.616
N13855 G1 X382.615 Z-2.402
N13860 G1 X377.507 Z-2.188
N13865 G1 X375.695 Z-2.124
N13870 G1 X374.406 Z-2.086
N13875 G1 X372.651 Z-2.046
N13880 G1 X371.284 Z-2.024
N13885 G1 X369.617 Z-2.006
N13890 G1 X363.372 Z-2
N13895 G1 X363.304 Z-1.992
N13900 G1 X363.24 Z-1.969
N13905 G1 X363.176 Z-1.947
N13910 G1 X363.108 Z-1.939
N13915 G2 X362.208 Y195.816 I0 J0.9
N13920 G1 Y197.015
N13925 G2 X363.108 Y197.915 I0.9 J0
N13930 G1 X366.658
N13935 G1 X366.726 Z-1.947
N13940 G1 X366.79 Z-1.969
N13945 G1 X366.854 Z-1.992
N13950 G1 X366.922 Z-2
N13955 G1 X367.814
N13960 G1 X373.201 Z-2.006
N13965 G1 X374.867 Z-2.024
N13970 G1 X376.234 Z-2.046
N13975 G1 X377.873 Z-2.084
N13980 G1 X379.351 Z-2.127
N13985 G1 X381.286 Z-2.197
N13990 G1 X386.375 Z-2.411
N13995 G1 X391.03 Z-2.625
N14000 G1 X395.607 Z-2.854
N14005 G1 X399.498 Z-3.063
N14010 G1 X402.974 Z-3.26
N14015 G1 X407.346 Z-3.521
N14020 G1 X411.015 Z-3.754
N14025 G1 X414.649 Z-3.995
N14030 G1 X418.99 Z-4.298
N14035 G1 X422.494 Z-4.554
N14040 G1 X426.44 Z-4.855
N14045 G1 X426.493 Z-4.854
N14050 G1 X426.546 Z-4.844
N14055 G1 X426.595 Z-4.825
N14060 G1 X426.659 Z-4.802
N14065 G1 X426.727 Z-4.794
N14070 G1 X426.786 Y197.917
N14075 G1 X426.845 Y197.923
N14080 G1 X426.903 Y197.932 Z-4.793
N14085 G1 X426.96 Y197.946 Z-4.792
N14090 G1 X427.016 Y197.963 Z-4.79
N14095 G1 X427.072 Y197.983 Z-4.788
N14100 G1 X427.125 Y198.008 Z-4.786
N14105 G1 X427.177 Y198.035 Z-4.783
N14110 G1 X427.227 Y198.066 Z-4.78
N14115 G1 X427.275 Y198.1 Z-4.777
N14120 G1 X427.321 Y198.138 Z-4.774
N14125 G1 X427.364 Y198.178 Z-4.77
N14130 G1 X427.404 Y198.22 Z-4.766
N14135 G1 X427.441 Y198.266 Z-4.762
N14140 G1 X427.475 Y198.313 Z-4.757
N14145 G1 X427.507 Y198.363 Z-4.753
N14150 G1 X427.534 Y198.415 Z-4.748
N14155 G1 X427.559 Y198.468 Z-4.743
N14160 G1 X427.579 Y198.523 Z-4.738
N14165 G1 X427.596 Y198.579 Z-4.732
N14170 G1 X427.61 Y198.636 Z-4.727
N14175 G1 X427.619 Y198.694 Z-4.722
N14180 G1 X427.625 Y198.753 Z-4.716
N14185 G1 X427.627 Y198.811 Z-4.711
N14190 G1 Y200.019 Z-4.598
N14195 G1 X427.625 Y200.077 Z-4.593
N14200 G1 X427.619 Y200.136 Z-4.587
N14205 G1 X427.61 Y200.193 Z-4.582
N14210 G1 X427.596 Y200.251 Z-4.576
N14215 G1 X427.579 Y200.307 Z-4.571
N14220 G1 X427.559 Y200.362 Z-4.566
N14225 G1 X427.534 Y200.415 Z-4.561
N14230 G1 X427.507 Y200.467 Z-4.556
N14235 G1 X427.475 Y200.516 Z-4.552
N14240 G1 X427.441 Y200.564 Z-4.547
N14245 G1 X427.404 Y200.609 Z-4.543
N14250 G1 X427.364 Y200.652 Z-4.539
N14255 G1 X427.321 Y200.692 Z-4.535
N14260 G1 X427.275 Y200.73 Z-4.532
N14265 G1 X427.227 Y200.764 Z-4.528
N14270 G1 X427.177 Y200.795 Z-4.526
N14275 G1 X427.125 Y200.822 Z-4.523
N14280 G1 X427.072 Y200.846 Z-4.521
N14285 G1 X427.016 Y200.867 Z-4.519
N14290 G1 X426.96 Y200.884 Z-4.517
N14295 G1 X426.903 Y200.897 Z-4.516
N14300 G1 X426.845 Y200.907 Z-4.515
N14305 G1 X426.786 Y200.913 Z-4.514
N14310 G1 X426.727 Y200.915
N14315 G1 X426.603
N14320 G1 X426.535 Z-4.522
N14325 G1 X426.471 Z-4.545
N14330 G1 X426.422 Z-4.564
N14335 G1 X426.37 Z-4.574
N14340 G1 X426.317 Z-4.575
N14345 G1 X422.822 Z-4.318
N14350 G1 X418.764 Z-4.033
N14355 G1 X414.743 Z-3.765
N14360 G1 X411.221 Z-3.542
N14365 G1 X406.876 Z-3.28
N14370 G1 X403.255 Z-3.074
N14375 G1 X399.596 Z-2.877
N14380 G1 X394.876 Z-2.64
N14385 G1 X390.185 Z-2.422
N14390 G1 X385.337 Z-2.217
N14395 G1 X383.071 Z-2.132
N14400 G1 X381.507 Z-2.086
N14405 G1 X379.734 Z-2.045
N14410 G1 X378.567 Z-2.026
N14415 G1 X376.953 Z-2.008
N14420 G1 X373.778 Z-2
N14425 G1 X370.472
N14430 G1 X370.404 Z-1.992
N14435 G1 X370.34 Z-1.969
N14440 G1 X370.276 Z-1.947
N14445 G1 X370.208 Z-1.939
N14450 G2 X369.308 Y201.815 I0 J0.9
N14455 G1 Y203.014
N14460 G2 X370.208 Y203.914 I0.9 J0
N14465 G1 X373.758
N14470 G1 X373.825 Z-1.947
N14475 G1 X373.89 Z-1.969
N14480 G1 X373.954 Z-1.992
N14485 G1 X374.022 Z-2
N14490 G1 X378.591
N14495 G1 X380.737 Z-2.01
N14500 G1 X382.061 Z-2.025
N14505 G1 X383.289 Z-2.045
N14510 G1 X385.062 Z-2.086
N14515 G1 X386.445 Z-2.127
N14520 G1 X388.601 Z-2.205
N14525 G1 X393.609 Z-2.417
N14530 G1 X398.252 Z-2.631
N14535 G1 X402.875 Z-2.863
N14540 G1 X406.653 Z-3.066
N14545 G1 X410.128 Z-3.263
N14550 G1 X414.684 Z-3.536
N14555 G1 X418.209 Z-3.76
N14560 G1 X421.974 Z-4.01
N14565 G1 X426.177 Z-4.304
N14570 G1 X426.23 Z-4.303
N14575 G1 X426.281 Z-4.293
N14580 G1 X426.33 Z-4.274
N14585 G1 X426.395 Z-4.252
N14590 G1 X426.462 Z-4.244
N14595 G1 X426.521 Y203.916
N14600 G1 X426.58 Y203.922 Z-4.243
N14605 G1 X426.638 Y203.931 Z-4.242
N14610 G1 X426.695 Y203.945 Z-4.241
N14615 G1 X426.752 Y203.962 Z-4.24
N14620 G1 X426.807 Y203.982 Z-4.238
N14625 G1 X426.86 Y204.007 Z-4.236
N14630 G1 X426.912 Y204.034 Z-4.233
N14635 G1 X426.962 Y204.065 Z-4.231
N14640 G1 X427.01 Y204.099 Z-4.228
N14645 G1 X427.056 Y204.137 Z-4.224
N14650 G1 X427.099 Y204.177 Z-4.221
N14655 G1 X427.139 Y204.22 Z-4.217
N14660 G1 X427.176 Y204.265 Z-4.213
N14665 G1 X427.211 Y204.313 Z-4.209
N14670 G1 X427.242 Y204.362 Z-4.205
N14675 G1 X427.269 Y204.414 Z-4.2
N14680 G1 X427.294 Y204.468 Z-4.196
N14685 G1 X427.315 Y204.523 Z-4.191
N14690 G1 X427.332 Y204.579 Z-4.186
N14695 G1 X427.345 Y204.636 Z-4.181
N14700 G1 X427.355 Y204.694 Z-4.176
N14705 G1 X427.36 Y204.752 Z-4.171
N14710 G1 X427.362 Y204.811 Z-4.166
N14715 G1 Y206.017 Z-4.061
N14720 G1 X427.36 Y206.076 Z-4.056
N14725 G1 X427.355 Y206.134 Z-4.051
N14730 G1 X427.345 Y206.192 Z-4.046
N14735 G1 X427.332 Y206.249 Z-4.041
N14740 G1 X427.315 Y206.305 Z-4.036
N14745 G1 X427.294 Y206.36 Z-4.031
N14750 G1 X427.269 Y206.414 Z-4.027
N14755 G1 X427.242 Y206.465 Z-4.022
N14760 G1 X427.211 Y206.515 Z-4.018
N14765 G1 X427.176 Y206.563 Z-4.014
N14770 G1 X427.139 Y206.608 Z-4.01
N14775 G1 X427.099 Y206.651 Z-4.006
N14780 G1 X427.056 Y206.691 Z-4.002
N14785 G1 X427.01 Y206.728 Z-3.999
N14790 G1 X426.962 Y206.763 Z-3.996
N14795 G1 X426.912 Y206.794 Z-3.993
N14800 G1 X426.86 Y206.821 Z-3.991
N14805 G1 X426.807 Y206.845 Z-3.989
N14810 G1 X426.752 Y206.866 Z-3.987
N14815 G1 X426.695 Y206.883 Z-3.986
N14820 G1 X426.638 Y206.896 Z-3.985
N14825 G1 X426.58 Y206.906 Z-3.984
N14830 G1 X426.521 Y206.912 Z-3.983
N14835 G1 X426.462 Y206.914
N14840 G1 X426.303
N14845 G1 X426.235 Z-3.991
N14850 G1 X426.171 Z-4.014
N14855 G1 X426.122 Z-4.032
N14860 G1 X426.071 Z-4.043
N14865 G1 X426.019 Z-4.044
N14870 G1 X421.96 Z-3.773
N14875 G1 X418.443 Z-3.549
N14880 G1 X414.262 Z-3.296
N14885 G1 X410.438 Z-3.079
N14890 G1 X406.892 Z-2.888
N14895 G1 X402.128 Z-2.647
N14900 G1 X397.388 Z-2.427
N14905 G1 X392.62 Z-2.224
N14910 G1 X390.307 Z-2.136
N14915 G1 X388.595 Z-2.086
N14920 G1 X386.914 Z-2.047
N14925 G1 X385.547 Z-2.024
N14930 G1 X383.88 Z-2.007
N14935 G1 X379 Z-2
N14940 G1 X377.572
N14945 G1 X377.504 Z-1.992
N14950 G1 X377.44 Z-1.969
N14955 G1 X377.375 Z-1.947
N14960 G1 X377.308 Z-1.939
N14965 G2 X376.408 Y207.814 I0 J0.9
N14970 G1 Y209.013
N14975 G2 X377.308 Y209.913 I0.9 J0
N14980 G1 X380.858
N14985 G1 X380.925 Z-1.947
N14990 G1 X380.99 Z-1.969
N14995 G1 X381.054 Z-1.992
N15000 G1 X381.122 Z-2
N15005 G1 X382.819
N15010 G1 X387.446 Z-2.007
N15015 G1 X389.113 Z-2.025
N15020 G1 X390.48 Z-2.047
N15025 G1 X392.086 Z-2.085
N15030 G1 X393.312 Z-2.12
N15035 G1 X394.915 Z-2.175
N15040 G1 X398.229 Z-2.31
N15045 G1 X401.924 Z-2.471
N15050 G1 X406.599 Z-2.692
N15055 G1 X410.796 Z-2.906
N15060 G1 X414.326 Z-3.098
N15065 G1 X418.524 Z-3.338
N15070 G1 X422.292 Z-3.568
N15075 G1 X425.844 Z-3.795
N15080 G1 X425.896 Z-3.793
N15085 G1 X425.946 Z-3.783
N15090 G1 X425.995 Z-3.765
N15095 G1 X426.059 Z-3.742
N15100 G1 X426.127 Z-3.734
N15105 G1 X426.186 Y209.915
N15110 G1 X426.244 Y209.921 Z-3.733
N15115 G1 X426.302 Y209.93
N15120 G1 X426.36 Y209.944 Z-3.732
N15125 G1 X426.416 Y209.961 Z-3.73
N15130 G1 X426.471 Y209.981 Z-3.729
N15135 G1 X426.525 Y210.006 Z-3.727
N15140 G1 X426.577 Y210.033 Z-3.724
N15145 G1 X426.627 Y210.064 Z-3.722
N15150 G1 X426.675 Y210.099 Z-3.719
N15155 G1 X426.72 Y210.136 Z-3.716
N15160 G1 X426.763 Y210.176 Z-3.713
N15165 G1 X426.803 Y210.219 Z-3.71
N15170 G1 X426.841 Y210.264 Z-3.706
N15175 G1 X426.875 Y210.312 Z-3.702
N15180 G1 X426.906 Y210.362 Z-3.698
N15185 G1 X426.934 Y210.413 Z-3.694
N15190 G1 X426.958 Y210.467 Z-3.69
N15195 G1 X426.979 Y210.522 Z-3.686
N15200 G1 X426.996 Y210.578 Z-3.681
N15205 G1 X427.01 Y210.635 Z-3.677
N15210 G1 X427.019 Y210.693 Z-3.672
N15215 G1 X427.025 Y210.752 Z-3.667
N15220 G1 X427.027 Y210.81 Z-3.663
N15225 G1 Y212.015 Z-3.567
N15230 G1 X427.025 Y212.074 Z-3.562
N15235 G1 X427.019 Y212.133 Z-3.557
N15240 G1 X427.01 Y212.19 Z-3.553
N15245 G1 X426.996 Y212.248 Z-3.548
N15250 G1 X426.979 Y212.304 Z-3.544
N15255 G1 X426.958 Y212.359 Z-3.539
N15260 G1 X426.934 Y212.412 Z-3.535
N15265 G1 X426.906 Y212.464 Z-3.531
N15270 G1 X426.875 Y212.514 Z-3.527
N15275 G1 X426.841 Y212.562 Z-3.523
N15280 G1 X426.803 Y212.607 Z-3.52
N15285 G1 X426.763 Y212.65 Z-3.516
N15290 G1 X426.72 Y212.69 Z-3.513
N15295 G1 X426.675 Y212.727 Z-3.51
N15300 G1 X426.627 Y212.761 Z-3.507
N15305 G1 X426.577 Y212.792 Z-3.505
N15310 G1 X426.525 Y212.82 Z-3.503
N15315 G1 X426.471 Y212.844 Z-3.501
N15320 G1 X426.416 Y212.865 Z-3.499
N15325 G1 X426.36 Y212.882 Z-3.498
N15330 G1 X426.302 Y212.895 Z-3.497
N15335 G1 X426.244 Y212.905 Z-3.496
N15340 G1 X426.186 Y212.911 Z-3.495
N15345 G1 X426.127 Y212.913
N15350 G1 X425.934
N15355 G1 X425.866 Z-3.503
N15360 G1 X425.802 Z-3.526
N15365 G1 X425.754 Z-3.545
N15370 G1 X425.703 Z-3.555
N15375 G1 X425.651 Z-3.556
N15380 G1 X421.525 Z-3.306
N15385 G1 X417.55 Z-3.08
N15390 G1 X414.059 Z-2.891
N15395 G1 X409.301 Z-2.651
N15400 G1 X404.631 Z-2.433
N15405 G1 X400.026 Z-2.237
N15410 G1 X397.668 Z-2.146
N15415 G1 X395.779 Z-2.088
N15420 G1 X394.175 Z-2.05
N15425 G1 X392.872 Z-2.027
N15430 G1 X391.259 Z-2.009
N15435 G1 X388.514 Z-2
N15440 G1 X384.672
N15445 G1 X384.604 Z-1.992
N15450 G1 X384.54 Z-1.969
N15455 G1 X384.475 Z-1.947
N15460 G1 X384.408 Z-1.939
N15465 G2 X383.508 Y213.813 I0 J0.9
N15470 G1 Y215.012
N15475 G2 X384.408 Y215.912 I0.9 J0
N15480 G1 X387.957
N15485 G1 X388.025 Z-1.947
N15490 G1 X388.089 Z-1.969
N15495 G1 X388.154 Z-1.992
N15500 G1 X388.222 Z-2
N15505 G1 X392.819
N15510 G1 X394.965 Z-2.01
N15515 G1 X396.311 Z-2.026
N15520 G1 X397.622 Z-2.048
N15525 G1 X399.124 Z-2.083
N15530 G1 X400.36 Z-2.118
N15535 G1 X401.802 Z-2.167
N15540 G1 X404.805 Z-2.288
N15545 G1 X408.785 Z-2.461
N15550 G1 X413.594 Z-2.687
N15555 G1 X417.801 Z-2.901
N15560 G1 X421.336 Z-3.093
N15565 G1 X425.441 Z-3.327
N15570 G1 X425.492 Z-3.326
N15575 G1 X425.543 Z-3.316
N15580 G1 X425.59 Z-3.297
N15585 G1 X425.655 Z-3.274
N15590 G1 X425.722 Z-3.267
N15595 G1 X425.781 Y215.914
N15600 G1 X425.84 Y215.92 Z-3.266
N15605 G1 X425.898 Y215.929 Z-3.265
N15610 G1 X425.955 Y215.943
N15615 G1 X426.012 Y215.96 Z-3.263
N15620 G1 X426.067 Y215.98 Z-3.262
N15625 G1 X426.121 Y216.005 Z-3.26
N15630 G1 X426.172 Y216.032 Z-3.258
N15635 G1 X426.222 Y216.063 Z-3.256
N15640 G1 X426.27 Y216.098 Z-3.253
N15645 G1 X426.316 Y216.135 Z-3.251
N15650 G1 X426.359 Y216.175 Z-3.248
N15655 G1 X426.399 Y216.218 Z-3.245
N15660 G1 X426.436 Y216.263 Z-3.241
N15665 G1 X426.471 Y216.311 Z-3.238
N15670 G1 X426.502 Y216.361 Z-3.234
N15675 G1 X426.53 Y216.413 Z-3.231
N15680 G1 X426.554 Y216.466 Z-3.227
N15685 G1 X426.575 Y216.521 Z-3.223
N15690 G1 X426.592 Y216.577 Z-3.219
N15695 G1 X426.605 Y216.635 Z-3.215
N15700 G1 X426.615 Y216.693 Z-3.21
N15705 G1 X426.621 Y216.751 Z-3.206
N15710 G1 X426.622 Y216.81 Z-3.202
N15715 G1 Y218.014 Z-3.115
N15720 G1 X426.621 Y218.073 Z-3.111
N15725 G1 X426.615 Y218.131 Z-3.106
N15730 G1 X426.605 Y218.189 Z-3.102
N15735 G1 X426.592 Y218.246 Z-3.098
N15740 G1 X426.575 Y218.302 Z-3.094
N15745 G1 X426.554 Y218.357 Z-3.09
N15750 G1 X426.53 Y218.411 Z-3.086
N15755 G1 X426.502 Y218.463 Z-3.082
N15760 G1 X426.471 Y218.513 Z-3.079
N15765 G1 X426.436 Y218.56 Z-3.075
N15770 G1 X426.399 Y218.606 Z-3.072
N15775 G1 X426.359 Y218.649 Z-3.069
N15780 G1 X426.316 Y218.689 Z-3.066
N15785 G1 X426.27 Y218.726 Z-3.063
N15790 G1 X426.222 Y218.76 Z-3.061
N15795 G1 X426.172 Y218.791 Z-3.059
N15800 G1 X426.121 Y218.819 Z-3.057
N15805 G1 X426.067 Y218.843 Z-3.055
N15810 G1 X426.012 Y218.864 Z-3.053
N15815 G1 X425.955 Y218.881 Z-3.052
N15820 G1 X425.898 Y218.894 Z-3.051
N15825 G1 X425.84 Y218.904
N15830 G1 X425.781 Y218.91 Z-3.05
N15835 G1 X425.722 Y218.912
N15840 G1 X425.494
N15845 G1 X425.426 Z-3.058
N15850 G1 X425.362 Z-3.081
N15855 G1 X425.315 Z-3.099
N15860 G1 X425.265 Z-3.109
N15865 G1 X425.214 Z-3.111
N15870 G1 X421.581 Z-2.914
N15875 G1 X417.739 Z-2.716
N15880 G1 X413.64 Z-2.52
N15885 G1 X409.676 Z-2.344
N15890 G1 X405.759 Z-2.182
N15895 G1 X404.109 Z-2.124
N15900 G1 X402.81 Z-2.086
N15905 G1 X401.203 Z-2.049
N15910 G1 X399.89 Z-2.026
N15915 G1 X398.545 Z-2.01
N15920 G1 X396.151 Z-2
N15925 G1 X391.771
N15930 G1 X391.704 Z-1.992
N15935 G1 X391.639 Z-1.969
N15940 G1 X391.575 Z-1.947
N15945 G1 X391.507 Z-1.939
N15950 G2 X390.607 Y219.812 I0 J0.9
N15955 G1 Y221.011
N15960 G2 X391.507 Y221.911 I0.9 J0
N15965 G1 X395.057
N15970 G1 X395.125 Z-1.947
N15975 G1 X395.189 Z-1.969
N15980 G1 X395.254 Z-1.992
N15985 G1 X395.321 Z-2
N15990 G1 X399.701
N15995 G1 X402.099 Z-2.01
N16000 G1 X403.444 Z-2.026
N16005 G1 X404.758 Z-2.049
N16010 G1 X406.26 Z-2.084
N16015 G1 X407.474 Z-2.118
N16020 G1 X408.914 Z-2.168
N16025 G1 X412.06 Z-2.294
N16030 G1 X416.094 Z-2.47
N16035 G1 X420.827 Z-2.693
N16040 G1 X424.965 Z-2.905
N16045 G1 X425.015 Z-2.903
N16050 G1 X425.065 Z-2.893
N16055 G1 X425.112 Z-2.875
N16060 G1 X425.177 Z-2.852
N16065 G1 X425.244 Z-2.844
N16070 G1 X425.303 Y221.913
N16075 G1 X425.362 Y221.919 Z-2.843
N16080 G1 X425.42 Y221.928
N16085 G1 X425.477 Y221.942 Z-2.842
N16090 G1 X425.534 Y221.959 Z-2.841
N16095 G1 X425.589 Y221.979 Z-2.839
N16100 G1 X425.642 Y222.004 Z-2.838
N16105 G1 X425.694 Y222.031 Z-2.836
N16110 G1 X425.744 Y222.062 Z-2.834
N16115 G1 X425.792 Y222.097 Z-2.832
N16120 G1 X425.838 Y222.134 Z-2.829
N16125 G1 X425.881 Y222.174 Z-2.827
N16130 G1 X425.921 Y222.217 Z-2.824
N16135 G1 X425.958 Y222.262 Z-2.821
N16140 G1 X425.993 Y222.31 Z-2.818
N16145 G1 X426.024 Y222.36 Z-2.815
N16150 G1 X426.051 Y222.412 Z-2.811
N16155 G1 X426.076 Y222.465 Z-2.808
N16160 G1 X426.097 Y222.52 Z-2.804
N16165 G1 X426.114 Y222.577 Z-2.801
N16170 G1 X426.127 Y222.634 Z-2.797
N16175 G1 X426.137 Y222.692 Z-2.793
N16180 G1 X426.142 Y222.75 Z-2.789
N16185 G1 X426.144 Y222.809 Z-2.785
N16190 G1 Y224.012 Z-2.707
N16195 G1 X426.142 Y224.071 Z-2.703
N16200 G1 X426.137 Y224.13 Z-2.699
N16205 G1 X426.127 Y224.188 Z-2.695
N16210 G1 X426.114 Y224.245 Z-2.692
N16215 G1 X426.097 Y224.301 Z-2.688
N16220 G1 X426.076 Y224.356 Z-2.684
N16225 G1 X426.051 Y224.41 Z-2.681
N16230 G1 X426.024 Y224.461 Z-2.678
N16235 G1 X425.993 Y224.511 Z-2.674
N16240 G1 X425.958 Y224.559 Z-2.671
N16245 G1 X425.921 Y224.605 Z-2.668
N16250 G1 X425.881 Y224.647 Z-2.665
N16255 G1 X425.838 Y224.688 Z-2.663
N16260 G1 X425.792 Y224.725 Z-2.66
N16265 G1 X425.744 Y224.759 Z-2.658
N16270 G1 X425.694 Y224.79 Z-2.656
N16275 G1 X425.642 Y224.818 Z-2.654
N16280 G1 X425.589 Y224.842 Z-2.653
N16285 G1 X425.534 Y224.863 Z-2.651
N16290 G1 X425.477 Y224.88 Z-2.65
N16295 G1 X425.42 Y224.893 Z-2.649
N16300 G1 X425.362 Y224.903
N16305 G1 X425.303 Y224.909 Z-2.648
N16310 G1 X425.244 Y224.911
N16315 G1 X424.973
N16320 G1 X424.905 Z-2.656
N16325 G1 X424.841 Z-2.679
N16330 G1 X424.794 Z-2.697
N16335 G1 X424.745 Z-2.707
N16340 G1 X424.694 Z-2.709
N16345 G1 X420.444 Z-2.506
N16350 G1 X416.39 Z-2.327
N16355 G1 X412.73 Z-2.177
N16360 G1 X411.146 Z-2.122
N16365 G1 X409.745 Z-2.082
N16370 G1 X408.359 Z-2.05
N16375 G1 X406.83 Z-2.024
N16380 G1 X405.164 Z-2.006
N16385 G1 X400.031 Z-2
N16390 G1 X398.871
N16395 G1 X398.804 Z-1.992
N16400 G1 X398.739 Z-1.969
N16405 G1 X398.675 Z-1.947
N16410 G1 X398.607 Z-1.939
N16415 G2 X397.707 Y225.811 I0 J0.9
N16420 G1 Y227.01
N16425 G2 X398.607 Y227.91 I0.9 J0
N16430 G1 X402.157
N16435 G1 X402.225 Z-1.947
N16440 G1 X402.289 Z-1.969
N16445 G1 X402.353 Z-1.992
N16450 G1 X402.421 Z-2
N16455 G1 X406.532
N16460 G1 X409.006 Z-2.009
N16465 G1 X410.62 Z-2.027
N16470 G1 X411.933 Z-2.05
N16475 G1 X413.319 Z-2.083
N16480 G1 X414.72 Z-2.123
N16485 G1 X416.384 Z-2.181
N16490 G1 X420.172 Z-2.337
N16495 G1 X424.397 Z-2.525
N16500 G1 X424.447 Z-2.523
N16505 G1 X424.496 Z-2.513
N16510 G1 X424.543 Z-2.494
N16515 G1 X424.607 Z-2.472
N16520 G1 X424.675 Z-2.464
N16525 G1 X424.733 Y227.912
N16530 G1 X424.792 Y227.918 Z-2.463
N16535 G1 X424.85 Y227.927
N16540 G1 X424.907 Y227.941 Z-2.462
N16545 G1 X424.964 Y227.958 Z-2.461
N16550 G1 X425.019 Y227.978 Z-2.46
N16555 G1 X425.073 Y228.003 Z-2.458
N16560 G1 X425.125 Y228.03 Z-2.457
N16565 G1 X425.175 Y228.061 Z-2.455
N16570 G1 X425.222 Y228.096 Z-2.453
N16575 G1 X425.268 Y228.133 Z-2.451
N16580 G1 X425.311 Y228.173 Z-2.449
N16585 G1 X425.351 Y228.216 Z-2.446
N16590 G1 X425.389 Y228.262 Z-2.444
N16595 G1 X425.423 Y228.309 Z-2.441
N16600 G1 X425.454 Y228.359 Z-2.438
N16605 G1 X425.482 Y228.411 Z-2.435
N16610 G1 X425.506 Y228.465 Z-2.432
N16615 G1 X425.527 Y228.52 Z-2.429
N16620 G1 X425.544 Y228.576 Z-2.425
N16625 G1 X425.557 Y228.633 Z-2.422
N16630 G1 X425.567 Y228.691 Z-2.419
N16635 G1 X425.573 Y228.75 Z-2.415
N16640 G1 X425.575 Y228.809 Z-2.412
N16645 G1 Y230.011 Z-2.343
N16650 G1 X425.573 Y230.07 Z-2.339
N16655 G1 X425.567 Y230.128 Z-2.336
N16660 G1 X425.557 Y230.186 Z-2.332
N16665 G1 X425.544 Y230.244 Z-2.329
N16670 G1 X425.527 Y230.3 Z-2.326
N16675 G1 X425.506 Y230.355 Z-2.323
N16680 G1 X425.482 Y230.408 Z-2.32
N16685 G1 X425.454 Y230.46 Z-2.317
N16690 G1 X425.423 Y230.51 Z-2.314
N16695 G1 X425.389 Y230.558 Z-2.311
N16700 G1 X425.351 Y230.603 Z-2.308
N16705 G1 X425.311 Y230.646 Z-2.306
N16710 G1 X425.268 Y230.686 Z-2.304
N16715 G1 X425.222 Y230.724 Z-2.301
N16720 G1 X425.175 Y230.758 Z-2.299
N16725 G1 X425.125 Y230.789 Z-2.298
N16730 G1 X425.073 Y230.817 Z-2.296
N16735 G1 X425.019 Y230.841 Z-2.295
N16740 G1 X424.964 Y230.862 Z-2.293
N16745 G1 X424.907 Y230.879 Z-2.292
N16750 G1 X424.85 Y230.892
N16755 G1 X424.792 Y230.902 Z-2.291
N16760 G1 X424.733 Y230.908
N16765 G1 X424.675 Y230.909
N16770 G1 X424.342
N16775 G1 X424.274 Z-2.298
N16780 G1 X424.21 Z-2.321
N16785 G1 X424.163 Z-2.339
N16790 G1 X424.115 Z-2.35
N16795 G1 X424.065 Z-2.352
N16800 G1 X420.009 Z-2.184
N16805 G1 X418.267 Z-2.123
N16810 G1 X416.866 Z-2.082
N16815 G1 X415.481 Z-2.05
N16820 G1 X414.167 Z-2.027
N16825 G1 X412.554 Z-2.009
N16830 G1 X410.083 Z-2
N16835 G1 X405.971
N16840 G1 X405.903 Z-1.992
N16845 G1 X405.839 Z-1.969
N16850 G1 X405.775 Z-1.947
N16855 G1 X405.707 Z-1.939
N16860 G2 X404.807 Y231.809 I0 J0.9
N16865 G1 Y233.009
N16870 G2 X405.707 Y233.909 I0.9 J0
